; generated by PrusaSlicer 2.2.0+ on 2020-12-14 at 06:59:15 UTC

; 

; external perimeters extrusion width = 0.45mm
; perimeters extrusion width = 0.45mm
; infill extrusion width = 0.45mm
; solid infill extrusion width = 0.45mm
; top infill extrusion width = 0.40mm
; support material extrusion width = 0.35mm

M201 X9000 Y9000 Z9000 E10000 ; sets maximum accelerations, mm/sec^2
M203 X500 Y500 Z500 E120 ; sets maximum feedrates, mm/sec
M204 P1500 R1500 T1500 ; sets acceleration (P, T) and retract acceleration (R), mm/sec^2
M205 X20.00 Y20.00 Z20.00 E25.00 ; sets the jerk limits, mm/sec
M205 S0 T0 ; sets the minimum extruding and travel feed rate, mm/sec
M107
M190 S80 ; set bed temperature and wait for it to be reached
M104 S220 ; set temperature
G28 ; home all axes
G29 ; ABL
M109 S220 ; set temperature and wait for it to be reached
G21 ; set units to millimeters
G90 ; use absolute coordinates
M82 ; use absolute distances for extrusion
G92 E0
; Filament gcode
M900 K0.8 ;Linear advance settings
G1 Z-2.200 F9000.000
G10 ; retract
G92 E0
G1 X12.248 Y17.715
G11 ; unretract
G92 E0
G1 F3600.000
G1 X10.485 Y18.021 E0.06056
G1 X-10.469 Y18.022 E0.76983
G1 X-11.586 Y17.877 E0.80797
G1 X-12.672 Y17.578 E0.84610
G1 X-13.706 Y17.130 E0.88423
G1 X-14.667 Y16.541 E0.92237
G1 X-15.998 Y15.347 E0.98292
G1 X-17.029 Y13.893 E1.04325
G1 X-17.715 Y12.248 E1.10357
G1 X-18.021 Y10.485 E1.16413
G1 X-18.022 Y-10.469 E1.87340
G1 X-17.877 Y-11.586 E1.91154
G1 X-17.578 Y-12.672 E1.94967
G1 X-17.130 Y-13.706 E1.98780
G1 X-16.541 Y-14.667 E2.02594
G1 X-15.450 Y-15.904 E2.08178
G1 X-14.124 Y-16.897 E2.13786
G1 X-12.622 Y-17.596 E2.19394
G1 X-11.008 Y-17.972 E2.25002
G1 X-10.023 Y-18.035 E2.28343
G1 X10.007 Y-18.035 E2.96143
G1 X11.380 Y-17.916 E3.00807
G1 X12.705 Y-17.566 E3.05447
G1 X13.958 Y-16.993 E3.10112
G1 X15.095 Y-16.214 E3.14776
G1 X16.082 Y-15.252 E3.19440
G1 X16.889 Y-14.136 E3.24104
G1 X17.495 Y-12.898 E3.28768
G1 X17.880 Y-11.575 E3.33432
G1 X18.035 Y-10.051 E3.38616
G1 X18.025 Y10.406 E4.07861
G1 X17.887 Y11.538 E4.11722
G1 X17.587 Y12.646 E4.15606
G1 X17.136 Y13.693 E4.19467
G1 X16.541 Y14.667 E4.23327
G1 X15.347 Y15.998 E4.29383
G1 X13.893 Y17.029 E4.35416
G1 X12.303 Y17.691 E4.41245
G1 X12.148 Y17.312 F9000.000
G1 F3600.000
G1 X12.089 Y17.337 E4.41462
G1 X10.423 Y17.617 E4.47178
G1 X-10.443 Y17.615 E5.17810
G1 X-11.518 Y17.476 E5.21479
G1 X-12.563 Y17.185 E5.25148
G1 X-13.555 Y16.749 E5.28817
G1 X-14.476 Y16.177 E5.32487
G1 X-15.725 Y15.041 E5.38203
G1 X-16.697 Y13.652 E5.43942
G1 X-17.337 Y12.089 E5.49658
G1 X-17.617 Y10.423 E5.55374
G1 X-17.615 Y-10.443 E6.26006
G1 X-17.476 Y-11.518 E6.29675
G1 X-17.185 Y-12.563 E6.33344
G1 X-16.749 Y-13.555 E6.37013
G1 X-16.177 Y-14.476 E6.40683
G1 X-15.128 Y-15.648 E6.46009
G1 X-13.866 Y-16.576 E6.51311
G1 X-12.441 Y-17.227 E6.56614
G1 X-10.913 Y-17.574 E6.61917
G1 X-10.021 Y-17.628 E6.64941
G1 X10.007 Y-17.628 E7.32733
G1 X11.317 Y-17.514 E7.37185
G1 X12.588 Y-17.176 E7.41637
G1 X13.782 Y-16.625 E7.46089
G1 X14.864 Y-15.876 E7.50541
G1 X15.801 Y-14.953 E7.54993
G1 X16.562 Y-13.889 E7.59422
G1 X17.133 Y-12.704 E7.63875
G1 X17.491 Y-11.438 E7.68327
G1 X17.628 Y-10.041 E7.73078
G1 X17.618 Y10.389 E8.42232
G1 X17.484 Y11.478 E8.45947
G1 X17.194 Y12.537 E8.49663
G1 X16.756 Y13.543 E8.53378
G1 X16.177 Y14.476 E8.57093
G1 X15.041 Y15.725 E8.62809
G1 X13.652 Y16.697 E8.68549
G1 X12.204 Y17.290 E8.73844
G1 X12.051 Y16.911 F9000.000
G1 F3600.000
G1 X11.945 Y16.954 E8.74233
G1 X10.369 Y17.212 E8.79638
G1 X-10.405 Y17.210 E9.49954
G1 X-11.438 Y17.077 E9.53479
G1 X-12.441 Y16.796 E9.57004
G1 X-13.393 Y16.375 E9.60529
G1 X-14.274 Y15.820 E9.64054
G1 X-15.449 Y14.739 E9.69459
G1 X-16.357 Y13.425 E9.74863
G1 X-16.954 Y11.945 E9.80268
G1 X-17.212 Y10.369 E9.85673
G1 X-17.210 Y-10.405 E10.55989
G1 X-17.077 Y-11.438 E10.59514
G1 X-16.796 Y-12.441 E10.63039
G1 X-16.375 Y-13.393 E10.66564
G1 X-15.820 Y-14.274 E10.70089
G1 X-14.823 Y-15.374 E10.75114
G1 X-13.622 Y-16.247 E10.80138
G1 X-12.268 Y-16.856 E10.85163
G1 X-10.819 Y-17.175 E10.90188
G1 X10.007 Y-17.221 E11.60679
G1 X11.248 Y-17.113 E11.64899
G1 X12.459 Y-16.790 E11.69141
G1 X13.596 Y-16.262 E11.73383
G1 X14.625 Y-15.546 E11.77624
G1 X15.509 Y-14.668 E11.81844
G1 X16.234 Y-13.645 E11.86086
G1 X16.768 Y-12.519 E11.90305
G1 X17.101 Y-11.311 E11.94547
G1 X17.221 Y-10.037 E11.98878
G1 X17.212 Y10.358 E12.67914
G1 X17.085 Y11.399 E12.71462
G1 X16.805 Y12.416 E12.75032
G1 X16.381 Y13.381 E12.78602
G1 X15.820 Y14.274 E12.82171
G1 X14.739 Y15.449 E12.87576
G1 X13.425 Y16.357 E12.92981
G1 X12.107 Y16.889 E12.97794
G1 X11.956 Y16.511 F9000.000
G1 F3600.000
G1 X11.808 Y16.570 E12.98334
G1 X10.321 Y16.807 E13.03432
G1 X-10.374 Y16.804 E13.73480
G1 X-11.364 Y16.676 E13.76861
G1 X-12.319 Y16.407 E13.80219
G1 X-13.231 Y15.999 E13.83600
G1 X-14.073 Y15.463 E13.86980
G1 X-15.170 Y14.439 E13.92056
G1 X-16.015 Y13.201 E13.97132
G1 X-16.570 Y11.808 E14.02208
G1 X-16.807 Y10.321 E14.07306
G1 X-16.804 Y-10.374 E14.77354
G1 X-16.676 Y-11.364 E14.80734
G1 X-16.407 Y-12.319 E14.84093
G1 X-15.999 Y-13.231 E14.87474
G1 X-15.463 Y-14.073 E14.90854
G1 X-14.517 Y-15.102 E14.95583
G1 X-13.376 Y-15.919 E15.00333
G1 X-12.098 Y-16.483 E15.05062
G1 X-10.732 Y-16.775 E15.09790
G1 X10.006 Y-16.814 E15.79988
G1 X11.187 Y-16.710 E15.83999
G1 X12.332 Y-16.403 E15.88011
G1 X13.406 Y-15.902 E15.92022
G1 X14.382 Y-15.219 E15.96056
G1 X15.220 Y-14.380 E16.00067
G1 X15.900 Y-13.410 E16.04079
G1 X16.403 Y-12.330 E16.08112
G1 X16.710 Y-11.185 E16.12123
G1 X16.814 Y-10.030 E16.16048
G1 X16.806 Y10.335 E16.84983
G1 X16.683 Y11.333 E16.88386
G1 X16.412 Y12.307 E16.91810
G1 X16.002 Y13.225 E16.95212
G1 X15.463 Y14.073 E16.98614
G1 X14.439 Y15.170 E17.03690
G1 X13.201 Y16.015 E17.08766
G1 X12.012 Y16.489 E17.13098
G1 X11.665 Y16.187 F9000.000
G1 F3600.000
G1 X10.271 Y16.401 E17.17872
G1 X-10.344 Y16.398 E17.87651
G1 X-11.286 Y16.277 E17.90866
G1 X-12.199 Y16.018 E17.94080
G1 X-13.065 Y15.627 E17.97295
G1 X-13.868 Y15.108 E18.00530
G1 X-14.892 Y14.138 E18.05304
G1 X-15.676 Y12.973 E18.10058
G1 X-16.187 Y11.665 E18.14811
G1 X-16.401 Y10.271 E18.19585
G1 X-16.398 Y-10.344 E18.89364
G1 X-16.277 Y-11.286 E18.92578
G1 X-16.018 Y-12.199 E18.95793
G1 X-15.627 Y-13.065 E18.99007
G1 X-15.108 Y-13.868 E19.02243
G1 X-14.214 Y-14.826 E19.06680
G1 X-13.138 Y-15.586 E19.11139
G1 X-11.929 Y-16.110 E19.15597
G1 X-10.645 Y-16.374 E19.20034
G1 X10.006 Y-16.407 E19.89938
G1 X11.126 Y-16.307 E19.93743
G1 X12.211 Y-16.013 E19.97548
G1 X13.228 Y-15.534 E20.01354
G1 X14.141 Y-14.889 E20.05138
G1 X14.932 Y-14.090 E20.08943
G1 X15.568 Y-13.171 E20.12727
G1 X16.036 Y-12.149 E20.16532
G1 X16.318 Y-11.067 E20.20316
G1 X16.407 Y-10.021 E20.23868
G1 X16.399 Y10.313 E20.92696
G1 X16.280 Y11.267 E20.95952
G1 X16.022 Y12.188 E20.99188
G1 X15.627 Y13.065 E21.02445
G1 X15.108 Y13.868 E21.05680
G1 X14.138 Y14.892 E21.10454
G1 X12.973 Y15.676 E21.15207
G1 X11.721 Y16.165 E21.19757
G10 ; retract
G92 E0
G1 X9.368 Y9.368 F9000.000
G11 ; unretract
G92 E0
G1 F3600.000
G1 X-9.368 Y9.368 E0.63419
G1 X-9.368 Y-9.368 E1.26837
G1 X9.368 Y-9.368 E1.90256
G1 X9.368 Y9.308 E2.53471
G1 X9.775 Y9.775 F9000.000
G1 F3600.000
G1 X-9.775 Y9.775 E3.19646
G1 X-9.775 Y-9.775 E3.85820
G1 X9.775 Y-9.775 E4.51995
G1 X9.775 Y9.715 E5.17966
G1 X9.389 Y9.671 F9000.000
G10 ; retract
G92 E0
G1 X-8.418 Y9.246
G11 ; unretract
G92 E0
G1 F3600.000
G1 X-9.063 Y8.601 E0.03105
G1 X-9.063 Y8.022 E0.05077
G1 X-8.022 Y9.063 E0.10089
G1 X-7.443 Y9.063 E0.12061
G1 X-9.063 Y7.443 E0.19861
G1 X-9.063 Y6.864 E0.21833
G1 X-6.864 Y9.063 E0.32422
G1 X-6.285 Y9.063 E0.34394
G1 X-9.063 Y6.284 E0.47772
G1 X-9.063 Y5.705 E0.49744
G1 X-5.705 Y9.063 E0.65911
G1 X-5.126 Y9.063 E0.67883
G1 X-9.063 Y5.126 E0.86839
G1 X-9.063 Y4.547 E0.88811
G1 X-4.547 Y9.063 E1.10556
G1 X-3.968 Y9.063 E1.12528
G1 X-9.063 Y3.968 E1.37061
G1 X-9.063 Y3.389 E1.39033
G1 X-3.389 Y9.063 E1.66356
G1 X-2.810 Y9.063 E1.68328
G1 X-9.063 Y2.810 E1.98439
G1 X-9.063 Y2.231 E2.00411
G1 X-2.231 Y9.063 E2.33311
G1 X-1.651 Y9.063 E2.35283
G1 X-9.063 Y1.651 E2.70972
G1 X-9.063 Y1.072 E2.72944
G1 X-1.072 Y9.063 E3.11421
G1 X-0.493 Y9.063 E3.13393
G1 X-9.063 Y0.493 E3.54660
G1 X-9.063 Y-0.086 E3.56632
G1 X0.086 Y9.063 E4.00687
G1 X0.665 Y9.063 E4.02659
G1 X-9.063 Y-0.665 E4.49503
G1 X-9.063 Y-1.244 E4.51475
G1 X1.244 Y9.063 E5.01108
G1 X1.823 Y9.063 E5.03080
G1 X-9.063 Y-1.823 E5.55502
G1 X-9.063 Y-2.403 E5.57474
G1 X2.403 Y9.063 E6.12685
G1 X2.982 Y9.063 E6.14657
G1 X-9.063 Y-2.982 E6.72656
G1 X-9.063 Y-3.561 E6.74628
G1 X3.561 Y9.063 E7.35417
G1 X4.140 Y9.063 E7.37389
G1 X-9.063 Y-4.140 E8.00966
G1 X-9.063 Y-4.719 E8.02938
G1 X4.719 Y9.063 E8.69304
G1 X5.298 Y9.063 E8.71276
G1 X-9.063 Y-5.298 E9.40431
G1 X-9.063 Y-5.877 E9.42403
G1 X5.877 Y9.063 E10.14346
G1 X6.456 Y9.063 E10.16318
G1 X-9.063 Y-6.456 E10.91051
G1 X-9.063 Y-7.036 E10.93023
G1 X7.036 Y9.063 E11.70544
G1 X7.615 Y9.063 E11.72516
G1 X-9.063 Y-7.615 E12.52826
G1 X-9.063 Y-8.194 E12.54798
G1 X8.194 Y9.063 E13.37897
G1 X8.773 Y9.063 E13.39869
G1 X-9.063 Y-8.773 E14.25757
G1 X-9.063 Y-9.063 E14.26743
G1 X-8.773 Y-9.063 E14.27729
G1 X9.063 Y8.773 E15.13618
G1 X9.063 Y8.194 E15.15590
G1 X-8.194 Y-9.063 E15.98689
G1 X-7.615 Y-9.063 E16.00661
G1 X9.063 Y7.615 E16.80972
G1 X9.063 Y7.036 E16.82944
G1 X-7.036 Y-9.063 E17.60466
G1 X-6.457 Y-9.063 E17.62438
G1 X9.063 Y6.457 E18.37171
G1 X9.063 Y5.877 E18.39143
G1 X-5.877 Y-9.063 E19.11087
G1 X-5.298 Y-9.063 E19.13059
G1 X9.063 Y5.298 E19.82215
G1 X9.063 Y4.719 E19.84187
G1 X-4.719 Y-9.063 E20.50553
G1 X-4.140 Y-9.063 E20.52525
G1 X9.063 Y4.140 E21.16103
G1 X9.063 Y3.561 E21.18075
G1 X-3.561 Y-9.063 E21.78864
G1 X-2.982 Y-9.063 E21.80836
G1 X9.063 Y2.982 E22.38836
G1 X9.063 Y2.403 E22.40808
G1 X-2.403 Y-9.063 E22.96019
G1 X-1.823 Y-9.063 E22.97991
G1 X9.063 Y1.823 E23.50413
G1 X9.063 Y1.244 E23.52385
G1 X-1.244 Y-9.063 E24.02019
G1 X-0.665 Y-9.063 E24.03991
G1 X9.063 Y0.665 E24.50836
G1 X9.063 Y0.086 E24.52808
G1 X-0.086 Y-9.063 E24.96863
G1 X0.493 Y-9.063 E24.98835
G1 X9.063 Y-0.493 E25.40102
G1 X9.063 Y-1.072 E25.42074
G1 X1.072 Y-9.063 E25.80553
G1 X1.651 Y-9.063 E25.82525
G1 X9.063 Y-1.651 E26.18214
G1 X9.063 Y-2.230 E26.20186
G1 X2.230 Y-9.063 E26.53086
G1 X2.810 Y-9.063 E26.55058
G1 X9.063 Y-2.810 E26.85170
G1 X9.063 Y-3.389 E26.87142
G1 X3.389 Y-9.063 E27.14465
G1 X3.968 Y-9.063 E27.16437
G1 X9.063 Y-3.968 E27.40971
G1 X9.063 Y-4.547 E27.42943
G1 X4.547 Y-9.063 E27.64688
G1 X5.126 Y-9.063 E27.66660
G1 X9.063 Y-5.126 E27.85616
G1 X9.063 Y-5.705 E27.87588
G1 X5.705 Y-9.063 E28.03756
G1 X6.284 Y-9.063 E28.05728
G1 X9.063 Y-6.284 E28.19107
G1 X9.063 Y-6.864 E28.21079
G1 X6.864 Y-9.063 E28.31668
G1 X7.443 Y-9.063 E28.33640
G1 X9.063 Y-7.443 E28.41441
G1 X9.063 Y-8.022 E28.43413
G1 X8.022 Y-9.063 E28.48426
G1 X8.601 Y-9.063 E28.50398
G1 X9.246 Y-8.418 E28.53503
G1 Z-2.000 F9000.000
M140 S60 ; set bed temperature
G1 X9.368 Y9.368
G1 F6000.000
G1 X-9.368 Y9.368 E29.16922
G1 X-9.368 Y-9.368 E29.80340
G1 X9.368 Y-9.368 E30.43759
G1 X9.368 Y9.308 E31.06974
G1 X9.775 Y9.775 F9000.000
G1 F6000.000
G1 X-9.775 Y9.775 E31.73149
G1 X-9.775 Y-9.775 E32.39323
G1 X9.775 Y-9.775 E33.05498
G1 X9.775 Y9.715 E33.71469
G1 X9.389 Y9.671 F9000.000
G1 X-9.246 Y-8.418
G1 F6000.000
G1 X-8.601 Y-9.063 E33.74574
G1 X-8.022 Y-9.063 E33.76546
G1 X-9.063 Y-8.022 E33.81557
G1 X-9.063 Y-7.443 E33.83529
G1 X-7.443 Y-9.063 E33.91330
G1 X-6.864 Y-9.063 E33.93302
G1 X-9.063 Y-6.864 E34.03891
G1 X-9.063 Y-6.285 E34.05863
G1 X-6.285 Y-9.063 E34.19241
G1 X-5.705 Y-9.063 E34.21213
G1 X-9.063 Y-5.705 E34.37380
G1 X-9.063 Y-5.126 E34.39352
G1 X-5.126 Y-9.063 E34.58308
G1 X-4.547 Y-9.063 E34.60280
G1 X-9.063 Y-4.547 E34.82025
G1 X-9.063 Y-3.968 E34.83997
G1 X-3.968 Y-9.063 E35.08530
G1 X-3.389 Y-9.063 E35.10502
G1 X-9.063 Y-3.389 E35.37824
G1 X-9.063 Y-2.810 E35.39796
G1 X-2.810 Y-9.063 E35.69908
G1 X-2.231 Y-9.063 E35.71880
G1 X-9.063 Y-2.231 E36.04780
G1 X-9.063 Y-1.651 E36.06752
G1 X-1.651 Y-9.063 E36.42440
G1 X-1.072 Y-9.063 E36.44412
G1 X-9.063 Y-1.072 E36.82890
G1 X-9.063 Y-0.493 E36.84862
G1 X-0.493 Y-9.063 E37.26128
G1 X0.086 Y-9.063 E37.28100
G1 X-9.063 Y0.086 E37.72156
G1 X-9.063 Y0.665 E37.74128
G1 X0.665 Y-9.063 E38.20972
G1 X1.244 Y-9.063 E38.22944
G1 X-9.063 Y1.244 E38.72577
G1 X-9.063 Y1.823 E38.74549
G1 X1.823 Y-9.063 E39.26971
G1 X2.403 Y-9.063 E39.28943
G1 X-9.063 Y2.403 E39.84153
G1 X-9.063 Y2.982 E39.86125
G1 X2.982 Y-9.063 E40.44125
G1 X3.561 Y-9.063 E40.46097
G1 X-9.063 Y3.561 E41.06885
G1 X-9.063 Y4.140 E41.08857
G1 X4.140 Y-9.063 E41.72434
G1 X4.719 Y-9.063 E41.74406
G1 X-9.063 Y4.719 E42.40772
G1 X-9.063 Y5.298 E42.42744
G1 X5.298 Y-9.063 E43.11899
G1 X5.877 Y-9.063 E43.13871
G1 X-9.063 Y5.877 E43.85815
G1 X-9.063 Y6.456 E43.87787
G1 X6.456 Y-9.063 E44.62520
G1 X7.036 Y-9.063 E44.64492
G1 X-9.063 Y7.036 E45.42013
G1 X-9.063 Y7.615 E45.43985
G1 X7.615 Y-9.063 E46.24295
G1 X8.194 Y-9.063 E46.26267
G1 X-9.063 Y8.194 E47.09366
G1 X-9.063 Y8.773 E47.11338
G1 X8.773 Y-9.063 E47.97226
G1 X9.063 Y-9.063 E47.98212
G1 X9.063 Y-8.773 E47.99198
G1 X-8.773 Y9.063 E48.85086
G1 X-8.194 Y9.063 E48.87058
G1 X9.063 Y-8.194 E49.70158
G1 X9.063 Y-7.615 E49.72130
G1 X-7.615 Y9.063 E50.52441
G1 X-7.036 Y9.063 E50.54413
G1 X9.063 Y-7.036 E51.31935
G1 X9.063 Y-6.457 E51.33907
G1 X-6.457 Y9.063 E52.08640
G1 X-5.877 Y9.063 E52.10612
G1 X9.063 Y-5.877 E52.82556
G1 X9.063 Y-5.298 E52.84528
G1 X-5.298 Y9.063 E53.53683
G1 X-4.719 Y9.063 E53.55655
G1 X9.063 Y-4.719 E54.22022
G1 X9.063 Y-4.140 E54.23994
G1 X-4.140 Y9.063 E54.87572
G1 X-3.561 Y9.063 E54.89544
G1 X9.063 Y-3.561 E55.50332
G1 X9.063 Y-2.982 E55.52304
G1 X-2.982 Y9.063 E56.10305
G1 X-2.403 Y9.063 E56.12277
G1 X9.063 Y-2.403 E56.67488
G1 X9.063 Y-1.823 E56.69460
G1 X-1.824 Y9.063 E57.21882
G1 X-1.244 Y9.063 E57.23854
G1 X9.063 Y-1.244 E57.73488
G1 X9.063 Y-0.665 E57.75460
G1 X-0.665 Y9.063 E58.22304
G1 X-0.086 Y9.063 E58.24276
G1 X9.063 Y-0.086 E58.68332
G1 X9.063 Y0.493 E58.70304
G1 X0.493 Y9.063 E59.11571
G1 X1.072 Y9.063 E59.13543
G1 X9.063 Y1.072 E59.52021
G1 X9.063 Y1.651 E59.53993
G1 X1.651 Y9.063 E59.89683
G1 X2.230 Y9.063 E59.91655
G1 X9.063 Y2.230 E60.24555
G1 X9.063 Y2.810 E60.26527
G1 X2.810 Y9.063 E60.56639
G1 X3.389 Y9.063 E60.58611
G1 X9.063 Y3.389 E60.85934
G1 X9.063 Y3.968 E60.87906
G1 X3.968 Y9.063 E61.12440
G1 X4.547 Y9.063 E61.14412
G1 X9.063 Y4.547 E61.36157
G1 X9.063 Y5.126 E61.38129
G1 X5.126 Y9.063 E61.57085
G1 X5.705 Y9.063 E61.59057
G1 X9.063 Y5.705 E61.75225
G1 X9.063 Y6.284 E61.77197
G1 X6.284 Y9.063 E61.90575
G1 X6.864 Y9.063 E61.92547
G1 X9.063 Y6.864 E62.03137
G1 X9.063 Y7.443 E62.05109
G1 X7.443 Y9.063 E62.12910
G1 X8.022 Y9.063 E62.14882
G1 X9.063 Y8.022 E62.19894
G1 X9.063 Y8.601 E62.21866
G1 X8.418 Y9.246 E62.24972
G1 Z-1.800 F9000.000
G1 X9.368 Y9.368
G1 F6000.000
G1 X-9.368 Y9.368 E62.88390
G1 X-9.368 Y-9.368 E63.51809
G1 X9.368 Y-9.368 E64.15228
G1 X9.368 Y9.308 E64.78443
G1 X9.775 Y9.775 F9000.000
G1 F6000.000
G1 X-9.775 Y9.775 E65.44618
G1 X-9.775 Y-9.775 E66.10792
G1 X9.775 Y-9.775 E66.76966
G1 X9.775 Y9.715 E67.42938
G1 X9.389 Y9.671 F9000.000
G1 X-8.418 Y9.246
G1 F6000.000
G1 X-9.063 Y8.601 E67.46043
G1 X-9.063 Y8.022 E67.48015
G1 X-8.022 Y9.063 E67.53026
G1 X-7.443 Y9.063 E67.54998
G1 X-9.063 Y7.443 E67.62799
G1 X-9.063 Y6.864 E67.64771
G1 X-6.864 Y9.063 E67.75360
G1 X-6.285 Y9.063 E67.77332
G1 X-9.063 Y6.284 E67.90710
G1 X-9.063 Y5.705 E67.92682
G1 X-5.705 Y9.063 E68.08849
G1 X-5.126 Y9.063 E68.10821
G1 X-9.063 Y5.126 E68.29777
G1 X-9.063 Y4.547 E68.31749
G1 X-4.547 Y9.063 E68.53494
G1 X-3.968 Y9.063 E68.55466
G1 X-9.063 Y3.968 E68.79999
G1 X-9.063 Y3.389 E68.81971
G1 X-3.389 Y9.063 E69.09293
G1 X-2.810 Y9.063 E69.11265
G1 X-9.063 Y2.810 E69.41376
G1 X-9.063 Y2.231 E69.43348
G1 X-2.231 Y9.063 E69.76248
G1 X-1.651 Y9.063 E69.78220
G1 X-9.063 Y1.651 E70.13909
G1 X-9.063 Y1.072 E70.15881
G1 X-1.072 Y9.063 E70.54359
G1 X-0.493 Y9.063 E70.56331
G1 X-9.063 Y0.493 E70.97597
G1 X-9.063 Y-0.086 E70.99569
G1 X0.086 Y9.063 E71.43625
G1 X0.665 Y9.063 E71.45597
G1 X-9.063 Y-0.665 E71.92441
G1 X-9.063 Y-1.244 E71.94413
G1 X1.244 Y9.063 E72.44046
