; generated by PrusaSlicer 2.2.0+ on 2020-12-17 at 23:27:22 UTC

; 

; external perimeters extrusion width = 0.40mm
; perimeters extrusion width = 0.40mm
; infill extrusion width = 0.40mm
; solid infill extrusion width = 0.40mm
; top infill extrusion width = 0.40mm

M201 X9000 Y9000 Z9000 E10000 ; sets maximum accelerations, mm/sec^2
M203 X500 Y500 Z500 E120 ; sets maximum feedrates, mm/sec
M204 P1500 R1500 T1500 ; sets acceleration (P, T) and retract acceleration (R), mm/sec^2
M205 X20.00 Y20.00 Z20.00 E25.00 ; sets the jerk limits, mm/sec
M205 S0 T0 ; sets the minimum extruding and travel feed rate, mm/sec
M107
M190 S80 ; set bed temperature and wait for it to be reached
M104 S220 ; set temperature
G28 ; home all axes
G29 ; ABL
M109 S220 ; set temperature and wait for it to be reached
G21 ; set units to millimeters
G90 ; use absolute coordinates
M82 ; use absolute distances for extrusion
G92 E0
; Filament gcode
M900 K0.8 ;Linear advance settings
G1 Z-2.200 F9000.000
G10 ; retract
G92 E0
G1 X-0.019 Y-22.771
G11 ; unretract
G92 E0
G1 F3600.000
G1 X15.005 Y-22.784 E0.44610
G1 X16.390 Y-22.659 E0.48739
G1 X17.724 Y-22.291 E0.52848
G1 X18.972 Y-21.693 E0.56956
G1 X20.100 Y-20.880 E0.61085
G1 X21.065 Y-19.878 E0.65214
G1 X21.836 Y-18.721 E0.69343
G1 X22.387 Y-17.452 E0.73451
G1 X22.706 Y-16.098 E0.77580
G1 X22.784 Y-15.020 E0.80791
G1 X22.776 Y15.350 E1.70963
G1 X22.626 Y16.560 E1.74582
G1 X22.289 Y17.731 E1.78201
G1 X21.776 Y18.829 E1.81799
G1 X21.095 Y19.840 E1.85418
G1 X19.910 Y21.039 E1.90423
G1 X18.495 Y21.955 E1.95428
G1 X16.909 Y22.546 E2.00453
G1 X15.240 Y22.780 E2.05457
G1 X-15.371 Y22.775 E2.96345
G1 X-16.573 Y22.623 E2.99944
G1 X-17.737 Y22.286 E3.03542
G1 X-18.835 Y21.773 E3.07141
G1 X-19.840 Y21.095 E3.10740
G1 X-21.039 Y19.910 E3.15744
G1 X-21.955 Y18.495 E3.20749
G1 X-22.546 Y16.909 E3.25774
G1 X-22.780 Y15.240 E3.30779
G1 X-22.775 Y-15.371 E4.21667
G1 X-22.623 Y-16.573 E4.25265
G1 X-22.286 Y-17.737 E4.28864
G1 X-21.773 Y-18.835 E4.32462
G1 X-21.095 Y-19.840 E4.36061
G1 X-19.985 Y-20.978 E4.40781
G1 X-18.667 Y-21.866 E4.45500
G1 X-17.195 Y-22.468 E4.50220
G1 X-15.633 Y-22.758 E4.54940
G1 X-0.079 Y-22.771 E5.01120
G1 X-0.079 Y-22.416 F9000.000
G1 F3600.000
G1 X15.005 Y-22.427 E5.45907
G1 X16.325 Y-22.308 E5.49840
G1 X17.608 Y-21.953 E5.53793
G1 X18.808 Y-21.376 E5.57746
G1 X19.880 Y-20.598 E5.61680
G1 X20.797 Y-19.642 E5.65613
G1 X21.533 Y-18.532 E5.69566
G1 X22.058 Y-17.309 E5.73519
G1 X22.358 Y-16.012 E5.77473
G1 X22.427 Y-15.011 E5.80449
G1 X22.420 Y15.322 E6.70512
G1 X22.277 Y16.483 E6.73987
G1 X21.951 Y17.614 E6.77482
G1 X21.451 Y18.680 E6.80977
G1 X20.792 Y19.648 E6.84452
G1 X19.658 Y20.784 E6.89221
G1 X18.305 Y21.650 E6.93990
G1 X16.798 Y22.206 E6.98759
G1 X15.207 Y22.424 E7.03528
G1 X-15.349 Y22.419 E7.94250
G1 X-16.503 Y22.273 E7.97705
G1 X-17.627 Y21.946 E8.01180
G1 X-18.680 Y21.451 E8.04636
G1 X-19.648 Y20.792 E8.08111
G1 X-20.784 Y19.658 E8.12879
G1 X-21.650 Y18.305 E8.17648
G1 X-22.206 Y16.798 E8.22417
G1 X-22.424 Y15.207 E8.27186
G1 X-22.419 Y-15.349 E9.17909
G1 X-22.273 Y-16.503 E9.21364
G1 X-21.946 Y-17.627 E9.24839
G1 X-21.451 Y-18.680 E9.28294
G1 X-20.792 Y-19.648 E9.31769
G1 X-19.725 Y-20.729 E9.36279
G1 X-18.467 Y-21.568 E9.40770
G1 X-17.064 Y-22.134 E9.45260
G1 X-15.576 Y-22.404 E9.49751
G1 X-0.139 Y-22.416 E9.95587
G1 X-0.139 Y-22.060 F9000.000
G1 F3600.000
G1 X15.005 Y-22.070 E10.40551
G1 X16.266 Y-21.955 E10.44311
G1 X17.493 Y-21.615 E10.48090
G1 X18.638 Y-21.061 E10.51869
G1 X19.661 Y-20.315 E10.55628
G1 X20.539 Y-19.393 E10.59407
G1 X21.234 Y-18.334 E10.63167
G1 X21.731 Y-17.162 E10.66946
G1 X22.009 Y-15.927 E10.70705
G1 X22.070 Y-15.010 E10.73434
G1 X22.063 Y15.301 E11.63431
G1 X21.925 Y16.421 E11.66782
G1 X21.613 Y17.499 E11.70114
G1 X21.131 Y18.520 E11.73466
G1 X20.497 Y19.445 E11.76798
G1 X19.413 Y20.522 E11.81334
G1 X18.130 Y21.339 E11.85850
G1 X16.695 Y21.863 E11.90386
G1 X15.181 Y22.067 E11.94923
G1 X-15.320 Y22.063 E12.85485
G1 X-16.434 Y21.923 E12.88817
G1 X-17.511 Y21.608 E12.92149
G1 X-18.520 Y21.131 E12.95461
G1 X-19.445 Y20.497 E12.98793
G1 X-20.522 Y19.413 E13.03329
G1 X-21.339 Y18.130 E13.07846
G1 X-21.863 Y16.695 E13.12382
G1 X-22.067 Y15.181 E13.16918
G1 X-22.063 Y-15.320 E14.07480
G1 X-21.923 Y-16.434 E14.10812
G1 X-21.608 Y-17.511 E14.14144
G1 X-21.131 Y-18.520 E14.17457
G1 X-20.497 Y-19.445 E14.20789
G1 X-19.480 Y-20.469 E14.25072
G1 X-18.276 Y-21.264 E14.29356
G1 X-16.942 Y-21.797 E14.33621
G1 X-15.522 Y-22.050 E14.37905
G1 X-0.199 Y-22.060 E14.83401
G1 X-0.199 Y-21.705 F9000.000
G1 F3600.000
G1 X15.005 Y-21.713 E15.28543
G1 X16.215 Y-21.602 E15.32149
G1 X17.378 Y-21.277 E15.35736
G1 X18.465 Y-20.749 E15.39324
G1 X19.439 Y-20.034 E15.42911
G1 X20.270 Y-19.157 E15.46499
G1 X20.933 Y-18.139 E15.50105
G1 X21.400 Y-17.025 E15.53693
G1 X21.659 Y-15.845 E15.57280
G1 X21.713 Y-15.008 E15.59769
G1 X21.707 Y15.280 E16.49699
G1 X21.575 Y16.353 E16.52907
G1 X21.275 Y17.384 E16.56097
G1 X20.811 Y18.360 E16.59306
G1 X20.196 Y19.249 E16.62515
G1 X19.167 Y20.262 E16.66802
G1 X17.945 Y21.032 E16.71089
G1 X16.587 Y21.522 E16.75376
G1 X15.162 Y21.711 E16.79645
G1 X-15.293 Y21.706 E17.70069
G1 X-16.359 Y21.573 E17.73259
G1 X-17.390 Y21.272 E17.76449
G1 X-18.360 Y20.811 E17.79638
G1 X-19.249 Y20.196 E17.82847
G1 X-20.262 Y19.167 E17.87134
G1 X-21.032 Y17.945 E17.91422
G1 X-21.522 Y16.587 E17.95709
G1 X-21.711 Y15.162 E17.99977
G1 X-21.706 Y-15.293 E18.90402
G1 X-21.573 Y-16.359 E18.93591
G1 X-21.272 Y-17.390 E18.96781
G1 X-20.811 Y-18.360 E18.99971
G1 X-20.196 Y-19.249 E19.03180
G1 X-19.227 Y-20.214 E19.07240
G1 X-18.088 Y-20.960 E19.11282
G1 X-16.816 Y-21.462 E19.15342
G1 X-15.469 Y-21.696 E19.19403
G1 X-0.259 Y-21.704 E19.64564
G1 X-0.258 Y-21.349 F9000.000
G1 F3600.000
G1 X15.005 Y-21.356 E20.09882
G1 X16.145 Y-21.252 E20.13281
G1 X17.253 Y-20.942 E20.16697
G1 X18.288 Y-20.439 E20.20114
G1 X19.215 Y-19.756 E20.23531
G1 X20.003 Y-18.918 E20.26948
G1 X20.628 Y-17.952 E20.30365
G1 X21.068 Y-16.889 E20.33782
G1 X21.309 Y-15.763 E20.37198
G1 X21.351 Y15.254 E21.29293
G1 X21.225 Y16.279 E21.32360
G1 X20.936 Y17.271 E21.35427
G1 X20.489 Y18.202 E21.38493
G1 X19.902 Y19.044 E21.41542
G1 X18.928 Y19.996 E21.45584
G1 X17.768 Y20.721 E21.49645
G1 X16.486 Y21.179 E21.53688
G1 X15.136 Y21.354 E21.57730
G1 X-15.266 Y21.350 E22.48000
G1 X-16.285 Y21.224 E22.51048
G1 X-17.276 Y20.934 E22.54115
G1 X-18.202 Y20.489 E22.57163
G1 X-19.044 Y19.902 E22.60211
G1 X-19.996 Y18.928 E22.64254
G1 X-20.721 Y17.768 E22.68315
G1 X-21.179 Y16.486 E22.72357
G1 X-21.354 Y15.136 E22.76400
G1 X-21.350 Y-15.266 E23.66669
G1 X-21.224 Y-16.285 E23.69717
G1 X-20.934 Y-17.276 E23.72784
G1 X-20.489 Y-18.202 E23.75832
G1 X-19.902 Y-19.044 E23.78881
G1 X-18.982 Y-19.953 E23.82721
G1 X-17.897 Y-20.657 E23.86561
G1 X-16.691 Y-21.126 E23.90401
G1 X-15.416 Y-21.342 E23.94242
G1 X-0.318 Y-21.349 E24.39069
G10 ; retract
G92 E0
G1 X-0.318 Y-14.799 F9000.000
G11 ; unretract
G92 E0
G1 F3600.000
G1 X14.799 Y-14.799 E0.44884
G1 X14.799 Y14.799 E1.32762
G1 X-14.799 Y14.799 E2.20640
G1 X-14.799 Y-14.799 E3.08518
G1 X-0.378 Y-14.799 E3.51333
G10 ; retract
G92 E0
G1 X-13.966 Y14.691 F9000.000
G11 ; unretract
G92 E0
G1 F3600.000
G1 X-14.531 Y14.127 E0.02381
G1 X-14.531 Y13.620 E0.03893
G1 X-13.620 Y14.531 E0.07735
G1 X-13.113 Y14.531 E0.09248
G1 X-14.531 Y13.113 E0.15229
G1 X-14.531 Y12.605 E0.16742
G1 X-12.605 Y14.531 E0.24863
G1 X-12.098 Y14.531 E0.26375
G1 X-14.531 Y12.098 E0.36635
G1 X-14.531 Y11.591 E0.38148
G1 X-11.591 Y14.531 E0.50547
G1 X-11.084 Y14.531 E0.52059
G1 X-14.531 Y11.084 E0.66598
G1 X-14.531 Y10.576 E0.68110
G1 X-10.576 Y14.531 E0.84788
G1 X-10.069 Y14.531 E0.86300
G1 X-14.531 Y10.069 E1.05117
G1 X-14.531 Y9.562 E1.06630
G1 X-9.562 Y14.531 E1.27585
G1 X-9.055 Y14.531 E1.29098
G1 X-14.531 Y9.055 E1.52193
G1 X-14.531 Y8.548 E1.53706
G1 X-8.548 Y14.531 E1.78940
G1 X-8.040 Y14.531 E1.80452
G1 X-14.531 Y8.040 E2.07826
G1 X-14.531 Y7.533 E2.09339
G1 X-7.533 Y14.531 E2.38851
G1 X-7.026 Y14.531 E2.40364
G1 X-14.531 Y7.026 E2.72016
G1 X-14.531 Y6.519 E2.73528
G1 X-6.519 Y14.531 E3.07319
G1 X-6.012 Y14.531 E3.08832
G1 X-14.531 Y6.012 E3.44762
G1 X-14.531 Y5.504 E3.46275
G1 X-5.504 Y14.531 E3.84344
G1 X-4.997 Y14.531 E3.85857
G1 X-14.531 Y4.997 E4.26066
G1 X-14.531 Y4.490 E4.27578
G1 X-4.490 Y14.531 E4.69926
G1 X-3.983 Y14.531 E4.71439
G1 X-14.531 Y3.983 E5.15926
G1 X-14.531 Y3.475 E5.17439
G1 X-3.475 Y14.531 E5.64065
G1 X-2.968 Y14.531 E5.65578
G1 X-14.531 Y2.968 E6.14343
G1 X-14.531 Y2.461 E6.15856
G1 X-2.461 Y14.531 E6.66760
G1 X-1.954 Y14.531 E6.68273
G1 X-14.531 Y1.954 E7.21317
G1 X-14.531 Y1.447 E7.22830
G1 X-1.447 Y14.531 E7.78013
G1 X-0.939 Y14.531 E7.79525
G1 X-14.531 Y0.939 E8.36848
G1 X-14.531 Y0.432 E8.38360
G1 X-0.432 Y14.531 E8.97822
G1 X0.075 Y14.531 E8.99334
G1 X-14.531 Y-0.075 E9.60935
G1 X-14.531 Y-0.582 E9.62448
G1 X0.582 Y14.531 E10.26188
G1 X1.090 Y14.531 E10.27700
G1 X-14.531 Y-1.090 E10.93580
G1 X-14.531 Y-1.597 E10.95092
G1 X1.597 Y14.531 E11.63111
G1 X2.104 Y14.531 E11.64623
G1 X-14.531 Y-2.104 E12.34781
G1 X-14.531 Y-2.611 E12.36293
G1 X2.611 Y14.531 E13.08590
G1 X3.118 Y14.531 E13.10103
G1 X-14.531 Y-3.118 E13.84539
G1 X-14.531 Y-3.626 E13.86051
G1 X3.626 Y14.531 E14.62627
G1 X4.133 Y14.531 E14.64139
G1 X-14.531 Y-4.133 E15.42854
G1 X-14.531 Y-4.640 E15.44366
G1 X4.640 Y14.531 E16.25220
G1 X5.147 Y14.531 E16.26732
G1 X-14.531 Y-5.147 E17.09725
G1 X-14.531 Y-5.654 E17.11238
G1 X5.654 Y14.531 E17.96370
G1 X6.162 Y14.531 E17.97883
G1 X-14.531 Y-6.162 E18.85154
G1 X-14.531 Y-6.669 E18.86666
G1 X6.669 Y14.531 E19.76077
G1 X7.176 Y14.531 E19.77589
G1 X-14.531 Y-7.176 E20.69139
G1 X-14.531 Y-7.683 E20.70652
G1 X7.683 Y14.531 E21.64341
G1 X8.191 Y14.531 E21.65853
G1 X-14.531 Y-8.191 E22.61681
G1 X-14.531 Y-8.698 E22.63194
G1 X8.698 Y14.531 E23.61161
G1 X9.205 Y14.531 E23.62674
G1 X-14.531 Y-9.205 E24.62780
G1 X-14.531 Y-9.712 E24.64293
G1 X9.712 Y14.531 E25.66538
G1 X10.219 Y14.531 E25.68051
G1 X-14.531 Y-10.219 E26.72436
G1 X-14.531 Y-10.727 E26.73949
G1 X10.727 Y14.531 E27.80473
G1 X11.234 Y14.531 E27.81985
G1 X-14.531 Y-11.234 E28.90649
G1 X-14.531 Y-11.741 E28.92161
G1 X11.741 Y14.531 E30.02964
G1 X12.248 Y14.531 E30.04476
G1 X-14.531 Y-12.248 E31.17418
G1 X-14.531 Y-12.756 E31.18931
G1 X12.756 Y14.531 E32.34012
G1 X13.263 Y14.531 E32.35524
G1 X-14.531 Y-13.263 E33.52744
G1 X-14.531 Y-13.770 E33.54257
G1 X13.770 Y14.531 E34.73616
G1 X14.277 Y14.531 E34.75129
G1 X-14.531 Y-14.277 E35.96627
G1 X-14.531 Y-14.531 E35.97384
G1 X-14.277 Y-14.531 E35.98140
G1 X14.531 Y14.277 E37.19639
G1 X14.531 Y13.770 E37.21151
G1 X-13.770 Y-14.531 E38.40511
G1 X-13.263 Y-14.531 E38.42023
G1 X14.531 Y13.263 E39.59244
G1 X14.531 Y12.756 E39.60756
G1 X-12.756 Y-14.531 E40.75837
G1 X-12.248 Y-14.531 E40.77350
G1 X14.531 Y12.248 E41.90292
G1 X14.531 Y11.741 E41.91805
G1 X-11.741 Y-14.531 E43.02607
G1 X-11.234 Y-14.531 E43.04120
G1 X14.531 Y11.234 E44.12783
G1 X14.531 Y10.727 E44.14296
G1 X-10.727 Y-14.531 E45.20820
G1 X-10.219 Y-14.531 E45.22333
G1 X14.531 Y10.219 E46.26718
G1 X14.531 Y9.712 E46.28231
G1 X-9.712 Y-14.531 E47.30476
G1 X-9.205 Y-14.531 E47.31989
G1 X14.531 Y9.205 E48.32096
G1 X14.531 Y8.698 E48.33608
G1 X-8.698 Y-14.531 E49.31576
G1 X-8.191 Y-14.531 E49.33088
G1 X14.531 Y8.191 E50.28917
G1 X14.531 Y7.683 E50.30429
G1 X-7.683 Y-14.531 E51.24118
G1 X-7.176 Y-14.531 E51.25631
G1 X14.531 Y7.176 E52.17181
G1 X14.531 Y6.669 E52.18693
G1 X-6.669 Y-14.531 E53.08104
G1 X-6.162 Y-14.531 E53.09616
G1 X14.531 Y6.162 E53.96888
G1 X14.531 Y5.655 E53.98400
G1 X-5.655 Y-14.531 E54.83533
G1 X-5.147 Y-14.531 E54.85045
G1 X14.531 Y5.147 E55.68038
G1 X14.531 Y4.640 E55.69551
G1 X-4.640 Y-14.531 E56.50405
G1 X-4.133 Y-14.531 E56.51917
G1 X14.531 Y4.133 E57.30632
G1 X14.531 Y3.626 E57.32145
G1 X-3.626 Y-14.531 E58.08720
G1 X-3.118 Y-14.531 E58.10233
G1 X14.531 Y3.118 E58.84669
G1 X14.531 Y2.611 E58.86181
G1 X-2.611 Y-14.531 E59.58478
G1 X-2.104 Y-14.531 E59.59991
G1 X14.531 Y2.104 E60.30149
G1 X14.531 Y1.597 E60.31661
G1 X-1.597 Y-14.531 E60.99680
G1 X-1.090 Y-14.531 E61.01192
G1 X14.531 Y1.090 E61.67072
G1 X14.531 Y0.582 E61.68584
G1 X-0.582 Y-14.531 E62.32324
G1 X-0.075 Y-14.531 E62.33837
G1 X14.531 Y0.075 E62.95438
G1 X14.531 Y-0.432 E62.96951
G1 X0.432 Y-14.531 E63.56412
G1 X0.939 Y-14.531 E63.57925
G1 X14.531 Y-0.939 E64.15248
G1 X14.531 Y-1.447 E64.16760
G1 X1.447 Y-14.531 E64.71943
G1 X1.954 Y-14.531 E64.73456
G1 X14.531 Y-1.954 E65.26500
G1 X14.531 Y-2.461 E65.28013
G1 X2.461 Y-14.531 E65.78918
G1 X2.968 Y-14.531 E65.80430
G1 X14.531 Y-2.968 E66.29196
G1 X14.531 Y-3.475 E66.30709
G1 X3.475 Y-14.531 E66.77335
G1 X3.983 Y-14.531 E66.78848
G1 X14.531 Y-3.983 E67.23335
G1 X14.531 Y-4.490 E67.24848
G1 X4.490 Y-14.531 E67.67196
G1 X4.997 Y-14.531 E67.68708
G1 X14.531 Y-4.997 E68.08917
G1 X14.531 Y-5.504 E68.10430
G1 X5.504 Y-14.531 E68.48499
G1 X6.011 Y-14.531 E68.50012
G1 X14.531 Y-6.011 E68.85943
G1 X14.531 Y-6.519 E68.87455
G1 X6.519 Y-14.531 E69.21246
G1 X7.026 Y-14.531 E69.22759
G1 X14.531 Y-7.026 E69.54411
G1 X14.531 Y-7.533 E69.55924
G1 X7.533 Y-14.531 E69.85436
G1 X8.040 Y-14.531 E69.86949
G1 X14.531 Y-8.040 E70.14323
G1 X14.531 Y-8.548 E70.15835
G1 X8.548 Y-14.531 E70.41070
G1 X9.055 Y-14.531 E70.42582
G1 X14.531 Y-9.055 E70.65678
G1 X14.531 Y-9.562 E70.67190
G1 X9.562 Y-14.531 E70.88146
G1 X10.069 Y-14.531 E70.89659
G1 X14.531 Y-10.069 E71.08476
G1 X14.531 Y-10.576 E71.09988
G1 X10.576 Y-14.531 E71.26666
G1 X11.084 Y-14.531 E71.28179
G1 X14.531 Y-11.084 E71.42717
G1 X14.531 Y-11.591 E71.44230
G1 X11.591 Y-14.531 E71.56629
G1 X12.098 Y-14.531 E71.58141
G1 X14.531 Y-12.098 E71.68401
G1 X14.531 Y-12.605 E71.69914
G1 X12.605 Y-14.531 E71.78035
G1 X13.113 Y-14.531 E71.79547
G1 X14.531 Y-13.113 E71.85529
G1 X14.531 Y-13.620 E71.87041
G1 X13.620 Y-14.531 E71.90884
G1 X14.127 Y-14.531 E71.92396
G1 X14.691 Y-13.966 E71.94777
G1 Z-2.000 F9000.000
M140 S60 ; set bed temperature
G1 X14.799 Y-13.966
G1 F3600.000
G1 X14.799 Y14.799 E72.80184
G1 X-14.799 Y14.799 E73.68062
G1 X-14.799 Y-14.799 E74.55940
G1 X14.799 Y-14.799 E75.43818
G1 X14.799 Y-14.026 E75.46111
G10 ; retract
G92 E0
G1 X-14.691 Y-13.966 F9000.000
G11 ; unretract
G92 E0
G1 F6000.000
G1 X-14.127 Y-14.531 E0.02380
G1 X-13.620 Y-14.531 E0.03893
G1 X-14.531 Y-13.620 E0.07735
G1 X-14.531 Y-13.113 E0.09248
G1 X-13.113 Y-14.531 E0.15229
G1 X-12.605 Y-14.531 E0.16742
G1 X-14.531 Y-12.605 E0.24862
G1 X-14.531 Y-12.098 E0.26375
G1 X-12.098 Y-14.531 E0.36634
G1 X-11.591 Y-14.531 E0.38147
G1 X-14.531 Y-11.591 E0.50546
G1 X-14.531 Y-11.084 E0.52058
G1 X-11.084 Y-14.531 E0.66596
G1 X-10.577 Y-14.531 E0.68109
G1 X-14.531 Y-10.577 E0.84786
G1 X-14.531 Y-10.069 E0.86299
G1 X-10.069 Y-14.531 E1.05115
G1 X-9.562 Y-14.531 E1.06628
G1 X-14.531 Y-9.562 E1.27584
G1 X-14.531 Y-9.055 E1.29096
G1 X-9.055 Y-14.531 E1.52191
G1 X-8.548 Y-14.531 E1.53704
G1 X-14.531 Y-8.548 E1.78938
G1 X-14.531 Y-8.040 E1.80451
G1 X-8.040 Y-14.531 E2.07824
G1 X-7.533 Y-14.531 E2.09336
G1 X-14.531 Y-7.533 E2.38849
G1 X-14.531 Y-7.026 E2.40362
G1 X-7.026 Y-14.531 E2.72013
G1 X-6.519 Y-14.531 E2.73526
G1 X-14.531 Y-6.519 E3.07317
G1 X-14.531 Y-6.012 E3.08829
G1 X-6.012 Y-14.531 E3.44760
G1 X-5.504 Y-14.531 E3.46272
G1 X-14.531 Y-5.504 E3.84341
G1 X-14.531 Y-4.997 E3.85854
G1 X-4.997 Y-14.531 E4.26063
G1 X-4.490 Y-14.531 E4.27575
G1 X-14.531 Y-4.490 E4.69923
G1 X-14.531 Y-3.983 E4.71436
G1 X-3.983 Y-14.531 E5.15923
G1 X-3.475 Y-14.531 E5.17435
G1 X-14.531 Y-3.475 E5.64061
G1 X-14.531 Y-2.968 E5.65574
G1 X-2.968 Y-14.531 E6.14339
G1 X-2.461 Y-14.531 E6.15852
G1 X-14.531 Y-2.461 E6.66756
G1 X-14.531 Y-1.954 E6.68269
G1 X-1.954 Y-14.531 E7.21313
G1 X-1.447 Y-14.531 E7.22826
G1 X-14.531 Y-1.447 E7.78008
G1 X-14.531 Y-0.939 E7.79521
G1 X-0.939 Y-14.531 E8.36843
G1 X-0.432 Y-14.531 E8.38356
G1 X-14.531 Y-0.432 E8.97817
G1 X-14.531 Y0.075 E8.99330
G1 X0.075 Y-14.531 E9.60930
G1 X0.582 Y-14.531 E9.62443
G1 X-14.531 Y0.582 E10.26183
G1 X-14.531 Y1.089 E10.27696
G1 X1.089 Y-14.531 E10.93575
G1 X1.597 Y-14.531 E10.95087
G1 X-14.531 Y1.597 E11.63105
G1 X-14.531 Y2.104 E11.64618
G1 X2.104 Y-14.531 E12.34775
