; generated by PrusaSlicer 2.2.0+ on 2020-12-22 at 07:21:40 UTC

; 

; external perimeters extrusion width = 0.45mm
; perimeters extrusion width = 0.45mm
; infill extrusion width = 0.45mm
; solid infill extrusion width = 0.45mm
; top infill extrusion width = 0.40mm

M73 P0 R7
M73 Q0 S7
M201 X9000 Y9000 Z9000 E10000 ; sets maximum accelerations, mm/sec^2
M203 X500 Y500 Z500 E120 ; sets maximum feedrates, mm/sec
M204 P1500 R1500 T1500 ; sets acceleration (P, T) and retract acceleration (R), mm/sec^2
M205 X20.00 Y20.00 Z20.00 E25.00 ; sets the jerk limits, mm/sec
M205 S0 T0 ; sets the minimum extruding and travel feed rate, mm/sec
M107
M190 S80 ; set bed temperature and wait for it to be reached
M104 S220 ; set temperature
G28 ; home all axes
G29 ; ABL
M109 S220 ; set temperature and wait for it to be reached
G21 ; set units to millimeters
G90 ; use absolute coordinates
M82 ; use absolute distances for extrusion
G92 E0
G1 Z0.200 F9000.000
G1 E-3.00000 F2700.00000
M73 Q0 S7
M73 P0 R7
G92 E0
G1 Z0.700 F9000.000
G1 X-120.334 Y53.731
G1 Z0.200
G1 E3.00000 F2700.00000
G1 F3600.000
G1 X-121.279 Y51.613 E3.07849
G1 X-122.905 Y47.615 E3.22458
G1 X-124.396 Y43.569 E3.37056
G1 X-125.825 Y39.254 E3.52439
G1 X-127.071 Y35.011 E3.67408
G1 X-128.149 Y30.829 E3.82028
G1 X-129.136 Y26.392 E3.97411
G1 X-129.949 Y22.045 E4.12380
G1 X-130.600 Y17.776 E4.27000
G1 X-131.136 Y13.263 E4.42384
G1 X-131.507 Y8.856 E4.57353
G1 X-131.726 Y4.542 E4.71972
G1 X-131.805 Y-0.002 E4.87356
G1 X-131.731 Y-4.423 E5.02325
G1 X-131.515 Y-8.737 E5.16944
G1 X-131.136 Y-13.266 E5.32328
G1 X-130.600 Y-17.776 E5.47701
G1 X-129.949 Y-22.042 E5.62309
G1 X-129.137 Y-26.389 E5.77278
G1 X-128.149 Y-30.829 E5.92673
G1 X-127.072 Y-35.008 E6.07281
G1 X-125.826 Y-39.251 E6.22250
G1 X-124.396 Y-43.569 E6.37645
G1 X-122.904 Y-47.618 E6.52254
G1 X-121.279 Y-51.613 E6.66851
G1 X-119.384 Y-55.857 E6.82584
G1 X-117.488 Y-59.745 E6.97226
G1 X-115.470 Y-63.556 E7.11823
G1 X-113.211 Y-67.500 E7.27207
G1 X-110.818 Y-71.360 E7.42580
G1 X-108.423 Y-74.950 E7.57188
G1 X-105.912 Y-78.457 E7.71786
G1 X-103.141 Y-82.067 E7.87192
G1 X-100.334 Y-85.476 E8.02139
G1 X-97.479 Y-88.717 E8.16758
G1 X-94.284 Y-92.106 E8.32524
G1 X-91.219 Y-95.144 E8.47133
G1 X-88.052 Y-98.082 E8.61752
G1 X-84.624 Y-101.056 E8.77114
G1 X-81.187 Y-103.838 E8.92083
G1 X-77.741 Y-106.441 E9.06703
G1 X-74.025 Y-109.059 E9.22086
G1 X-70.320 Y-111.485 E9.37077
G1 X-66.635 Y-113.725 E9.51675
G1 X-62.675 Y-115.956 E9.67058
G1 X-58.750 Y-117.993 E9.82027
G1 X-54.852 Y-119.854 E9.96647
G1 X-50.688 Y-121.675 E10.12030
G1 X-46.578 Y-123.307 E10.26999
G1 X-42.513 Y-124.766 E10.41619
G1 X-38.187 Y-126.159 E10.57003
G1 X-33.934 Y-127.369 E10.71971
G1 X-29.742 Y-128.412 E10.86591
G1 X-25.298 Y-129.362 E11.01975
G1 X-20.944 Y-130.138 E11.16944
G1 X-16.669 Y-130.754 E11.31563
G1 X-12.152 Y-131.252 E11.46947
G1 X-7.623 Y-131.592 E11.62319
G1 X-3.311 Y-131.772 E11.76928
G1 X1.066 Y-131.810 E11.91744
G1 X5.654 Y-131.692 E12.07281
G1 X9.966 Y-131.438 E12.21900
G1 X14.376 Y-131.029 E12.36891
G1 X18.881 Y-130.455 E12.52264
G1 X23.142 Y-129.768 E12.66873
G1 X27.482 Y-128.919 E12.81841
G1 X31.913 Y-127.894 E12.97236
G1 X36.083 Y-126.782 E13.11845
G1 X40.316 Y-125.500 E13.26813
G1 X44.618 Y-124.035 E13.42197
G1 X48.658 Y-122.508 E13.56817
G1 X52.639 Y-120.850 E13.71415
G1 X56.873 Y-118.917 E13.87169
G1 X60.739 Y-116.991 E14.01789
G1 X64.533 Y-114.941 E14.16387
G1 X68.458 Y-112.649 E14.31770
G1 X72.297 Y-110.223 E14.47143
G1 X75.867 Y-107.798 E14.61752
G1 X79.353 Y-105.258 E14.76349
G1 X82.940 Y-102.457 E14.91755
G1 X86.325 Y-99.622 E15.06702
G1 X89.547 Y-96.735 E15.21343
G1 X92.902 Y-93.518 E15.37076
G1 X95.916 Y-90.425 E15.51696
G1 X98.822 Y-87.239 E15.66294
G1 X101.772 Y-83.781 E15.81677
G1 X104.525 Y-80.320 E15.96646
G1 X107.100 Y-76.853 E16.11266
G1 X109.686 Y-73.116 E16.26649
G1 X112.077 Y-69.395 E16.41618
G1 X114.290 Y-65.686 E16.56238
G1 X116.487 Y-61.708 E16.71621
G1 X118.491 Y-57.766 E16.86590
G1 X120.319 Y-53.853 E17.01210
G1 X122.105 Y-49.673 E17.16594
G1 X123.703 Y-45.550 E17.31562
G1 X125.128 Y-41.473 E17.46182
G1 X126.484 Y-37.135 E17.61566
G1 X127.687 Y-32.756 E17.76938
G1 X128.692 Y-28.558 E17.91547
G1 X129.578 Y-24.226 E18.06516
G1 X130.335 Y-19.741 E18.21910
G1 X130.913 Y-15.464 E18.36519
G1 X131.358 Y-11.064 E18.51488
G1 X131.660 Y-6.529 E18.66872
G1 X131.804 Y-2.213 E18.81491
G1 X131.805 Y2.100 E18.96089
G1 X131.649 Y6.752 E19.11844
G1 X131.358 Y11.061 E19.26463
G1 X130.925 Y15.352 E19.41061
G1 X130.319 Y19.856 E19.56445
G1 X129.557 Y24.333 E19.71817
G1 X128.691 Y28.561 E19.86426
G1 X127.687 Y32.756 E20.01024
G1 X126.481 Y37.144 E20.16429
G1 X125.164 Y41.366 E20.31398
G1 X123.741 Y45.444 E20.46018
G1 X122.062 Y49.778 E20.61751
G1 X120.366 Y53.750 E20.76370
G1 X118.543 Y57.658 E20.90968
G1 X116.485 Y61.711 E21.06352
G1 X114.350 Y65.583 E21.21321
G1 X112.139 Y69.293 E21.35940
G1 X109.684 Y73.118 E21.51324
G1 X107.170 Y76.756 E21.66293
G1 X104.597 Y80.225 E21.80912
G1 X101.770 Y83.784 E21.96296
G1 X98.902 Y87.150 E22.11265
G1 X95.993 Y90.343 E22.25885
G1 X92.822 Y93.598 E22.41268
G1 X89.630 Y96.659 E22.56237
G1 X86.415 Y99.543 E22.70857
G1 X82.932 Y102.463 E22.86240
G1 X79.353 Y105.258 E23.01613
G1 X75.865 Y107.800 E23.16222
G1 X72.206 Y110.284 E23.31191
G1 X68.358 Y112.708 E23.46585
G1 X64.632 Y114.886 E23.61194
G1 X60.742 Y116.989 E23.76163
G1 X56.672 Y119.013 E23.91546
G1 X52.743 Y120.806 E24.06166
G1 X48.762 Y122.466 E24.20764
G1 X44.512 Y124.074 E24.36147
G1 X40.211 Y125.533 E24.51520
G1 X36.080 Y126.783 E24.66129
G1 X31.907 Y127.896 E24.80748
G1 X27.375 Y128.941 E24.96492
G1 X23.139 Y129.769 E25.11101
G1 X18.881 Y130.455 E25.25699
G1 X14.373 Y131.029 E25.41082
G1 X9.969 Y131.437 E25.56051
G1 X5.658 Y131.692 E25.70671
G1 X1.056 Y131.810 E25.86251
G1 X-3.314 Y131.772 E26.01045
G1 X-7.623 Y131.592 E26.15643
G1 X-12.155 Y131.252 E26.31026
G1 X-16.551 Y130.770 E26.45995
G1 X-20.826 Y130.156 E26.60615
G1 X-25.301 Y129.361 E26.75999
G1 X-29.632 Y128.438 E26.90989
G1 X-33.818 Y127.399 E27.05587
G1 X-38.190 Y126.158 E27.20971
G1 X-42.401 Y124.806 E27.35940
G1 X-46.466 Y123.348 E27.50559
G1 X-50.691 Y121.674 E27.65943
G1 X-54.744 Y119.904 E27.80912
G1 X-58.643 Y118.045 E27.95531
G1 X-62.678 Y115.954 E28.10915
G1 X-66.635 Y113.725 E28.26288
G1 X-70.323 Y111.483 E28.40896
G1 X-74.023 Y109.061 E28.55865
G1 X-77.741 Y106.441 E28.71260
G1 X-81.184 Y103.840 E28.85868
G1 X-84.622 Y101.058 E29.00837
G1 X-88.057 Y98.077 E29.16232
G1 X-91.221 Y95.142 E29.30841
G1 X-94.284 Y92.106 E29.45438
G1 X-97.479 Y88.717 E29.61204
G1 X-100.332 Y85.479 E29.75813
G1 X-103.143 Y82.065 E29.90782
G1 X-105.910 Y78.460 E30.06165
G1 X-108.425 Y74.948 E30.20785
G1 X-110.818 Y71.360 E30.35383
G1 X-113.213 Y67.497 E30.50766
G1 X-115.470 Y63.556 E30.66139
G1 X-117.489 Y59.742 E30.80748
G1 X-119.383 Y55.860 E30.95367
G1 X-120.309 Y53.786 E31.03059
G1 X-119.939 Y53.620 F9000.000
G1 F3600.000
G1 X-120.902 Y51.460 E31.11065
G1 X-122.524 Y47.471 E31.25641
G1 X-124.014 Y43.428 E31.40226
G1 X-125.437 Y39.130 E31.55551
G1 X-126.679 Y34.900 E31.70474
G1 X-127.754 Y30.727 E31.85059
G1 X-128.738 Y26.308 E32.00384
G1 X-129.548 Y21.974 E32.15308
G1 X-130.198 Y17.714 E32.29892
G1 X-130.731 Y13.225 E32.45196
G1 X-131.108 Y8.716 E32.60510
G1 X-131.324 Y4.416 E32.75085
G1 X-131.398 Y0.001 E32.90030
G1 X-131.320 Y-4.522 E33.05343
G1 X-131.102 Y-8.823 E33.19918
G1 X-130.731 Y-13.222 E33.34863
G1 X-130.198 Y-17.714 E33.50176
G1 X-129.547 Y-21.977 E33.64773
G1 X-128.737 Y-26.311 E33.79696
G1 X-127.754 Y-30.727 E33.95009
G1 X-126.680 Y-34.897 E34.09585
G1 X-125.436 Y-39.133 E34.24529
G1 X-124.014 Y-43.428 E34.39843
G1 X-122.525 Y-47.468 E34.54418
G1 X-120.902 Y-51.460 E34.69003
G1 X-119.061 Y-55.589 E34.84307
G1 X-117.076 Y-59.655 E34.99620
G1 X-115.060 Y-63.459 E35.14196
G1 X-112.913 Y-67.203 E35.28802
G1 X-110.479 Y-71.134 E35.44453
G1 X-108.090 Y-74.716 E35.59029
G1 X-105.581 Y-78.220 E35.73614
G1 X-102.825 Y-81.811 E35.88939
G1 X-100.022 Y-85.215 E36.03862
G1 X-97.170 Y-88.453 E36.18468
G1 X-93.998 Y-91.817 E36.34120
G1 X-90.939 Y-94.849 E36.48695
G1 X-87.780 Y-97.779 E36.63280
G1 X-84.360 Y-100.746 E36.78605
G1 X-80.933 Y-103.519 E36.93529
G1 X-77.495 Y-106.117 E37.08113
G1 X-73.794 Y-108.724 E37.23439
G1 X-70.105 Y-111.139 E37.38362
G1 X-66.423 Y-113.377 E37.52947
G1 X-62.484 Y-115.596 E37.68251
G1 X-58.566 Y-117.630 E37.83195
G1 X-54.677 Y-119.487 E37.97780
G1 X-50.529 Y-121.300 E38.13105
G1 X-46.431 Y-122.927 E38.28028
G1 X-42.376 Y-124.383 E38.42613
G1 X-38.072 Y-125.768 E38.57917
G1 X-33.720 Y-127.004 E38.73230
G1 X-29.541 Y-128.042 E38.87806
G1 X-25.223 Y-128.962 E39.02750
G1 X-20.768 Y-129.753 E39.18064
G1 X-16.500 Y-130.366 E39.32660
G1 X-12.117 Y-130.846 E39.47584
G1 X-7.606 Y-131.185 E39.62897
G1 X-3.304 Y-131.365 E39.77473
G1 X1.068 Y-131.403 E39.92269
G1 X5.634 Y-131.286 E40.07730
G1 X9.939 Y-131.031 E40.22327
G1 X14.329 Y-130.625 E40.37250
G1 X18.816 Y-130.053 E40.52563
G1 X23.074 Y-129.367 E40.67160
G1 X27.401 Y-128.520 E40.82083
G1 X31.808 Y-127.501 E40.97397
G1 X35.969 Y-126.391 E41.11972
G1 X40.194 Y-125.112 E41.26917
G1 X44.477 Y-123.653 E41.42230
G1 X48.505 Y-122.131 E41.56806
G1 X52.483 Y-120.474 E41.71390
G1 X56.686 Y-118.555 E41.87033
G1 X60.549 Y-116.631 E42.01639
G1 X64.339 Y-114.583 E42.16223
G1 X68.244 Y-112.302 E42.31527
G1 X72.068 Y-109.886 E42.46841
G1 X75.631 Y-107.467 E42.61416
G1 X79.113 Y-104.929 E42.76001
G1 X82.681 Y-102.143 E42.91326
G1 X86.061 Y-99.312 E43.06250
G1 X89.275 Y-96.432 E43.20855
G1 X92.612 Y-93.232 E43.36507
G1 X95.618 Y-90.148 E43.51083
G1 X98.521 Y-86.965 E43.65667
G1 X101.460 Y-83.520 E43.80993
G1 X104.204 Y-80.070 E43.95916
G1 X106.773 Y-76.610 E44.10501
G1 X109.349 Y-72.887 E44.25826
G1 X111.733 Y-69.178 E44.40749
G1 X113.940 Y-65.478 E44.55334
G1 X116.126 Y-61.520 E44.70638
G1 X118.174 Y-57.486 E44.85951
G1 X119.995 Y-53.584 E45.00527
G1 X121.727 Y-49.523 E45.15471
G1 X123.359 Y-45.303 E45.30784
G1 X124.780 Y-41.232 E45.45381
G1 X126.093 Y-37.023 E45.60305
G1 X127.291 Y-32.661 E45.75618
G1 X128.295 Y-28.467 E45.90215
G1 X129.178 Y-24.147 E46.05138
G1 X129.932 Y-19.687 E46.20451
G1 X130.509 Y-15.413 E46.35048
G1 X130.952 Y-11.027 E46.49971
G1 X131.254 Y-6.513 E46.65284
G1 X131.397 Y-2.209 E46.79860
G1 X131.398 Y2.100 E46.94444
G1 X131.243 Y6.728 E47.10117
G1 X130.953 Y11.024 E47.24693
G1 X130.509 Y15.410 E47.39616
G1 X129.900 Y19.899 E47.54951
G1 X129.179 Y24.145 E47.69526
G1 X128.317 Y28.366 E47.84111
G1 X127.240 Y32.861 E47.99754
G1 X126.093 Y37.020 E48.14359
G1 X124.811 Y41.134 E48.28944
G1 X123.323 Y45.403 E48.44248
G1 X121.686 Y49.621 E48.59561
G1 X119.996 Y53.581 E48.74137
G1 X118.174 Y57.486 E48.88722
G1 X116.124 Y61.523 E49.04047
G1 X113.995 Y65.383 E49.18970
G1 X111.789 Y69.085 E49.33555
G1 X109.347 Y72.890 E49.48859
G1 X106.773 Y76.610 E49.64172
G1 X104.206 Y80.067 E49.78748
G1 X101.457 Y83.523 E49.93692
G1 X98.521 Y86.965 E50.09006
G1 X95.620 Y90.146 E50.23581
G1 X92.538 Y93.307 E50.38526
G1 X89.270 Y96.436 E50.53839
G1 X86.058 Y99.314 E50.68436
G1 X82.678 Y102.145 E50.83359
G1 X79.113 Y104.929 E50.98672
G1 X75.633 Y107.465 E51.13248
G1 X71.980 Y109.945 E51.28192
G1 X68.152 Y112.357 E51.43505
G1 X64.435 Y114.530 E51.58081
G1 X60.551 Y116.630 E51.73025
G1 X56.500 Y118.644 E51.88339
G1 X52.583 Y120.432 E52.02914
G1 X48.606 Y122.090 E52.17499
G1 X44.377 Y123.690 E52.32803
G1 X40.093 Y125.143 E52.48116
G1 X35.971 Y126.390 E52.62692
G1 X31.802 Y127.502 E52.77298
G1 X27.296 Y128.542 E52.92949
G1 X23.070 Y129.368 E53.07525
G1 X18.816 Y130.053 E53.22110
G1 X14.325 Y130.625 E53.37435
G1 X9.935 Y131.032 E53.52358
G1 X5.634 Y131.286 E53.66943
G1 X1.058 Y131.403 E53.82437
G1 X-3.301 Y131.365 E53.97191
G1 X-7.606 Y131.185 E54.11776
G1 X-12.115 Y130.847 E54.27080
G1 X-16.611 Y130.351 E54.42393
G1 X-20.880 Y129.736 E54.56990
G1 X-25.220 Y128.962 E54.71914
G1 X-29.644 Y128.017 E54.87227
G1 X-33.829 Y126.976 E55.01823
G1 X-38.069 Y125.769 E55.16747
G1 X-42.376 Y124.383 E55.32060
G1 X-46.435 Y122.926 E55.46657
G1 X-50.532 Y121.299 E55.61580
G1 X-54.677 Y119.487 E55.76893
G1 X-58.569 Y117.629 E55.91490
G1 X-62.482 Y115.597 E56.06413
G1 X-66.423 Y113.377 E56.21726
G1 X-70.108 Y111.137 E56.36323
G1 X-73.797 Y108.722 E56.51247
G1 X-77.495 Y106.117 E56.66560
G1 X-80.936 Y103.517 E56.81157
G1 X-84.363 Y100.743 E56.96080
G1 X-87.780 Y97.779 E57.11393
G1 X-90.937 Y94.850 E57.25969
G1 X-93.998 Y91.817 E57.40553
G1 X-97.174 Y88.448 E57.56226
G1 X-100.020 Y85.217 E57.70802
G1 X-102.823 Y81.814 E57.85725
G1 X-105.581 Y78.220 E58.01059
G1 X-108.088 Y74.719 E58.15635
G1 X-110.479 Y71.134 E58.30220
G1 X-112.912 Y67.205 E58.45862
G1 X-115.058 Y63.462 E58.60468
G1 X-117.076 Y59.655 E58.75053
G1 X-119.060 Y55.592 E58.90357
G1 X-119.914 Y53.675 E58.97460
G1 X-118.365 Y52.917 F9000.000
G1 F3600.000
G1 X-119.257 Y50.920 E59.04863
G1 X-120.908 Y46.866 E59.19682
G1 X-122.435 Y42.718 E59.34640
G1 X-123.790 Y38.614 E59.49272
G1 X-125.010 Y34.460 E59.63926
G1 X-126.097 Y30.241 E59.78674
G1 X-127.038 Y26.008 E59.93353
G1 X-127.843 Y21.705 E60.08170
G1 X-128.501 Y17.390 E60.22942
G1 X-129.010 Y13.091 E60.37597
G1 X-129.378 Y8.736 E60.52392
G1 X-129.601 Y4.315 E60.67373
G1 X-129.673 Y0.034 E60.81866
G1 X-129.601 Y-4.315 E60.96590
G1 X-129.380 Y-8.708 E61.11478
G1 X-129.010 Y-13.091 E61.26366
G1 X-128.502 Y-17.383 E61.40998
G1 X-127.854 Y-21.643 E61.55583
G1 X-127.038 Y-26.007 E61.70611
G1 X-126.101 Y-30.227 E61.85242
G1 X-125.027 Y-34.400 E61.99828
G1 X-123.778 Y-38.653 E62.14832
G1 X-122.423 Y-42.751 E62.29440
G1 X-120.930 Y-46.808 E62.44072
G1 X-119.257 Y-50.920 E62.59101
G1 X-117.488 Y-54.880 E62.73779
G1 X-115.591 Y-58.771 E62.88434
G1 X-113.534 Y-62.651 E63.03298
G1 X-111.380 Y-66.407 E63.17954
G1 X-109.101 Y-70.088 E63.32609
G1 X-106.650 Y-73.765 E63.47566
G1 X-104.128 Y-77.284 E63.62221
G1 X-101.498 Y-80.706 E63.76830
G1 X-98.690 Y-84.118 E63.91787
G1 X-95.831 Y-87.361 E64.06419
G1 X-92.862 Y-90.511 E64.21074
G1 X-89.734 Y-93.613 E64.35985
G1 X-86.554 Y-96.562 E64.50664
G1 X-83.282 Y-99.397 E64.65319
G1 X-79.848 Y-102.177 E64.80276
G1 X-76.398 Y-104.782 E64.94908
G1 X-72.863 Y-107.270 E65.09539
G1 X-69.178 Y-109.684 E65.24451
G1 X-65.460 Y-111.942 E65.39176
G1 X-61.693 Y-114.062 E65.53808
G1 X-57.808 Y-116.080 E65.68625
G1 X-53.838 Y-117.974 E65.83513
G1 X-49.876 Y-119.703 E65.98145
G1 X-45.852 Y-121.301 E66.12800
G1 X-41.686 Y-122.796 E66.27781
G1 X-37.571 Y-124.117 E66.42413
G1 X-33.413 Y-125.301 E66.57045
G1 X-29.118 Y-126.368 E66.72026
G1 X-24.883 Y-127.270 E66.86681
G1 X-20.634 Y-128.028 E67.01290
G1 X-16.254 Y-128.658 E67.16270
G1 X-11.957 Y-129.128 E67.30902
G1 X-7.653 Y-129.455 E67.45511
G1 X-3.266 Y-129.640 E67.60375
G1 X1.139 Y-129.676 E67.75287
G1 X5.454 Y-129.567 E67.89895
G1 X9.762 Y-129.314 E68.04503
G1 X14.169 Y-128.906 E68.19485
G1 X18.505 Y-128.356 E68.34280
G1 X22.773 Y-127.668 E68.48911
G1 X27.036 Y-126.834 E68.63613
G1 X31.328 Y-125.843 E68.78524
G1 X35.504 Y-124.729 E68.93156
G1 X39.642 Y-123.477 E69.07788
G1 X43.832 Y-122.052 E69.22769
G1 X47.888 Y-120.519 E69.37447
G1 X51.866 Y-118.862 E69.52033
G1 X55.892 Y-117.023 E69.67013
G1 X59.755 Y-115.099 E69.81622
G1 X63.570 Y-113.037 E69.96300
G1 X67.337 Y-110.834 E70.11071
G1 X70.999 Y-108.525 E70.25726
G1 X74.616 Y-106.071 E70.40521
G1 X78.192 Y-103.463 E70.55503
G1 X81.592 Y-100.804 E70.70111
G1 X84.901 Y-98.034 E70.84719
G1 X88.207 Y-95.070 E70.99747
G1 X91.322 Y-92.083 E71.14356
G1 X94.335 Y-88.993 E71.28964
G1 X97.326 Y-85.712 E71.43992
G1 X100.124 Y-82.427 E71.58600
G1 X102.816 Y-79.044 E71.73232
G1 X105.457 Y-75.484 E71.88236
G1 X107.911 Y-71.934 E72.02845
G1 X110.244 Y-68.304 E72.17453
G1 X112.494 Y-64.532 E72.32318
G1 X114.621 Y-60.674 E72.47230
G1 X116.576 Y-56.827 E72.61838
G1 X118.403 Y-52.916 E72.76446
G1 X120.145 Y-48.833 E72.91474
G1 X121.701 Y-44.815 E73.06059
G1 X123.127 Y-40.734 E73.20690
G1 X124.449 Y-36.496 E73.35718
G1 X125.594 Y-32.335 E73.50327
G1 X126.601 Y-28.138 E73.64935
G1 X127.490 Y-23.788 E73.79963
G1 X128.211 Y-19.533 E73.94571
G1 X128.790 Y-15.256 E74.09179
G1 X129.236 Y-10.846 E74.24184
G1 X129.526 Y-6.533 E74.38815
