; generated by PrusaSlicer 2.2.0+ on 2020-12-17 at 21:28:33 UTC

; 

; external perimeters extrusion width = 0.45mm
; perimeters extrusion width = 0.45mm
; infill extrusion width = 0.45mm
; solid infill extrusion width = 0.45mm
; top infill extrusion width = 0.40mm
; support material extrusion width = 0.35mm

M201 X9000 Y9000 Z9000 E10000 ; sets maximum accelerations, mm/sec^2
M203 X500 Y500 Z500 E120 ; sets maximum feedrates, mm/sec
M204 P1500 R1500 T1500 ; sets acceleration (P, T) and retract acceleration (R), mm/sec^2
M205 X20.00 Y20.00 Z20.00 E25.00 ; sets the jerk limits, mm/sec
M205 S0 T0 ; sets the minimum extruding and travel feed rate, mm/sec
M107
M190 S80 ; set bed temperature and wait for it to be reached
M104 S220 ; set temperature
G28 ; home all axes
G29 ; ABL
M109 S220 ; set temperature and wait for it to be reached
G21 ; set units to millimeters
G90 ; use absolute coordinates
M82 ; use absolute distances for extrusion
G92 E0
; Filament gcode
M900 K0.8 ;Linear advance settings
G1 Z-2.200 F9000.000
G10 ; retract
G92 E0
G1 X-120.334 Y53.731
G11 ; unretract
G92 E0
G1 F3600.000
G1 X-121.279 Y51.613 E0.07849
G1 X-122.905 Y47.615 E0.22458
G1 X-124.396 Y43.569 E0.37056
G1 X-125.825 Y39.254 E0.52439
G1 X-127.071 Y35.011 E0.67408
G1 X-128.149 Y30.829 E0.82028
G1 X-129.136 Y26.392 E0.97411
G1 X-129.949 Y22.045 E1.12380
G1 X-130.600 Y17.776 E1.27000
G1 X-131.136 Y13.263 E1.42384
G1 X-131.507 Y8.856 E1.57353
G1 X-131.726 Y4.542 E1.71972
G1 X-131.805 Y-0.002 E1.87356
G1 X-131.731 Y-4.423 E2.02325
G1 X-131.515 Y-8.737 E2.16944
G1 X-131.136 Y-13.266 E2.32328
G1 X-130.600 Y-17.776 E2.47701
G1 X-129.949 Y-22.042 E2.62309
G1 X-129.137 Y-26.389 E2.77278
G1 X-128.149 Y-30.829 E2.92673
G1 X-127.072 Y-35.008 E3.07281
G1 X-125.826 Y-39.251 E3.22250
G1 X-124.396 Y-43.569 E3.37645
G1 X-122.904 Y-47.618 E3.52254
G1 X-121.279 Y-51.613 E3.66851
G1 X-119.384 Y-55.857 E3.82584
G1 X-117.488 Y-59.745 E3.97226
G1 X-115.470 Y-63.556 E4.11823
G1 X-113.211 Y-67.500 E4.27207
G1 X-110.818 Y-71.360 E4.42580
G1 X-108.423 Y-74.950 E4.57188
G1 X-105.912 Y-78.457 E4.71786
G1 X-103.141 Y-82.067 E4.87192
G1 X-100.334 Y-85.476 E5.02139
G1 X-97.479 Y-88.717 E5.16758
G1 X-94.284 Y-92.106 E5.32524
G1 X-91.219 Y-95.144 E5.47133
G1 X-88.052 Y-98.082 E5.61752
G1 X-84.624 Y-101.056 E5.77114
G1 X-81.187 Y-103.838 E5.92083
G1 X-77.741 Y-106.441 E6.06703
G1 X-74.025 Y-109.059 E6.22086
G1 X-70.320 Y-111.485 E6.37077
G1 X-66.635 Y-113.725 E6.51675
G1 X-62.675 Y-115.956 E6.67058
G1 X-58.750 Y-117.993 E6.82027
G1 X-54.852 Y-119.854 E6.96647
G1 X-50.688 Y-121.675 E7.12030
G1 X-46.578 Y-123.307 E7.26999
G1 X-42.513 Y-124.766 E7.41619
G1 X-38.187 Y-126.159 E7.57003
G1 X-33.934 Y-127.369 E7.71971
G1 X-29.742 Y-128.412 E7.86591
G1 X-25.298 Y-129.362 E8.01975
G1 X-20.944 Y-130.138 E8.16944
G1 X-16.669 Y-130.754 E8.31563
G1 X-12.152 Y-131.252 E8.46947
G1 X-7.623 Y-131.592 E8.62319
G1 X-3.311 Y-131.772 E8.76928
G1 X1.066 Y-131.810 E8.91744
G1 X5.654 Y-131.692 E9.07281
G1 X9.966 Y-131.438 E9.21900
G1 X14.376 Y-131.029 E9.36891
G1 X18.881 Y-130.455 E9.52264
G1 X23.142 Y-129.768 E9.66873
G1 X27.482 Y-128.919 E9.81841
G1 X31.913 Y-127.894 E9.97236
G1 X36.083 Y-126.782 E10.11845
G1 X40.316 Y-125.500 E10.26813
G1 X44.618 Y-124.035 E10.42197
G1 X48.658 Y-122.508 E10.56817
G1 X52.639 Y-120.850 E10.71415
G1 X56.873 Y-118.917 E10.87169
G1 X60.739 Y-116.991 E11.01789
G1 X64.533 Y-114.941 E11.16387
G1 X68.458 Y-112.649 E11.31770
G1 X72.297 Y-110.223 E11.47143
G1 X75.867 Y-107.798 E11.61752
G1 X79.353 Y-105.258 E11.76349
G1 X82.940 Y-102.457 E11.91755
G1 X86.325 Y-99.622 E12.06702
G1 X89.547 Y-96.735 E12.21343
G1 X92.902 Y-93.518 E12.37076
G1 X95.916 Y-90.425 E12.51696
G1 X98.822 Y-87.239 E12.66294
G1 X101.772 Y-83.781 E12.81677
G1 X104.525 Y-80.320 E12.96646
G1 X107.100 Y-76.853 E13.11266
G1 X109.686 Y-73.116 E13.26649
G1 X112.077 Y-69.395 E13.41618
G1 X114.290 Y-65.686 E13.56238
G1 X116.487 Y-61.708 E13.71621
G1 X118.491 Y-57.766 E13.86590
G1 X120.319 Y-53.853 E14.01210
G1 X122.105 Y-49.673 E14.16594
G1 X123.703 Y-45.550 E14.31562
G1 X125.128 Y-41.473 E14.46182
G1 X126.484 Y-37.135 E14.61566
G1 X127.687 Y-32.756 E14.76938
G1 X128.692 Y-28.558 E14.91547
G1 X129.578 Y-24.226 E15.06516
G1 X130.335 Y-19.741 E15.21910
G1 X130.913 Y-15.464 E15.36519
G1 X131.358 Y-11.064 E15.51488
G1 X131.660 Y-6.529 E15.66872
G1 X131.804 Y-2.213 E15.81491
G1 X131.805 Y2.100 E15.96089
G1 X131.649 Y6.752 E16.11844
G1 X131.358 Y11.061 E16.26463
G1 X130.925 Y15.352 E16.41061
G1 X130.319 Y19.856 E16.56445
G1 X129.557 Y24.333 E16.71817
G1 X128.691 Y28.561 E16.86426
G1 X127.687 Y32.756 E17.01024
G1 X126.481 Y37.144 E17.16429
G1 X125.164 Y41.366 E17.31398
G1 X123.741 Y45.444 E17.46018
G1 X122.062 Y49.778 E17.61751
G1 X120.366 Y53.750 E17.76370
G1 X118.543 Y57.658 E17.90968
G1 X116.485 Y61.711 E18.06352
G1 X114.350 Y65.583 E18.21321
G1 X112.139 Y69.293 E18.35940
G1 X109.684 Y73.118 E18.51324
G1 X107.170 Y76.756 E18.66293
G1 X104.597 Y80.225 E18.80912
G1 X101.770 Y83.784 E18.96296
G1 X98.902 Y87.150 E19.11265
G1 X95.993 Y90.343 E19.25885
G1 X92.822 Y93.598 E19.41268
G1 X89.630 Y96.659 E19.56237
G1 X86.415 Y99.543 E19.70857
G1 X82.932 Y102.463 E19.86240
G1 X79.353 Y105.258 E20.01613
G1 X75.865 Y107.800 E20.16222
G1 X72.206 Y110.284 E20.31191
G1 X68.358 Y112.708 E20.46585
G1 X64.632 Y114.886 E20.61194
G1 X60.742 Y116.989 E20.76163
G1 X56.672 Y119.013 E20.91546
G1 X52.743 Y120.806 E21.06166
G1 X48.762 Y122.466 E21.20764
G1 X44.512 Y124.074 E21.36147
G1 X40.211 Y125.533 E21.51520
G1 X36.080 Y126.783 E21.66129
G1 X31.907 Y127.896 E21.80748
G1 X27.375 Y128.941 E21.96492
G1 X23.139 Y129.769 E22.11101
G1 X18.881 Y130.455 E22.25699
G1 X14.373 Y131.029 E22.41082
G1 X9.969 Y131.437 E22.56051
G1 X5.658 Y131.692 E22.70671
G1 X1.056 Y131.810 E22.86251
G1 X-3.314 Y131.772 E23.01045
G1 X-7.623 Y131.592 E23.15643
G1 X-12.155 Y131.252 E23.31026
G1 X-16.551 Y130.770 E23.45995
G1 X-20.826 Y130.156 E23.60615
G1 X-25.301 Y129.361 E23.75999
G1 X-29.632 Y128.438 E23.90989
G1 X-33.818 Y127.399 E24.05587
G1 X-38.190 Y126.158 E24.20971
G1 X-42.401 Y124.806 E24.35940
G1 X-46.466 Y123.348 E24.50559
G1 X-50.691 Y121.674 E24.65943
G1 X-54.744 Y119.904 E24.80912
G1 X-58.643 Y118.045 E24.95531
G1 X-62.678 Y115.954 E25.10915
G1 X-66.635 Y113.725 E25.26288
G1 X-70.323 Y111.483 E25.40896
G1 X-74.023 Y109.061 E25.55865
G1 X-77.741 Y106.441 E25.71260
G1 X-81.184 Y103.840 E25.85868
G1 X-84.622 Y101.058 E26.00837
G1 X-88.057 Y98.077 E26.16232
G1 X-91.221 Y95.142 E26.30841
G1 X-94.284 Y92.106 E26.45438
G1 X-97.479 Y88.717 E26.61204
G1 X-100.332 Y85.479 E26.75813
G1 X-103.143 Y82.065 E26.90782
G1 X-105.910 Y78.460 E27.06165
G1 X-108.425 Y74.948 E27.20785
G1 X-110.818 Y71.360 E27.35383
G1 X-113.213 Y67.497 E27.50766
G1 X-115.470 Y63.556 E27.66139
G1 X-117.489 Y59.742 E27.80748
G1 X-119.383 Y55.860 E27.95367
G1 X-120.309 Y53.786 E28.03059
G1 X-119.939 Y53.620 F9000.000
G1 F3600.000
G1 X-120.902 Y51.460 E28.11065
G1 X-122.524 Y47.471 E28.25641
G1 X-124.014 Y43.428 E28.40226
G1 X-125.437 Y39.130 E28.55551
G1 X-126.679 Y34.900 E28.70474
G1 X-127.754 Y30.727 E28.85059
G1 X-128.738 Y26.308 E29.00384
G1 X-129.548 Y21.974 E29.15308
G1 X-130.198 Y17.714 E29.29892
G1 X-130.731 Y13.225 E29.45196
G1 X-131.108 Y8.716 E29.60510
G1 X-131.324 Y4.416 E29.75085
G1 X-131.398 Y0.001 E29.90030
G1 X-131.320 Y-4.522 E30.05343
G1 X-131.102 Y-8.823 E30.19918
G1 X-130.731 Y-13.222 E30.34863
G1 X-130.198 Y-17.714 E30.50176
G1 X-129.547 Y-21.977 E30.64773
G1 X-128.737 Y-26.311 E30.79696
G1 X-127.754 Y-30.727 E30.95009
G1 X-126.680 Y-34.897 E31.09585
G1 X-125.436 Y-39.133 E31.24529
G1 X-124.014 Y-43.428 E31.39843
G1 X-122.525 Y-47.468 E31.54418
G1 X-120.902 Y-51.460 E31.69003
G1 X-119.061 Y-55.589 E31.84307
G1 X-117.076 Y-59.655 E31.99620
G1 X-115.060 Y-63.459 E32.14196
G1 X-112.913 Y-67.203 E32.28802
G1 X-110.479 Y-71.134 E32.44453
G1 X-108.090 Y-74.716 E32.59029
G1 X-105.581 Y-78.220 E32.73614
G1 X-102.825 Y-81.811 E32.88939
G1 X-100.022 Y-85.215 E33.03862
G1 X-97.170 Y-88.453 E33.18468
G1 X-93.998 Y-91.817 E33.34120
G1 X-90.939 Y-94.849 E33.48695
G1 X-87.780 Y-97.779 E33.63280
G1 X-84.360 Y-100.746 E33.78605
G1 X-80.933 Y-103.519 E33.93529
G1 X-77.495 Y-106.117 E34.08113
G1 X-73.794 Y-108.724 E34.23439
G1 X-70.105 Y-111.139 E34.38362
G1 X-66.423 Y-113.377 E34.52947
G1 X-62.484 Y-115.596 E34.68251
G1 X-58.566 Y-117.630 E34.83195
G1 X-54.677 Y-119.487 E34.97780
G1 X-50.529 Y-121.300 E35.13105
G1 X-46.431 Y-122.927 E35.28028
G1 X-42.376 Y-124.383 E35.42613
G1 X-38.072 Y-125.768 E35.57917
G1 X-33.720 Y-127.004 E35.73230
G1 X-29.541 Y-128.042 E35.87806
G1 X-25.223 Y-128.962 E36.02750
G1 X-20.768 Y-129.753 E36.18064
G1 X-16.500 Y-130.366 E36.32660
G1 X-12.117 Y-130.846 E36.47584
G1 X-7.606 Y-131.185 E36.62897
G1 X-3.304 Y-131.365 E36.77473
G1 X1.068 Y-131.403 E36.92269
G1 X5.634 Y-131.286 E37.07730
G1 X9.939 Y-131.031 E37.22327
G1 X14.329 Y-130.625 E37.37250
G1 X18.816 Y-130.053 E37.52563
G1 X23.074 Y-129.367 E37.67160
G1 X27.401 Y-128.520 E37.82083
G1 X31.808 Y-127.501 E37.97397
G1 X35.969 Y-126.391 E38.11972
G1 X40.194 Y-125.112 E38.26917
G1 X44.477 Y-123.653 E38.42230
G1 X48.505 Y-122.131 E38.56806
G1 X52.483 Y-120.474 E38.71390
G1 X56.686 Y-118.555 E38.87033
G1 X60.549 Y-116.631 E39.01639
G1 X64.339 Y-114.583 E39.16223
G1 X68.244 Y-112.302 E39.31527
G1 X72.068 Y-109.886 E39.46841
G1 X75.631 Y-107.467 E39.61416
G1 X79.113 Y-104.929 E39.76001
G1 X82.681 Y-102.143 E39.91326
G1 X86.061 Y-99.312 E40.06250
G1 X89.275 Y-96.432 E40.20855
G1 X92.612 Y-93.232 E40.36507
G1 X95.618 Y-90.148 E40.51083
G1 X98.521 Y-86.965 E40.65667
G1 X101.460 Y-83.520 E40.80993
G1 X104.204 Y-80.070 E40.95916
G1 X106.773 Y-76.610 E41.10501
G1 X109.349 Y-72.887 E41.25826
G1 X111.733 Y-69.178 E41.40749
G1 X113.940 Y-65.478 E41.55334
G1 X116.126 Y-61.520 E41.70638
G1 X118.174 Y-57.486 E41.85951
G1 X119.995 Y-53.584 E42.00527
G1 X121.727 Y-49.523 E42.15471
G1 X123.359 Y-45.303 E42.30784
G1 X124.780 Y-41.232 E42.45381
G1 X126.093 Y-37.023 E42.60305
G1 X127.291 Y-32.661 E42.75618
G1 X128.295 Y-28.467 E42.90215
G1 X129.178 Y-24.147 E43.05138
G1 X129.932 Y-19.687 E43.20451
G1 X130.509 Y-15.413 E43.35048
G1 X130.952 Y-11.027 E43.49971
G1 X131.254 Y-6.513 E43.65284
G1 X131.397 Y-2.209 E43.79860
G1 X131.398 Y2.100 E43.94444
G1 X131.243 Y6.728 E44.10117
G1 X130.953 Y11.024 E44.24693
G1 X130.509 Y15.410 E44.39616
G1 X129.900 Y19.899 E44.54951
G1 X129.179 Y24.145 E44.69526
G1 X128.317 Y28.366 E44.84111
G1 X127.240 Y32.861 E44.99754
G1 X126.093 Y37.020 E45.14359
G1 X124.811 Y41.134 E45.28944
G1 X123.323 Y45.403 E45.44248
G1 X121.686 Y49.621 E45.59561
G1 X119.996 Y53.581 E45.74137
G1 X118.174 Y57.486 E45.88722
G1 X116.124 Y61.523 E46.04047
G1 X113.995 Y65.383 E46.18970
G1 X111.789 Y69.085 E46.33555
G1 X109.347 Y72.890 E46.48859
G1 X106.773 Y76.610 E46.64172
G1 X104.206 Y80.067 E46.78748
G1 X101.457 Y83.523 E46.93692
G1 X98.521 Y86.965 E47.09006
G1 X95.620 Y90.146 E47.23581
G1 X92.538 Y93.307 E47.38526
G1 X89.270 Y96.436 E47.53839
G1 X86.058 Y99.314 E47.68436
G1 X82.678 Y102.145 E47.83359
G1 X79.113 Y104.929 E47.98672
G1 X75.633 Y107.465 E48.13248
G1 X71.980 Y109.945 E48.28192
G1 X68.152 Y112.357 E48.43505
G1 X64.435 Y114.530 E48.58081
G1 X60.551 Y116.630 E48.73025
G1 X56.500 Y118.644 E48.88339
G1 X52.583 Y120.432 E49.02914
G1 X48.606 Y122.090 E49.17499
G1 X44.377 Y123.690 E49.32803
G1 X40.093 Y125.143 E49.48116
G1 X35.971 Y126.390 E49.62692
G1 X31.802 Y127.502 E49.77298
G1 X27.296 Y128.542 E49.92949
G1 X23.070 Y129.368 E50.07525
G1 X18.816 Y130.053 E50.22110
G1 X14.325 Y130.625 E50.37435
G1 X9.935 Y131.032 E50.52358
G1 X5.634 Y131.286 E50.66943
G1 X1.058 Y131.403 E50.82437
G1 X-3.301 Y131.365 E50.97191
G1 X-7.606 Y131.185 E51.11776
G1 X-12.115 Y130.847 E51.27080
G1 X-16.611 Y130.351 E51.42393
G1 X-20.880 Y129.736 E51.56990
G1 X-25.220 Y128.962 E51.71914
G1 X-29.644 Y128.017 E51.87227
G1 X-33.829 Y126.976 E52.01823
G1 X-38.069 Y125.769 E52.16747
G1 X-42.376 Y124.383 E52.32060
G1 X-46.435 Y122.926 E52.46657
G1 X-50.532 Y121.299 E52.61580
G1 X-54.677 Y119.487 E52.76893
G1 X-58.569 Y117.629 E52.91490
G1 X-62.482 Y115.597 E53.06413
G1 X-66.423 Y113.377 E53.21726
G1 X-70.108 Y111.137 E53.36323
G1 X-73.797 Y108.722 E53.51247
G1 X-77.495 Y106.117 E53.66560
G1 X-80.936 Y103.517 E53.81157
G1 X-84.363 Y100.743 E53.96080
G1 X-87.780 Y97.779 E54.11393
G1 X-90.937 Y94.850 E54.25969
G1 X-93.998 Y91.817 E54.40553
G1 X-97.174 Y88.448 E54.56226
G1 X-100.020 Y85.217 E54.70802
G1 X-102.823 Y81.814 E54.85725
G1 X-105.581 Y78.220 E55.01059
G1 X-108.088 Y74.719 E55.15635
G1 X-110.479 Y71.134 E55.30220
G1 X-112.912 Y67.205 E55.45862
G1 X-115.058 Y63.462 E55.60468
G1 X-117.076 Y59.655 E55.75053
G1 X-119.060 Y55.592 E55.90357
G1 X-119.914 Y53.675 E55.97460
G10 ; retract
G92 E0
G1 X1.177 Y1.168 F9000.000
G11 ; unretract
G92 E0
G1 F3600.000
G1 X122.048 Y1.168 E4.09134
G1 X121.898 Y5.896 E4.25145
G1 X121.633 Y9.975 E4.38983
G1 X121.230 Y14.044 E4.52821
G1 X120.692 Y18.096 E4.66660
G1 X120.018 Y22.129 E4.80498
G1 X119.209 Y26.136 E4.94336
G1 X118.267 Y30.114 E5.08175
G1 X117.192 Y34.059 E5.22013
G1 X115.985 Y37.965 E5.35851
G1 X114.648 Y41.828 E5.49689
G1 X113.183 Y45.645 E5.63528
G1 X111.591 Y49.410 E5.77366
G1 X109.873 Y53.120 E5.91204
G1 X108.032 Y56.770 E6.05043
G1 X106.070 Y60.357 E6.18881
G1 X103.988 Y63.876 E6.32719
G1 X101.790 Y67.323 E6.46557
G1 X99.478 Y70.695 E6.60396
G1 X97.054 Y73.987 E6.74234
G1 X94.521 Y77.196 E6.88072
G1 X91.883 Y80.319 E7.01910
G1 X89.141 Y83.351 E7.15749
G1 X86.299 Y86.290 E7.29587
G1 X83.360 Y89.132 E7.43425
G1 X80.327 Y91.874 E7.57264
G1 X77.205 Y94.513 E7.71102
G1 X73.996 Y97.045 E7.84940
G1 X70.703 Y99.469 E7.98778
G1 X67.332 Y101.781 E8.12617
G1 X63.885 Y103.979 E8.26455
G1 X60.366 Y106.061 E8.40293
G1 X56.779 Y108.023 E8.54131
G1 X53.129 Y109.864 E8.67970
G1 X49.419 Y111.582 E8.81808
G1 X45.654 Y113.174 E8.95646
G1 X41.837 Y114.640 E9.09485
G1 X37.974 Y115.976 E9.23323
G1 X34.067 Y117.183 E9.37161
G1 X30.123 Y118.258 E9.50999
G1 X26.145 Y119.200 E9.64838
G1 X22.137 Y120.009 E9.78676
G1 X18.105 Y120.683 E9.92514
G1 X14.052 Y121.221 E10.06353
G1 X9.984 Y121.624 E10.20191
G1 X5.904 Y121.890 E10.34029
G1 X1.177 Y122.039 E10.50040
G1 X1.177 Y1.228 E14.58971
G1 X1.584 Y1.575 F9000.000
G1 F3600.000
G1 X121.628 Y1.575 E18.65305
G1 X121.492 Y5.876 E18.79871
G1 X121.227 Y9.942 E18.93663
G1 X120.826 Y13.997 E19.07455
G1 X120.289 Y18.036 E19.21247
G1 X119.617 Y22.055 E19.35039
G1 X118.812 Y26.049 E19.48831
G1 X117.872 Y30.014 E19.62623
G1 X116.801 Y33.945 E19.76415
G1 X115.598 Y37.838 E19.90207
G1 X114.266 Y41.689 E20.04000
G1 X112.805 Y45.493 E20.17792
G1 X111.218 Y49.245 E20.31584
G1 X109.506 Y52.943 E20.45376
G1 X107.671 Y56.581 E20.59168
G1 X105.716 Y60.156 E20.72960
G1 X103.641 Y63.663 E20.86752
G1 X101.451 Y67.098 E21.00544
G1 X99.146 Y70.459 E21.14336
G1 X96.730 Y73.740 E21.28128
G1 X94.206 Y76.938 E21.41921
G1 X91.576 Y80.051 E21.55713
G1 X88.843 Y83.073 E21.69505
G1 X86.011 Y86.002 E21.83297
G1 X83.082 Y88.834 E21.97089
G1 X80.059 Y91.567 E22.10881
G1 X76.947 Y94.197 E22.24673
G1 X73.749 Y96.722 E22.38465
G1 X70.468 Y99.137 E22.52257
G1 X67.107 Y101.442 E22.66050
G1 X63.672 Y103.633 E22.79842
G1 X60.164 Y105.707 E22.93634
G1 X56.590 Y107.663 E23.07426
G1 X52.952 Y109.497 E23.21218
G1 X49.254 Y111.209 E23.35010
G1 X45.501 Y112.797 E23.48802
G1 X41.698 Y114.257 E23.62594
G1 X37.847 Y115.589 E23.76386
G1 X33.954 Y116.792 E23.90179
G1 X30.023 Y117.864 E24.03971
G1 X26.058 Y118.803 E24.17763
G1 X22.064 Y119.609 E24.31555
G1 X18.045 Y120.280 E24.45347
G1 X14.006 Y120.817 E24.59139
G1 X9.951 Y121.218 E24.72931
G1 X5.885 Y121.483 E24.86723
G1 X1.584 Y121.619 E25.01289
G1 X1.584 Y1.635 E29.07420
G1 X1.579 Y1.175 F9000.000
G10 ; retract
G92 E0
G1 X1.177 Y-1.168
G11 ; unretract
G92 E0
G1 F3600.000
G1 X1.177 Y-122.039 E4.09134
G1 X5.904 Y-121.890 E4.25145
G1 X9.984 Y-121.624 E4.38983
G1 X14.052 Y-121.221 E4.52821
G1 X18.105 Y-120.683 E4.66660
G1 X22.137 Y-120.009 E4.80498
G1 X26.145 Y-119.200 E4.94336
G1 X30.123 Y-118.258 E5.08175
G1 X34.067 Y-117.183 E5.22013
G1 X37.974 Y-115.976 E5.35851
