; generated by PrusaSlicer 2.2.0+ on 2020-12-24 at 20:15:04 UTC

; 

; external perimeters extrusion width = 0.45mm
; perimeters extrusion width = 0.45mm
; infill extrusion width = 0.45mm
; solid infill extrusion width = 0.45mm
; top infill extrusion width = 0.40mm

M73 P0 R7
M73 Q0 S7
M201 X9000 Y9000 Z9000 E10000 ; sets maximum accelerations, mm/sec^2
M203 X500 Y500 Z500 E120 ; sets maximum feedrates, mm/sec
M204 P1500 R1500 T1500 ; sets acceleration (P, T) and retract acceleration (R), mm/sec^2
M205 X20.00 Y20.00 Z20.00 E25.00 ; sets the jerk limits, mm/sec
M205 S0 T0 ; sets the minimum extruding and travel feed rate, mm/sec
M107
M190 S80 ; set bed temperature and wait for it to be reached
M104 S220 ; set temperature
G28 ; home all axes
G29 ; ABL
M109 S220 ; set temperature and wait for it to be reached
G21 ; set units to millimeters
G90 ; use absolute coordinates
M82 ; use absolute distances for extrusion
G92 E0
G1 Z0.200 F9000.000
G1 E-3.00000 F2700.00000
M73 Q0 S7
M73 P0 R7
G92 E0
G1 Z0.700 F9000.000
G1 X-111.206 Y-49.652
G1 Z0.200
G1 E3.00000 F2700.00000
G1 F3600.000
G1 X-110.324 Y-51.627 E3.07323
G1 X-108.575 Y-55.213 E3.20827
G1 X-106.714 Y-58.727 E3.34288
G1 X-104.622 Y-62.379 E3.48534
G1 X-102.406 Y-65.953 E3.62770
G1 X-100.197 Y-69.264 E3.76241
G1 X-97.882 Y-72.498 E3.89702
G1 X-95.316 Y-75.842 E4.03970
G1 X-92.723 Y-78.992 E4.17780
G1 X-90.086 Y-81.985 E4.31284
G1 X-87.128 Y-85.122 E4.45879
G1 X-84.299 Y-87.926 E4.59362
G1 X-81.383 Y-90.631 E4.72822
G1 X-78.204 Y-93.389 E4.87068
G1 X-75.028 Y-95.960 E5.00900
G1 X-71.850 Y-98.361 E5.14383
G1 X-68.409 Y-100.786 E5.28629
G1 X-64.991 Y-103.024 E5.42460
G1 X-61.587 Y-105.093 E5.55943
G1 X-57.920 Y-107.159 E5.70189
G1 X-54.293 Y-109.041 E5.84021
G1 X-50.699 Y-110.758 E5.97503
G1 X-46.843 Y-112.444 E6.11750
G1 X-43.045 Y-113.952 E6.25581
G1 X-39.296 Y-115.298 E6.39064
G1 X-35.290 Y-116.588 E6.53310
G1 X-31.244 Y-117.736 E6.67545
G1 X-27.381 Y-118.695 E6.81017
G1 X-23.385 Y-119.547 E6.94848
G1 X-19.238 Y-120.283 E7.09106
G1 X-15.298 Y-120.849 E7.22577
G1 X-11.236 Y-121.294 E7.36409
G1 X-7.036 Y-121.609 E7.50666
G1 X-3.060 Y-121.776 E7.64137
G1 X0.981 Y-121.810 E7.77816
G1 X5.234 Y-121.701 E7.92215
G1 X9.210 Y-121.466 E8.05698
G1 X13.279 Y-121.089 E8.19529
G1 X17.457 Y-120.557 E8.33787
G1 X21.386 Y-119.924 E8.47258
G1 X25.397 Y-119.139 E8.61090
G1 X29.500 Y-118.189 E8.75347
G1 X33.346 Y-117.164 E8.88818
G1 X37.257 Y-115.979 E9.02650
G1 X41.244 Y-114.621 E9.16907
G1 X44.967 Y-113.214 E9.30379
G1 X48.638 Y-111.685 E9.43839
G1 X52.467 Y-109.940 E9.58086
G1 X56.231 Y-108.062 E9.72321
G1 X59.731 Y-106.169 E9.85793
G1 X63.170 Y-104.159 E9.99275
G1 X66.820 Y-101.856 E10.13881
G1 X70.112 Y-99.620 E10.27353
G1 X73.326 Y-97.278 E10.40813
G1 X76.648 Y-94.684 E10.55081
G1 X79.776 Y-92.064 E10.68891
G1 X82.747 Y-89.402 E10.82395
G1 X85.855 Y-86.422 E10.96969
G1 X88.640 Y-83.565 E11.10473
G1 X91.319 Y-80.627 E11.23934
G1 X94.051 Y-77.425 E11.38180
G1 X96.595 Y-74.227 E11.52012
G1 X98.969 Y-71.029 E11.65494
G1 X101.365 Y-67.569 E11.79741
G1 X103.574 Y-64.131 E11.93572
G1 X105.615 Y-60.710 E12.07055
G1 X107.650 Y-57.026 E12.21301
G1 X109.502 Y-53.384 E12.35132
G1 X111.188 Y-49.775 E12.48615
G1 X112.842 Y-45.905 E12.62861
G1 X114.318 Y-42.094 E12.76693
G1 X115.632 Y-38.334 E12.90175
G1 X116.888 Y-34.317 E13.04422
G1 X118.002 Y-30.262 E13.18657
G1 X118.929 Y-26.392 E13.32128
G1 X119.747 Y-22.388 E13.45960
G1 X120.449 Y-18.235 E13.60217
G1 X120.981 Y-14.291 E13.73689
G1 X121.392 Y-10.225 E13.87520
G1 X121.672 Y-6.026 E14.01767
G1 X121.805 Y-2.045 E14.15249
G1 X121.806 Y1.932 E14.28710
G1 X121.661 Y6.248 E14.43327
G1 X121.393 Y10.222 E14.56809
G1 X120.993 Y14.179 E14.70270
G1 X120.432 Y18.350 E14.84516
G1 X119.726 Y22.496 E14.98752
G1 X118.928 Y26.395 E15.12223
G1 X118.002 Y30.262 E15.25684
G1 X116.886 Y34.327 E15.39952
G1 X115.671 Y38.221 E15.53762
G1 X114.356 Y41.988 E15.67266
G1 X112.798 Y46.009 E15.81861
G1 X111.235 Y49.672 E15.95344
G1 X109.553 Y53.276 E16.08804
G1 X107.648 Y57.029 E16.23051
G1 X105.675 Y60.607 E16.36882
G1 X103.636 Y64.029 E16.50365
G1 X101.363 Y67.571 E16.64611
G1 X99.040 Y70.933 E16.78443
G1 X96.667 Y74.132 E16.91925
G1 X94.049 Y77.428 E17.06171
G1 X91.399 Y80.538 E17.20003
G1 X88.716 Y83.482 E17.33485
G1 X85.780 Y86.498 E17.47732
G1 X82.831 Y89.326 E17.61563
G1 X79.865 Y91.985 E17.75046
G1 X76.641 Y94.690 E17.89292
G1 X73.326 Y97.278 E18.03527
G1 X70.109 Y99.622 E18.16999
G1 X66.728 Y101.917 E18.30831
G1 X63.167 Y104.160 E18.45077
G1 X59.728 Y106.170 E18.58559
G1 X56.134 Y108.114 E18.72391
G1 X52.365 Y109.987 E18.86637
G1 X48.741 Y111.641 E19.00120
G1 X45.071 Y113.172 E19.13580
G1 X41.135 Y114.662 E19.27826
G1 X37.152 Y116.012 E19.42062
G1 X33.343 Y117.164 E19.55533
G1 X29.494 Y118.191 E19.69016
G1 X25.292 Y119.160 E19.83611
G1 X21.383 Y119.924 E19.97094
G1 X17.457 Y120.557 E20.10554
G1 X13.282 Y121.089 E20.24800
G1 X9.213 Y121.466 E20.38632
G1 X5.237 Y121.701 E20.52114
G1 X0.972 Y121.810 E20.66557
G1 X-3.063 Y121.775 E20.80214
G1 X-7.036 Y121.609 E20.93675
G1 X-11.233 Y121.294 E21.07921
G1 X-15.295 Y120.849 E21.21753
G1 X-19.238 Y120.283 E21.35235
G1 X-23.382 Y119.547 E21.49481
G1 X-27.378 Y118.696 E21.63313
G1 X-31.244 Y117.736 E21.76795
G1 X-35.293 Y116.587 E21.91042
G1 X-39.190 Y115.335 E22.04895
G1 X-42.933 Y113.993 E22.18356
G1 X-46.846 Y112.443 E22.32602
G1 X-50.591 Y110.808 E22.46434
G1 X-54.186 Y109.094 E22.59916
G1 X-57.923 Y107.157 E22.74162
G1 X-61.587 Y105.093 E22.88398
G1 X-64.988 Y103.025 E23.01869
G1 X-68.407 Y100.787 E23.15701
G1 X-71.850 Y98.361 E23.29958
G1 X-75.025 Y95.962 E23.43430
G1 X-78.202 Y93.391 E23.57261
G1 X-81.383 Y90.631 E23.71518
G1 X-84.301 Y87.924 E23.84990
G1 X-87.125 Y85.125 E23.98451
G1 X-90.015 Y82.064 E24.12697
G1 X-92.793 Y78.907 E24.26932
G1 X-95.322 Y75.834 E24.40404
G1 X-97.750 Y72.677 E24.53886
G1 X-100.263 Y69.168 E24.68493
G1 X-102.469 Y65.856 E24.81964
G1 X-104.567 Y62.470 E24.95446
G1 X-106.663 Y58.821 E25.09693
G1 X-108.573 Y55.216 E25.23502
G1 X-110.322 Y51.630 E25.37007
G1 X-112.081 Y47.693 E25.51602
G1 X-113.581 Y44.003 E25.65085
G1 X-114.956 Y40.271 E25.78545
G1 X-116.279 Y36.276 E25.92791
G1 X-117.430 Y32.355 E26.06623
G1 X-118.425 Y28.498 E26.20105
G1 X-119.339 Y24.390 E26.34352
G1 X-120.090 Y20.373 E26.48183
G1 X-120.691 Y16.436 E26.61666
G1 X-121.188 Y12.256 E26.75912
G1 X-121.531 Y8.185 E26.89744
G1 X-121.732 Y4.207 E27.03226
G1 X-121.806 Y-0.002 E27.17472
G1 X-121.737 Y-4.087 E27.31304
G1 X-121.538 Y-8.065 E27.44786
G1 X-121.188 Y-12.260 E27.59033
G1 X-120.691 Y-16.436 E27.73268
G1 X-120.091 Y-20.370 E27.86740
G1 X-119.340 Y-24.387 E28.00571
G1 X-118.425 Y-28.498 E28.14829
G1 X-117.431 Y-32.352 E28.28300
G1 X-116.280 Y-36.273 E28.42132
G1 X-114.956 Y-40.271 E28.56389
G1 X-113.580 Y-44.006 E28.69860
G1 X-112.082 Y-47.690 E28.83321
G1 X-111.230 Y-49.597 E28.90390
G1 X-110.859 Y-49.431 F9000.000
G1 F3600.000
G1 X-109.954 Y-51.457 E28.97903
G1 X-108.213 Y-55.026 E29.11341
G1 X-106.307 Y-58.625 E29.25127
G1 X-104.217 Y-62.262 E29.39324
G1 X-102.127 Y-65.637 E29.52763
G1 X-99.924 Y-68.943 E29.66210
G1 X-97.429 Y-72.427 E29.80716
G1 X-95.003 Y-75.581 E29.94184
G1 X-92.479 Y-78.649 E30.07631
G1 X-89.714 Y-81.790 E30.21798
G1 X-86.839 Y-84.836 E30.35974
G1 X-84.019 Y-87.631 E30.49413
G1 X-81.106 Y-90.332 E30.62860
G1 X-77.940 Y-93.079 E30.77048
G1 X-74.774 Y-95.641 E30.90834
G1 X-71.605 Y-98.036 E31.04282
G1 X-68.178 Y-100.451 E31.18470
G1 X-64.770 Y-102.681 E31.32256
G1 X-61.376 Y-104.745 E31.45703
G1 X-57.729 Y-106.799 E31.59870
G1 X-54.109 Y-108.679 E31.73677
G1 X-50.524 Y-110.390 E31.87124
G1 X-46.683 Y-112.070 E32.01313
G1 X-42.898 Y-113.573 E32.15099
G1 X-39.159 Y-114.915 E32.28546
G1 X-35.175 Y-116.197 E32.42713
G1 X-31.146 Y-117.341 E32.56889
G1 X-27.287 Y-118.299 E32.70348
G1 X-23.303 Y-119.148 E32.84134
G1 X-19.180 Y-119.880 E32.98310
G1 X-15.244 Y-120.445 E33.11770
G1 X-11.195 Y-120.889 E33.25556
G1 X-7.019 Y-121.203 E33.39732
G1 X-3.052 Y-121.368 E33.53170
G1 X0.983 Y-121.403 E33.66829
G1 X5.213 Y-121.295 E33.81153
G1 X9.183 Y-121.060 E33.94613
G1 X13.238 Y-120.684 E34.08399
G1 X17.393 Y-120.155 E34.22575
G1 X21.312 Y-119.523 E34.36013
G1 X25.315 Y-118.740 E34.49820
G1 X29.395 Y-117.796 E34.63996
G1 X33.237 Y-116.771 E34.77456
G1 X37.136 Y-115.591 E34.91242
G1 X41.100 Y-114.241 E35.05418
G1 X44.814 Y-112.837 E35.18856
G1 X48.481 Y-111.310 E35.32303
G1 X52.387 Y-109.526 E35.46839
G1 X55.946 Y-107.752 E35.60298
G1 X59.524 Y-105.819 E35.74063
G1 X63.143 Y-103.699 E35.88260
G1 X66.500 Y-101.580 E36.01699
G1 X69.788 Y-99.349 E36.15146
G1 X73.171 Y-96.886 E36.29313
G1 X76.469 Y-94.304 E36.43489
G1 X79.512 Y-91.754 E36.56927
G1 X82.475 Y-89.099 E36.70396
G1 X85.570 Y-86.131 E36.84910
G1 X88.341 Y-83.288 E36.98349
G1 X91.019 Y-80.353 E37.11796
G1 X93.739 Y-77.164 E37.25984
G1 X96.274 Y-73.976 E37.39770
G1 X98.642 Y-70.787 E37.53217
G1 X101.028 Y-67.340 E37.67406
G1 X103.230 Y-63.914 E37.81192
G1 X105.265 Y-60.502 E37.94639
G1 X107.289 Y-56.838 E38.08806
G1 X109.184 Y-53.104 E38.22982
G1 X110.866 Y-49.500 E38.36441
G1 X112.464 Y-45.754 E38.50227
G1 X113.974 Y-41.848 E38.64403
G1 X115.284 Y-38.094 E38.77863
G1 X116.497 Y-34.206 E38.91649
G1 X117.607 Y-30.167 E39.05825
G1 X118.532 Y-26.300 E39.19284
G1 X119.348 Y-22.310 E39.33070
G1 X120.045 Y-18.180 E39.47246
G1 X120.577 Y-14.240 E39.60706
G1 X120.987 Y-10.188 E39.74492
G1 X121.266 Y-6.009 E39.88668
G1 X121.398 Y-2.041 E40.02106
G1 X121.399 Y1.932 E40.15553
G1 X121.255 Y6.215 E40.30059
G1 X120.987 Y10.185 E40.43527
G1 X120.588 Y14.138 E40.56975
G1 X120.030 Y18.286 E40.71142
G1 X119.327 Y22.414 E40.85318
G1 X118.532 Y26.304 E40.98756
G1 X117.607 Y30.167 E41.12203
G1 X116.496 Y34.209 E41.26391
G1 X115.283 Y38.097 E41.40177
G1 X113.972 Y41.854 E41.53646
G1 X112.423 Y45.852 E41.68160
G1 X110.864 Y49.504 E41.81599
G1 X109.184 Y53.104 E41.95046
G1 X107.287 Y56.841 E42.09234
G1 X105.320 Y60.408 E42.23020
G1 X103.286 Y63.821 E42.36468
G1 X101.022 Y67.348 E42.50656
G1 X98.707 Y70.699 E42.64442
G1 X96.340 Y73.889 E42.77889
G1 X93.736 Y77.167 E42.92056
G1 X91.019 Y80.353 E43.06232
G1 X88.339 Y83.291 E43.19691
G1 X85.495 Y86.207 E43.33477
G1 X82.471 Y89.103 E43.47653
G1 X79.509 Y91.757 E43.61113
G1 X76.387 Y94.372 E43.74899
G1 X73.086 Y96.949 E43.89075
G1 X69.877 Y99.287 E44.02513
G1 X66.502 Y101.578 E44.16320
G1 X62.959 Y103.811 E44.30496
G1 X59.526 Y105.817 E44.43956
G1 X55.943 Y107.754 E44.57742
G1 X52.193 Y109.618 E44.71918
G1 X48.581 Y111.267 E44.85356
G1 X44.914 Y112.796 E44.98803
G1 X41.000 Y114.277 E45.12970
G1 X37.034 Y115.622 E45.27146
G1 X33.234 Y116.772 E45.40585
G1 X29.389 Y117.797 E45.54053
G1 X25.211 Y118.761 E45.68568
G1 X21.315 Y119.523 E45.82006
G1 X17.393 Y120.155 E45.95453
G1 X13.234 Y120.684 E46.09641
G1 X9.179 Y121.060 E46.23427
G1 X5.213 Y121.295 E46.36875
G1 X0.973 Y121.403 E46.51232
G1 X-3.050 Y121.369 E46.64849
G1 X-7.019 Y121.203 E46.78296
G1 X-11.193 Y120.889 E46.92463
G1 X-15.247 Y120.445 E47.06270
G1 X-19.180 Y119.880 E47.19718
G1 X-23.307 Y119.147 E47.33906
G1 X-27.290 Y118.298 E47.47692
G1 X-31.146 Y117.341 E47.61139
G1 X-35.172 Y116.198 E47.75306
G1 X-39.159 Y114.915 E47.89482
G1 X-42.901 Y113.571 E48.02942
G1 X-46.687 Y112.068 E48.16728
G1 X-50.524 Y110.390 E48.30904
G1 X-54.112 Y108.677 E48.44363
G1 X-57.727 Y106.801 E48.58149
G1 X-61.376 Y104.745 E48.72325
G1 X-64.773 Y102.679 E48.85784
G1 X-68.181 Y100.449 E48.99570
G1 X-71.605 Y98.036 E49.13746
G1 X-74.777 Y95.639 E49.27206
G1 X-77.943 Y93.077 E49.40992
G1 X-81.106 Y90.332 E49.55168
G1 X-84.017 Y87.632 E49.68606
G1 X-86.839 Y84.836 E49.82054
G1 X-89.712 Y81.792 E49.96221
G1 X-92.479 Y78.649 E50.10396
G1 X-95.002 Y75.583 E50.23835
G1 X-97.427 Y72.429 E50.37303
G1 X-99.924 Y68.943 E50.51818
G1 X-102.125 Y65.639 E50.65256
G1 X-104.217 Y62.262 E50.78703
G1 X-106.305 Y58.627 E50.92892
G1 X-108.212 Y55.028 E51.06678
G1 X-109.956 Y51.452 E51.20146
G1 X-111.705 Y47.536 E51.34661
G1 X-113.200 Y43.859 E51.48099
G1 X-114.574 Y40.131 E51.61546
G1 X-115.892 Y36.152 E51.75734
G1 X-117.039 Y32.244 E51.89520
G1 X-118.030 Y28.397 E52.02968
G1 X-118.941 Y24.305 E52.17156
G1 X-119.689 Y20.302 E52.30942
G1 X-120.289 Y16.375 E52.44389
G1 X-120.783 Y12.218 E52.58556
G1 X-121.131 Y8.045 E52.72732
G1 X-121.331 Y4.074 E52.86192
G1 X-121.399 Y0.001 E52.99978
G1 X-121.326 Y-4.186 E53.14154
G1 X-121.125 Y-8.151 E53.27592
G1 X-120.783 Y-12.216 E53.41399
G1 X-120.289 Y-16.375 E53.55575
G1 X-119.689 Y-20.305 E53.69034
G1 X-118.940 Y-24.309 E53.82821
G1 X-118.030 Y-28.397 E53.96997
G1 X-117.040 Y-32.241 E54.10435
G1 X-115.890 Y-36.155 E54.24242
G1 X-114.574 Y-40.131 E54.38418
G1 X-113.201 Y-43.856 E54.51856
G1 X-111.702 Y-47.542 E54.65325
G1 X-110.883 Y-49.376 E54.72124
G1 X-109.286 Y-48.728 F9000.000
G1 F3600.000
G1 X-108.439 Y-50.624 E54.79151
G1 X-106.693 Y-54.208 E54.92645
G1 X-104.802 Y-57.780 E55.06326
G1 X-102.770 Y-61.321 E55.20147
G1 X-100.674 Y-64.705 E55.33618
G1 X-98.463 Y-68.022 E55.47112
G1 X-96.078 Y-71.353 E55.60979
G1 X-93.652 Y-74.508 E55.74450
G1 X-91.123 Y-77.581 E55.87921
G1 X-88.410 Y-80.659 E56.01812
G1 X-85.674 Y-83.559 E56.15306
G1 X-82.854 Y-86.357 E56.28754
G1 X-79.844 Y-89.147 E56.42645
G1 X-76.836 Y-91.753 E56.56116
G1 X-73.743 Y-94.257 E56.69587
G1 X-70.501 Y-96.706 E56.83338
G1 X-67.179 Y-99.043 E56.97089
G1 X-63.843 Y-101.226 E57.10583
G1 X-60.448 Y-103.290 E57.24031
G1 X-56.877 Y-105.298 E57.37897
G1 X-53.345 Y-107.131 E57.51369
G1 X-49.747 Y-108.849 E57.64863
G1 X-45.986 Y-110.491 E57.78754
G1 X-42.281 Y-111.961 E57.92248
G1 X-38.541 Y-113.303 E58.05696
G1 X-34.640 Y-114.556 E58.19564
G1 X-30.792 Y-115.650 E58.33106
G1 X-26.916 Y-116.613 E58.46624
G1 X-22.943 Y-117.460 E58.60374
G1 X-19.005 Y-118.161 E58.73915
G1 X-15.059 Y-118.729 E58.87410
G1 X-11.007 Y-119.173 E59.01205
G1 X-7.032 Y-119.474 E59.14700
G1 X-3.049 Y-119.642 E59.28195
G1 X1.055 Y-119.677 E59.42085
G1 X5.026 Y-119.576 E59.55533
G1 X9.006 Y-119.343 E59.69027
G1 X13.092 Y-118.964 E59.82918
G1 X17.041 Y-118.463 E59.96389
G1 X20.970 Y-117.831 E60.09860
G1 X24.990 Y-117.045 E60.23727
G1 X28.875 Y-116.148 E60.37222
G1 X32.721 Y-115.124 E60.50693
G1 X36.629 Y-113.941 E60.64514
G1 X40.455 Y-112.639 E60.78195
G1 X44.191 Y-111.227 E60.91713
G1 X47.896 Y-109.683 E61.05300
G1 X51.535 Y-108.021 E61.18841
G1 X55.110 Y-106.242 E61.32358
G1 X58.672 Y-104.318 E61.46063
G1 X62.191 Y-102.259 E61.59860
G1 X65.556 Y-100.135 E61.73332
G1 X68.861 Y-97.893 E61.86850
G1 X72.165 Y-95.483 E62.00693
G1 X75.300 Y-93.031 E62.14165
G1 X78.357 Y-90.472 E62.27659
G1 X81.407 Y-87.737 E62.41526
G1 X84.275 Y-84.987 E62.54974
G1 X87.058 Y-82.133 E62.68468
G1 X89.800 Y-79.126 E62.82242
G1 X92.430 Y-76.039 E62.95970
G1 X94.907 Y-72.924 E63.09441
G1 X97.279 Y-69.728 E63.22912
G1 X99.612 Y-66.352 E63.36803
G1 X101.767 Y-62.998 E63.50297
G1 X103.802 Y-59.586 E63.63745
G1 X105.784 Y-55.993 E63.77635
G1 X107.587 Y-52.445 E63.91107
G1 X109.271 Y-48.839 E64.04578
G1 X110.881 Y-45.064 E64.18468
G1 X112.318 Y-41.353 E64.31939
G1 X113.631 Y-37.596 E64.45410
G1 X114.851 Y-33.685 E64.59277
G1 X115.908 Y-29.848 E64.72749
G1 X116.838 Y-25.971 E64.86243
G1 X117.658 Y-21.958 E65.00110
G1 X118.323 Y-18.034 E65.13581
G1 X118.858 Y-14.083 E65.27075
G1 X119.269 Y-10.028 E65.40873
G1 X119.540 Y-5.988 E65.54578
G1 X119.673 Y-2.003 E65.68072
G1 X119.673 Y1.997 E65.81613
G1 X119.535 Y6.071 E65.95410
G1 X119.268 Y10.041 E66.08881
G1 X118.866 Y14.015 E66.22398
G1 X118.322 Y18.041 E66.36150
G1 X117.649 Y22.005 E66.49761
G1 X116.849 Y25.918 E66.63278
G1 X115.913 Y29.828 E66.76889
G1 X114.838 Y33.731 E66.90593
G1 X113.648 Y37.544 E67.04111
G1 X112.323 Y41.340 E67.17722
G1 X110.860 Y45.115 E67.31426
G1 X109.296 Y48.783 E67.44921
G1 X107.593 Y52.432 E67.58554
G1 X105.751 Y56.054 E67.72306
G1 X103.802 Y59.586 E67.85964
G1 X101.752 Y63.022 E67.99505
G1 X99.574 Y66.410 E68.13139
G1 X97.279 Y69.728 E68.26797
G1 X94.890 Y72.946 E68.40361
G1 X92.386 Y76.092 E68.53971
G1 X89.800 Y79.126 E68.67466
G1 X87.115 Y82.073 E68.80960
G1 X84.250 Y85.011 E68.94850
G1 X81.377 Y87.765 E69.08322
G1 X78.414 Y90.422 E69.21793
G1 X75.273 Y93.053 E69.35659
