; generated by PrusaSlicer 2.3.0-rc2+ on 2021-04-03 at 20:14:52 UTC

; 

; external perimeters extrusion width = 0.40mm
; perimeters extrusion width = 0.40mm
; infill extrusion width = 0.40mm
; solid infill extrusion width = 0.40mm
; top infill extrusion width = 0.40mm

M73 P0 R13
M73 Q0 S13
M201 X9000 Y9000 Z9000 E10000 ; sets maximum accelerations, mm/sec^2
M203 X500 Y500 Z500 E120 ; sets maximum feedrates, mm/sec
M204 P1500 R1500 T1500 ; sets acceleration (P, T) and retract acceleration (R), mm/sec^2
M205 X20.00 Y20.00 Z20.00 E25.00 ; sets the jerk limits, mm/sec
M205 S0 T0 ; sets the minimum extruding and travel feed rate, mm/sec
M107
M190 S80 ; set bed temperature and wait for it to be reached
M104 S220 ; set temperature
;TYPE:Custom
G28 ; home all axes
G29 L1  ; Load the mesh saved in slot 1
G29 J   ; 3-point ABL, tilt mesh accordingly
M109 S220 ; set temperature and wait for it to be reached
G21 ; set units to millimeters
G90 ; use absolute coordinates
M82 ; use absolute distances for extrusion
G92 E0
;LAYER_CHANGE
;Z:0.2
;HEIGHT:0.2
G1 Z0.200 F9000.000
G1 E-3.00000 F2700.000
G92 E0
G1 Z0.700 F9000.000
G1 X-0.019 Y-22.771
G1 Z0.200
G1 E3.00000 F2700.000
;TYPE:Skirt
;WIDTH:0.4
G1 F3600.000
G1 X15.005 Y-22.784 E3.44610
G1 X16.390 Y-22.659 E3.48739
G1 X17.724 Y-22.291 E3.52848
G1 X18.972 Y-21.693 E3.56956
G1 X20.100 Y-20.880 E3.61085
G1 X21.065 Y-19.878 E3.65214
G1 X21.836 Y-18.721 E3.69343
G1 X22.387 Y-17.452 E3.73451
G1 X22.706 Y-16.098 E3.77580
G1 X22.784 Y-15.020 E3.80791
G1 X22.776 Y15.350 E4.70963
G1 X22.626 Y16.560 E4.74582
G1 X22.289 Y17.731 E4.78201
G1 X21.776 Y18.829 E4.81799
G1 X21.095 Y19.840 E4.85418
G1 X19.910 Y21.039 E4.90423
G1 X18.495 Y21.955 E4.95428
G1 X16.909 Y22.546 E5.00453
G1 X15.240 Y22.780 E5.05457
G1 X-15.371 Y22.775 E5.96345
G1 X-16.573 Y22.623 E5.99944
G1 X-17.737 Y22.286 E6.03542
G1 X-18.835 Y21.773 E6.07141
G1 X-19.840 Y21.095 E6.10740
G1 X-21.039 Y19.910 E6.15744
G1 X-21.955 Y18.495 E6.20749
G1 X-22.546 Y16.909 E6.25774
G1 X-22.780 Y15.240 E6.30779
G1 X-22.775 Y-15.371 E7.21667
G1 X-22.623 Y-16.573 E7.25265
G1 X-22.286 Y-17.737 E7.28864
G1 X-21.773 Y-18.835 E7.32462
G1 X-21.095 Y-19.840 E7.36061
G1 X-19.985 Y-20.978 E7.40781
G1 X-18.667 Y-21.866 E7.45500
G1 X-17.195 Y-22.468 E7.50220
G1 X-15.633 Y-22.758 E7.54940
G1 X-0.079 Y-22.771 E8.01120
G1 X-0.079 Y-22.416 F9000.000
G1 F3600.000
G1 X15.005 Y-22.427 E8.45907
G1 X16.325 Y-22.308 E8.49840
G1 X17.608 Y-21.953 E8.53793
G1 X18.808 Y-21.376 E8.57746
G1 X19.880 Y-20.598 E8.61680
G1 X20.797 Y-19.642 E8.65613
G1 X21.533 Y-18.532 E8.69566
G1 X22.058 Y-17.309 E8.73519
G1 X22.358 Y-16.012 E8.77473
G1 X22.427 Y-15.011 E8.80449
G1 X22.420 Y15.322 E9.70512
G1 X22.277 Y16.483 E9.73987
G1 X21.951 Y17.614 E9.77482
G1 X21.451 Y18.680 E9.80977
G1 X20.792 Y19.648 E9.84452
G1 X19.658 Y20.784 E9.89221
G1 X18.305 Y21.650 E9.93990
G1 X16.798 Y22.206 E9.98759
G1 X15.207 Y22.424 E10.03528
G1 X-15.349 Y22.419 E10.94250
G1 X-16.503 Y22.273 E10.97705
G1 X-17.627 Y21.946 E11.01180
G1 X-18.680 Y21.451 E11.04636
G1 X-19.648 Y20.792 E11.08111
G1 X-20.784 Y19.658 E11.12879
G1 X-21.650 Y18.305 E11.17648
G1 X-22.206 Y16.798 E11.22417
G1 X-22.424 Y15.207 E11.27186
G1 X-22.419 Y-15.349 E12.17909
G1 X-22.273 Y-16.503 E12.21364
G1 X-21.946 Y-17.627 E12.24839
G1 X-21.451 Y-18.680 E12.28294
G1 X-20.792 Y-19.648 E12.31769
G1 X-19.725 Y-20.729 E12.36279
G1 X-18.467 Y-21.568 E12.40770
G1 X-17.064 Y-22.134 E12.45260
G1 X-15.576 Y-22.404 E12.49751
G1 X-0.139 Y-22.416 E12.95587
G1 X-0.139 Y-22.060 F9000.000
G1 F3600.000
G1 X15.005 Y-22.070 E13.40551
G1 X16.266 Y-21.955 E13.44311
G1 X17.493 Y-21.615 E13.48090
G1 X18.638 Y-21.061 E13.51869
G1 X19.661 Y-20.315 E13.55628
G1 X20.539 Y-19.393 E13.59407
G1 X21.234 Y-18.334 E13.63167
G1 X21.731 Y-17.162 E13.66946
G1 X22.009 Y-15.927 E13.70705
G1 X22.070 Y-15.010 E13.73434
G1 X22.063 Y15.301 E14.63431
G1 X21.925 Y16.421 E14.66782
G1 X21.613 Y17.499 E14.70114
G1 X21.131 Y18.520 E14.73466
G1 X20.497 Y19.445 E14.76798
G1 X19.413 Y20.522 E14.81334
G1 X18.130 Y21.339 E14.85850
G1 X16.695 Y21.863 E14.90386
G1 X15.181 Y22.067 E14.94923
G1 X-15.320 Y22.063 E15.85485
G1 X-16.434 Y21.923 E15.88817
G1 X-17.511 Y21.608 E15.92149
G1 X-18.520 Y21.131 E15.95461
G1 X-19.445 Y20.497 E15.98793
G1 X-20.522 Y19.413 E16.03329
G1 X-21.339 Y18.130 E16.07846
G1 X-21.863 Y16.695 E16.12382
G1 X-22.067 Y15.181 E16.16918
G1 X-22.063 Y-15.320 E17.07480
M73 P1 R13
M73 Q1 S13
G1 X-21.923 Y-16.434 E17.10812
G1 X-21.608 Y-17.511 E17.14144
G1 X-21.131 Y-18.520 E17.17457
G1 X-20.497 Y-19.445 E17.20789
G1 X-19.480 Y-20.469 E17.25072
G1 X-18.276 Y-21.264 E17.29356
G1 X-16.942 Y-21.797 E17.33621
G1 X-15.522 Y-22.050 E17.37905
G1 X-0.199 Y-22.060 E17.83401
G1 X-0.199 Y-21.705 F9000.000
G1 F3600.000
G1 X15.005 Y-21.713 E18.28543
G1 X16.215 Y-21.602 E18.32149
G1 X17.378 Y-21.277 E18.35736
G1 X18.465 Y-20.749 E18.39324
G1 X19.439 Y-20.034 E18.42911
G1 X20.270 Y-19.157 E18.46499
G1 X20.933 Y-18.139 E18.50105
G1 X21.400 Y-17.025 E18.53693
G1 X21.659 Y-15.845 E18.57280
G1 X21.713 Y-15.008 E18.59769
G1 X21.707 Y15.280 E19.49699
G1 X21.575 Y16.353 E19.52907
G1 X21.275 Y17.384 E19.56097
G1 X20.811 Y18.360 E19.59306
G1 X20.196 Y19.249 E19.62515
G1 X19.167 Y20.262 E19.66802
G1 X17.945 Y21.032 E19.71089
G1 X16.587 Y21.522 E19.75376
G1 X15.162 Y21.711 E19.79645
G1 X-15.293 Y21.706 E20.70069
G1 X-16.359 Y21.573 E20.73259
G1 X-17.390 Y21.272 E20.76449
G1 X-18.360 Y20.811 E20.79638
G1 X-19.249 Y20.196 E20.82847
G1 X-20.262 Y19.167 E20.87134
G1 X-21.032 Y17.945 E20.91422
G1 X-21.522 Y16.587 E20.95709
G1 X-21.711 Y15.162 E20.99977
G1 X-21.706 Y-15.293 E21.90402
G1 X-21.573 Y-16.359 E21.93591
G1 X-21.272 Y-17.390 E21.96781
G1 X-20.811 Y-18.360 E21.99971
G1 X-20.196 Y-19.249 E22.03180
G1 X-19.227 Y-20.214 E22.07240
G1 X-18.088 Y-20.960 E22.11282
G1 X-16.816 Y-21.462 E22.15342
G1 X-15.469 Y-21.696 E22.19403
G1 X-0.259 Y-21.704 E22.64564
G1 X-0.258 Y-21.349 F9000.000
G1 F3600.000
G1 X15.005 Y-21.356 E23.09882
G1 X16.145 Y-21.252 E23.13281
G1 X17.253 Y-20.942 E23.16697
G1 X18.288 Y-20.439 E23.20114
G1 X19.215 Y-19.756 E23.23531
G1 X20.003 Y-18.918 E23.26948
G1 X20.628 Y-17.952 E23.30365
G1 X21.068 Y-16.889 E23.33782
G1 X21.309 Y-15.763 E23.37198
G1 X21.351 Y15.254 E24.29293
G1 X21.225 Y16.279 E24.32360
G1 X20.936 Y17.271 E24.35427
G1 X20.489 Y18.202 E24.38493
G1 X19.902 Y19.044 E24.41542
G1 X18.928 Y19.996 E24.45584
G1 X17.768 Y20.721 E24.49645
G1 X16.486 Y21.179 E24.53688
G1 X15.136 Y21.354 E24.57730
G1 X-15.266 Y21.350 E25.48000
G1 X-16.285 Y21.224 E25.51048
G1 X-17.276 Y20.934 E25.54115
G1 X-18.202 Y20.489 E25.57163
G1 X-19.044 Y19.902 E25.60211
G1 X-19.996 Y18.928 E25.64254
G1 X-20.721 Y17.768 E25.68315
G1 X-21.179 Y16.486 E25.72357
G1 X-21.354 Y15.136 E25.76400
G1 X-21.350 Y-15.266 E26.66669
G1 X-21.224 Y-16.285 E26.69717
G1 X-20.934 Y-17.276 E26.72784
G1 X-20.489 Y-18.202 E26.75832
G1 X-19.902 Y-19.044 E26.78881
G1 X-18.982 Y-19.953 E26.82721
G1 X-17.897 Y-20.657 E26.86561
G1 X-16.691 Y-21.126 E26.90401
G1 X-15.416 Y-21.342 E26.94242
G1 X-0.318 Y-21.349 E27.39069
G1 E24.39069 F2700.000
G92 E0
G1 Z0.700 F9000.000
G1 X-0.318 Y-14.799
G1 Z0.200
G1 E3.00000 F2700.000
;TYPE:External perimeter
G1 F3600.000
G1 X14.799 Y-14.799 E3.44884
G1 X14.799 Y14.799 E4.32762
G1 X-14.799 Y14.799 E5.20640
M73 P2 R13
M73 Q2 S13
G1 X-14.799 Y-14.799 E6.08518
G1 X-0.378 Y-14.799 E6.51333
G1 E3.51333 F2700.000
G92 E0
G1 Z0.700 F9000.000
G1 X-13.966 Y14.691
G1 Z0.200
G1 E3.00000 F2700.000
;TYPE:Solid infill
;WIDTH:0.401577
G1 F3600.000
G1 X-14.531 Y14.127 E3.02381
G1 X-14.531 Y13.620 E3.03893
G1 X-13.620 Y14.531 E3.07735
G1 X-13.113 Y14.531 E3.09248
G1 X-14.531 Y13.113 E3.15229
G1 X-14.531 Y12.605 E3.16742
G1 X-12.605 Y14.531 E3.24863
G1 X-12.098 Y14.531 E3.26375
G1 X-14.531 Y12.098 E3.36635
G1 X-14.531 Y11.591 E3.38148
G1 X-11.591 Y14.531 E3.50547
G1 X-11.084 Y14.531 E3.52059
G1 X-14.531 Y11.084 E3.66598
G1 X-14.531 Y10.576 E3.68110
G1 X-10.576 Y14.531 E3.84788
G1 X-10.069 Y14.531 E3.86300
G1 X-14.531 Y10.069 E4.05117
G1 X-14.531 Y9.562 E4.06630
G1 X-9.562 Y14.531 E4.27585
G1 X-9.055 Y14.531 E4.29098
G1 X-14.531 Y9.055 E4.52193
G1 X-14.531 Y8.548 E4.53706
G1 X-8.548 Y14.531 E4.78940
G1 X-8.040 Y14.531 E4.80453
G1 X-14.531 Y8.040 E5.07826
G1 X-14.531 Y7.533 E5.09339
G1 X-7.533 Y14.531 E5.38851
G1 X-7.026 Y14.531 E5.40364
G1 X-14.531 Y7.026 E5.72016
G1 X-14.531 Y6.519 E5.73528
G1 X-6.519 Y14.531 E6.07319
G1 X-6.012 Y14.531 E6.08832
G1 X-14.531 Y6.012 E6.44762
G1 X-14.531 Y5.504 E6.46275
G1 X-5.504 Y14.531 E6.84344
G1 X-4.997 Y14.531 E6.85857
G1 X-14.531 Y4.997 E7.26066
G1 X-14.531 Y4.490 E7.27578
G1 X-4.490 Y14.531 E7.69926
G1 X-3.983 Y14.531 E7.71439
G1 X-14.531 Y3.983 E8.15926
G1 X-14.531 Y3.475 E8.17439
G1 X-3.475 Y14.531 E8.64065
G1 X-2.968 Y14.531 E8.65578
G1 X-14.531 Y2.968 E9.14343
G1 X-14.531 Y2.461 E9.15856
G1 X-2.461 Y14.531 E9.66760
G1 X-1.954 Y14.531 E9.68273
G1 X-14.531 Y1.954 E10.21317
G1 X-14.531 Y1.447 E10.22830
G1 X-1.447 Y14.531 E10.78013
G1 X-0.939 Y14.531 E10.79525
G1 X-14.531 Y0.939 E11.36848
G1 X-14.531 Y0.432 E11.38360
G1 X-0.432 Y14.531 E11.97822
G1 X0.075 Y14.531 E11.99335
G1 X-14.531 Y-0.075 E12.60935
G1 X-14.531 Y-0.582 E12.62448
G1 X0.582 Y14.531 E13.26188
G1 X1.090 Y14.531 E13.27701
G1 X-14.531 Y-1.090 E13.93580
M73 P3 R13
M73 Q3 S13
G1 X-14.531 Y-1.597 E13.95092
G1 X1.597 Y14.531 E14.63111
G1 X2.104 Y14.531 E14.64623
G1 X-14.531 Y-2.104 E15.34781
G1 X-14.531 Y-2.611 E15.36294
G1 X2.611 Y14.531 E16.08590
G1 X3.118 Y14.531 E16.10103
G1 X-14.531 Y-3.118 E16.84539
G1 X-14.531 Y-3.626 E16.86052
G1 X3.626 Y14.531 E17.62627
G1 X4.133 Y14.531 E17.64139
G1 X-14.531 Y-4.133 E18.42854
G1 X-14.531 Y-4.640 E18.44366
G1 X4.640 Y14.531 E19.25220
G1 X5.147 Y14.531 E19.26733
G1 X-14.531 Y-5.147 E20.09725
G1 X-14.531 Y-5.654 E20.11238
G1 X5.654 Y14.531 E20.96370
G1 X6.162 Y14.531 E20.97883
G1 X-14.531 Y-6.162 E21.85154
G1 X-14.531 Y-6.669 E21.86667
G1 X6.669 Y14.531 E22.76077
G1 X7.176 Y14.531 E22.77590
G1 X-14.531 Y-7.176 E23.69139
G1 X-14.531 Y-7.683 E23.70652
G1 X7.683 Y14.531 E24.64341
G1 X8.191 Y14.531 E24.65853
G1 X-14.531 Y-8.191 E25.61681
G1 X-14.531 Y-8.698 E25.63194
G1 X8.698 Y14.531 E26.61161
G1 X9.205 Y14.531 E26.62674
G1 X-14.531 Y-9.205 E27.62780
M73 P4 R13
M73 Q4 S13
G1 X-14.531 Y-9.712 E27.64293
G1 X9.712 Y14.531 E28.66539
G1 X10.219 Y14.531 E28.68051
G1 X-14.531 Y-10.219 E29.72436
G1 X-14.531 Y-10.727 E29.73949
G1 X10.727 Y14.531 E30.80473
G1 X11.234 Y14.531 E30.81986
G1 X-14.531 Y-11.234 E31.90649
G1 X-14.531 Y-11.741 E31.92162
G1 X11.741 Y14.531 E33.02964
G1 X12.248 Y14.531 E33.04477
G1 X-14.531 Y-12.248 E34.17418
G1 X-14.531 Y-12.756 E34.18931
G1 X12.756 Y14.531 E35.34012
G1 X13.263 Y14.531 E35.35525
G1 X-14.531 Y-13.263 E36.52745
G1 X-14.531 Y-13.770 E36.54257
G1 X13.770 Y14.531 E37.73617
G1 X14.277 Y14.531 E37.75129
G1 X-14.531 Y-14.277 E38.96628
G1 X-14.531 Y-14.531 E38.97384
G1 X-14.277 Y-14.531 E38.98140
G1 X14.531 Y14.277 E40.19639
G1 X14.531 Y13.770 E40.21152
G1 X-13.770 Y-14.531 E41.40511
M73 P5 R13
M73 Q5 S13
G1 X-13.263 Y-14.531 E41.42024
G1 X14.531 Y13.263 E42.59244
M73 P5 R12
M73 Q5 S12
G1 X14.531 Y12.756 E42.60757
G1 X-12.756 Y-14.531 E43.75838
G1 X-12.248 Y-14.531 E43.77350
G1 X14.531 Y12.248 E44.90292
G1 X14.531 Y11.741 E44.91805
G1 X-11.741 Y-14.531 E46.02608
G1 X-11.234 Y-14.531 E46.04120
G1 X14.531 Y11.234 E47.12784
G1 X14.531 Y10.727 E47.14296
G1 X-10.727 Y-14.531 E48.20821
G1 X-10.219 Y-14.531 E48.22333
G1 X14.531 Y10.219 E49.26718
G1 X14.531 Y9.712 E49.28231
G1 X-9.712 Y-14.531 E50.30477
G1 X-9.205 Y-14.531 E50.31989
G1 X14.531 Y9.205 E51.32096
G1 X14.531 Y8.698 E51.33609
G1 X-8.698 Y-14.531 E52.31576
G1 X-8.191 Y-14.531 E52.33089
G1 X14.531 Y8.191 E53.28917
G1 X14.531 Y7.683 E53.30429
G1 X-7.683 Y-14.531 E54.24118
G1 X-7.176 Y-14.531 E54.25631
G1 X14.531 Y7.176 E55.17181
M73 P6 R12
M73 Q6 S12
G1 X14.531 Y6.669 E55.18693
G1 X-6.669 Y-14.531 E56.08104
G1 X-6.162 Y-14.531 E56.09617
G1 X14.531 Y6.162 E56.96888
G1 X14.531 Y5.655 E56.98401
G1 X-5.655 Y-14.531 E57.83533
G1 X-5.147 Y-14.531 E57.85046
G1 X14.531 Y5.147 E58.68039
G1 X14.531 Y4.640 E58.69551
G1 X-4.640 Y-14.531 E59.50405
G1 X-4.133 Y-14.531 E59.51918
G1 X14.531 Y4.133 E60.30632
G1 X14.531 Y3.626 E60.32145
G1 X-3.626 Y-14.531 E61.08720
G1 X-3.118 Y-14.531 E61.10233
G1 X14.531 Y3.118 E61.84669
G1 X14.531 Y2.611 E61.86182
G1 X-2.611 Y-14.531 E62.58478
G1 X-2.104 Y-14.531 E62.59991
G1 X14.531 Y2.104 E63.30149
G1 X14.531 Y1.597 E63.31661
G1 X-1.597 Y-14.531 E63.99680
G1 X-1.090 Y-14.531 E64.01193
G1 X14.531 Y1.090 E64.67072
G1 X14.531 Y0.582 E64.68585
G1 X-0.582 Y-14.531 E65.32325
G1 X-0.075 Y-14.531 E65.33837
G1 X14.531 Y0.075 E65.95438
G1 X14.531 Y-0.432 E65.96951
G1 X0.432 Y-14.531 E66.56413
G1 X0.939 Y-14.531 E66.57925
G1 X14.531 Y-0.939 E67.15248
G1 X14.531 Y-1.447 E67.16760
G1 X1.447 Y-14.531 E67.71944
G1 X1.954 Y-14.531 E67.73456
G1 X14.531 Y-1.954 E68.26500
M73 P7 R12
M73 Q7 S12
G1 X14.531 Y-2.461 E68.28013
G1 X2.461 Y-14.531 E68.78918
G1 X2.968 Y-14.531 E68.80430
G1 X14.531 Y-2.968 E69.29196
G1 X14.531 Y-3.475 E69.30709
G1 X3.475 Y-14.531 E69.77335
G1 X3.983 Y-14.531 E69.78848
G1 X14.531 Y-3.983 E70.23335
G1 X14.531 Y-4.490 E70.24848
G1 X4.490 Y-14.531 E70.67196
G1 X4.997 Y-14.531 E70.68708
G1 X14.531 Y-4.997 E71.08917
G1 X14.531 Y-5.504 E71.10430
G1 X5.504 Y-14.531 E71.48500
G1 X6.011 Y-14.531 E71.50012
G1 X14.531 Y-6.011 E71.85943
G1 X14.531 Y-6.519 E71.87455
G1 X6.519 Y-14.531 E72.21246
G1 X7.026 Y-14.531 E72.22759
G1 X14.531 Y-7.026 E72.54411
G1 X14.531 Y-7.533 E72.55924
G1 X7.533 Y-14.531 E72.85437
G1 X8.040 Y-14.531 E72.86949
G1 X14.531 Y-8.040 E73.14323
G1 X14.531 Y-8.548 E73.15835
G1 X8.548 Y-14.531 E73.41070
G1 X9.055 Y-14.531 E73.42582
G1 X14.531 Y-9.055 E73.65678
G1 X14.531 Y-9.562 E73.67190
G1 X9.562 Y-14.531 E73.88146
G1 X10.069 Y-14.531 E73.89659
G1 X14.531 Y-10.069 E74.08476
G1 X14.531 Y-10.576 E74.09988
G1 X10.576 Y-14.531 E74.26666
G1 X11.084 Y-14.531 E74.28179
G1 X14.531 Y-11.084 E74.42717
G1 X14.531 Y-11.591 E74.44230
G1 X11.591 Y-14.531 E74.56629
G1 X12.098 Y-14.531 E74.58141
G1 X14.531 Y-12.098 E74.68401
G1 X14.531 Y-12.605 E74.69914
G1 X12.605 Y-14.531 E74.78035
G1 X13.113 Y-14.531 E74.79547
G1 X14.531 Y-13.113 E74.85529
G1 X14.531 Y-13.620 E74.87042
G1 X13.620 Y-14.531 E74.90884
G1 X14.127 Y-14.531 E74.92396
G1 X14.691 Y-13.966 E74.94777
;LAYER_CHANGE
;Z:0.4
;HEIGHT:0.2
G1 Z0.400 F9000.000
M140 S60 ; set bed temperature
G1 X14.799 Y-13.966
;TYPE:External perimeter
;WIDTH:0.4
G1 F3600.000
G1 X14.799 Y14.799 E75.80184
G1 X-14.799 Y14.799 E76.68062
G1 X-14.799 Y-14.799 E77.55940
G1 X14.799 Y-14.799 E78.43818
G1 X14.799 Y-14.026 E78.46111
G1 E75.46111 F2700.000
G92 E0
G1 Z0.900 F9000.000
G1 X-14.691 Y-13.966
G1 Z0.400
G1 E3.00000 F2700.000
;TYPE:Solid infill
;WIDTH:0.401577
G1 F6000.000
G1 X-14.127 Y-14.531 E3.02380
G1 X-13.620 Y-14.531 E3.03893
G1 X-14.531 Y-13.620 E3.07735
G1 X-14.531 Y-13.113 E3.09248
G1 X-13.113 Y-14.531 E3.15229
G1 X-12.605 Y-14.531 E3.16742
G1 X-14.531 Y-12.605 E3.24862
G1 X-14.531 Y-12.098 E3.26375
G1 X-12.098 Y-14.531 E3.36634
G1 X-11.591 Y-14.531 E3.38147
G1 X-14.531 Y-11.591 E3.50546
G1 X-14.531 Y-11.084 E3.52058
G1 X-11.084 Y-14.531 E3.66596
G1 X-10.577 Y-14.531 E3.68109
G1 X-14.531 Y-10.577 E3.84786
G1 X-14.531 Y-10.069 E3.86299
G1 X-10.069 Y-14.531 E4.05115
G1 X-9.562 Y-14.531 E4.06628
G1 X-14.531 Y-9.562 E4.27584
M73 P8 R12
M73 Q8 S12
G1 X-14.531 Y-9.055 E4.29096
G1 X-9.055 Y-14.531 E4.52191
G1 X-8.548 Y-14.531 E4.53704
G1 X-14.531 Y-8.548 E4.78938
G1 X-14.531 Y-8.040 E4.80451
G1 X-8.040 Y-14.531 E5.07824
G1 X-7.533 Y-14.531 E5.09337
G1 X-14.531 Y-7.533 E5.38849
G1 X-14.531 Y-7.026 E5.40362
G1 X-7.026 Y-14.531 E5.72013
G1 X-6.519 Y-14.531 E5.73526
G1 X-14.531 Y-6.519 E6.07317
G1 X-14.531 Y-6.012 E6.08830
G1 X-6.012 Y-14.531 E6.44760
G1 X-5.504 Y-14.531 E6.46272
G1 X-14.531 Y-5.504 E6.84342
G1 X-14.531 Y-4.997 E6.85854
G1 X-4.997 Y-14.531 E7.26063
G1 X-4.490 Y-14.531 E7.27575
G1 X-14.531 Y-4.490 E7.69923
G1 X-14.531 Y-3.983 E7.71436
G1 X-3.983 Y-14.531 E8.15923
G1 X-3.475 Y-14.531 E8.17435
G1 X-14.531 Y-3.475 E8.64061
