; generated by PrusaSlicer 2.3.0-rc2+ on 2021-04-03 at 21:09:19 UTC

; 

; external perimeters extrusion width = 0.40mm
; perimeters extrusion width = 0.40mm
; infill extrusion width = 0.40mm
; solid infill extrusion width = 0.40mm
; top infill extrusion width = 0.40mm

M73 P0 R13
M73 Q0 S13
M201 X9000 Y9000 Z9000 E10000 ; sets maximum accelerations, mm/sec^2
M203 X500 Y500 Z500 E120 ; sets maximum feedrates, mm/sec
M204 P1500 R1500 T1500 ; sets acceleration (P, T) and retract acceleration (R), mm/sec^2
M205 X20.00 Y20.00 Z20.00 E25.00 ; sets the jerk limits, mm/sec
M205 S0 T0 ; sets the minimum extruding and travel feed rate, mm/sec
M107
M190 S80 ; set bed temperature and wait for it to be reached
M104 S220 ; set temperature
;TYPE:Custom
G28 ; home all axes
G29 L1  ; Load the mesh saved in slot 1
G29 J   ; 3-point ABL, tilt mesh accordingly
M109 S220 ; set temperature and wait for it to be reached
G21 ; set units to millimeters
G90 ; use absolute coordinates
M82 ; use absolute distances for extrusion
G92 E0
;LAYER_CHANGE
;Z:0.2
;HEIGHT:0.2
G1 Z0.200 F9000.000
G1 E-3.00000 F2700.000
G92 E0
G1 Z0.700 F9000.000
G1 X-0.019 Y-22.771
G1 Z0.200
G1 E3.00000 F2700.000
;TYPE:Skirt
;WIDTH:0.4
G1 F3600.000
G1 X15.005 Y-22.784 E3.44610
G1 X16.390 Y-22.659 E3.48739
G1 X17.724 Y-22.291 E3.52848
G1 X18.972 Y-21.693 E3.56956
G1 X20.100 Y-20.880 E3.61085
G1 X21.065 Y-19.878 E3.65214
G1 X21.836 Y-18.721 E3.69343
G1 X22.387 Y-17.452 E3.73451
G1 X22.706 Y-16.098 E3.77580
G1 X22.784 Y-15.020 E3.80791
G1 X22.776 Y15.350 E4.70963
G1 X22.626 Y16.560 E4.74582
G1 X22.289 Y17.731 E4.78201
G1 X21.776 Y18.829 E4.81799
G1 X21.095 Y19.840 E4.85418
G1 X19.910 Y21.039 E4.90423
G1 X18.495 Y21.955 E4.95428
G1 X16.909 Y22.546 E5.00453
G1 X15.240 Y22.780 E5.05457
G1 X-15.371 Y22.775 E5.96345
G1 X-16.573 Y22.623 E5.99944
G1 X-17.737 Y22.286 E6.03542
G1 X-18.835 Y21.773 E6.07141
G1 X-19.840 Y21.095 E6.10740
G1 X-21.039 Y19.910 E6.15744
G1 X-21.955 Y18.495 E6.20749
G1 X-22.546 Y16.909 E6.25774
G1 X-22.780 Y15.240 E6.30779
G1 X-22.775 Y-15.371 E7.21667
G1 X-22.623 Y-16.573 E7.25265
G1 X-22.286 Y-17.737 E7.28864
G1 X-21.773 Y-18.835 E7.32462
G1 X-21.095 Y-19.840 E7.36061
G1 X-19.985 Y-20.978 E7.40781
G1 X-18.667 Y-21.866 E7.45500
G1 X-17.195 Y-22.468 E7.50220
G1 X-15.633 Y-22.758 E7.54940
G1 X-0.079 Y-22.771 E8.01120
G1 X-0.079 Y-22.416 F9000.000
G1 F3600.000
G1 X15.005 Y-22.427 E8.45907
G1 X16.325 Y-22.308 E8.49840
G1 X17.608 Y-21.953 E8.53793
G1 X18.808 Y-21.376 E8.57746
G1 X19.880 Y-20.598 E8.61680
G1 X20.797 Y-19.642 E8.65613
G1 X21.533 Y-18.532 E8.69566
G1 X22.058 Y-17.309 E8.73519
G1 X22.358 Y-16.012 E8.77473
G1 X22.427 Y-15.011 E8.80449
G1 X22.420 Y15.322 E9.70512
G1 X22.277 Y16.483 E9.73987
G1 X21.951 Y17.614 E9.77482
G1 X21.451 Y18.680 E9.80977
G1 X20.792 Y19.648 E9.84452
G1 X19.658 Y20.784 E9.89221
G1 X18.305 Y21.650 E9.93990
G1 X16.798 Y22.206 E9.98759
G1 X15.207 Y22.424 E10.03528
G1 X-15.349 Y22.419 E10.94250
G1 X-16.503 Y22.273 E10.97705
G1 X-17.627 Y21.946 E11.01180
G1 X-18.680 Y21.451 E11.04636
G1 X-19.648 Y20.792 E11.08111
G1 X-20.784 Y19.658 E11.12879
G1 X-21.650 Y18.305 E11.17648
G1 X-22.206 Y16.798 E11.22417
G1 X-22.424 Y15.207 E11.27186
G1 X-22.419 Y-15.349 E12.17909
G1 X-22.273 Y-16.503 E12.21364
G1 X-21.946 Y-17.627 E12.24839
G1 X-21.451 Y-18.680 E12.28294
G1 X-20.792 Y-19.648 E12.31769
G1 X-19.725 Y-20.729 E12.36279
G1 X-18.467 Y-21.568 E12.40770
G1 X-17.064 Y-22.134 E12.45260
G1 X-15.576 Y-22.404 E12.49751
G1 X-0.139 Y-22.416 E12.95587
G1 X-0.139 Y-22.060 F9000.000
G1 F3600.000
G1 X15.005 Y-22.070 E13.40551
G1 X16.266 Y-21.955 E13.44311
G1 X17.493 Y-21.615 E13.48090
G1 X18.638 Y-21.061 E13.51869
G1 X19.661 Y-20.315 E13.55628
G1 X20.539 Y-19.393 E13.59407
G1 X21.234 Y-18.334 E13.63167
G1 X21.731 Y-17.162 E13.66946
G1 X22.009 Y-15.927 E13.70705
G1 X22.070 Y-15.010 E13.73434
G1 X22.063 Y15.301 E14.63431
G1 X21.925 Y16.421 E14.66782
G1 X21.613 Y17.499 E14.70114
G1 X21.131 Y18.520 E14.73466
G1 X20.497 Y19.445 E14.76798
G1 X19.413 Y20.522 E14.81334
G1 X18.130 Y21.339 E14.85850
G1 X16.695 Y21.863 E14.90386
G1 X15.181 Y22.067 E14.94923
G1 X-15.320 Y22.063 E15.85485
G1 X-16.434 Y21.923 E15.88817
G1 X-17.511 Y21.608 E15.92149
G1 X-18.520 Y21.131 E15.95461
G1 X-19.445 Y20.497 E15.98793
G1 X-20.522 Y19.413 E16.03329
G1 X-21.339 Y18.130 E16.07846
G1 X-21.863 Y16.695 E16.12382
G1 X-22.067 Y15.181 E16.16918
G1 X-22.063 Y-15.320 E17.07480
M73 P1 R13
M73 Q1 S13
G1 X-21.923 Y-16.434 E17.10812
G1 X-21.608 Y-17.511 E17.14144
G1 X-21.131 Y-18.520 E17.17457
G1 X-20.497 Y-19.445 E17.20789
G1 X-19.480 Y-20.469 E17.25072
G1 X-18.276 Y-21.264 E17.29356
G1 X-16.942 Y-21.797 E17.33621
G1 X-15.522 Y-22.050 E17.37905
G1 X-0.199 Y-22.060 E17.83401
G1 X-0.199 Y-21.705 F9000.000
G1 F3600.000
G1 X15.005 Y-21.713 E18.28543
G1 X16.215 Y-21.602 E18.32149
G1 X17.378 Y-21.277 E18.35736
G1 X18.465 Y-20.749 E18.39324
G1 X19.439 Y-20.034 E18.42911
G1 X20.270 Y-19.157 E18.46499
G1 X20.933 Y-18.139 E18.50105
G1 X21.400 Y-17.025 E18.53693
G1 X21.659 Y-15.845 E18.57280
G1 X21.713 Y-15.008 E18.59769
G1 X21.707 Y15.280 E19.49699
G1 X21.575 Y16.353 E19.52907
G1 X21.275 Y17.384 E19.56097
G1 X20.811 Y18.360 E19.59306
G1 X20.196 Y19.249 E19.62515
G1 X19.167 Y20.262 E19.66802
G1 X17.945 Y21.032 E19.71089
G1 X16.587 Y21.522 E19.75376
G1 X15.162 Y21.711 E19.79645
G1 X-15.293 Y21.706 E20.70069
G1 X-16.359 Y21.573 E20.73259
G1 X-17.390 Y21.272 E20.76449
G1 X-18.360 Y20.811 E20.79638
G1 X-19.249 Y20.196 E20.82847
G1 X-20.262 Y19.167 E20.87134
G1 X-21.032 Y17.945 E20.91422
G1 X-21.522 Y16.587 E20.95709
G1 X-21.711 Y15.162 E20.99977
G1 X-21.706 Y-15.293 E21.90402
G1 X-21.573 Y-16.359 E21.93591
G1 X-21.272 Y-17.390 E21.96781
G1 X-20.811 Y-18.360 E21.99971
G1 X-20.196 Y-19.249 E22.03180
G1 X-19.227 Y-20.214 E22.07240
G1 X-18.088 Y-20.960 E22.11282
G1 X-16.816 Y-21.462 E22.15342
G1 X-15.469 Y-21.696 E22.19403
G1 X-0.259 Y-21.704 E22.64564
G1 X-0.258 Y-21.349 F9000.000
G1 F3600.000
G1 X15.005 Y-21.356 E23.09882
G1 X16.145 Y-21.252 E23.13281
G1 X17.253 Y-20.942 E23.16697
G1 X18.288 Y-20.439 E23.20114
G1 X19.215 Y-19.756 E23.23531
G1 X20.003 Y-18.918 E23.26948
G1 X20.628 Y-17.952 E23.30365
G1 X21.068 Y-16.889 E23.33782
G1 X21.309 Y-15.763 E23.37198
G1 X21.351 Y15.254 E24.29293
G1 X21.225 Y16.279 E24.32360
G1 X20.936 Y17.271 E24.35427
G1 X20.489 Y18.202 E24.38493
G1 X19.902 Y19.044 E24.41542
G1 X18.928 Y19.996 E24.45584
G1 X17.768 Y20.721 E24.49645
G1 X16.486 Y21.179 E24.53688
G1 X15.136 Y21.354 E24.57730
G1 X-15.266 Y21.350 E25.48000
G1 X-16.285 Y21.224 E25.51048
G1 X-17.276 Y20.934 E25.54115
G1 X-18.202 Y20.489 E25.57163
G1 X-19.044 Y19.902 E25.60211
G1 X-19.996 Y18.928 E25.64254
G1 X-20.721 Y17.768 E25.68315
G1 X-21.179 Y16.486 E25.72357
G1 X-21.354 Y15.136 E25.76400
G1 X-21.350 Y-15.266 E26.66669
G1 X-21.224 Y-16.285 E26.69717
G1 X-20.934 Y-17.276 E26.72784
G1 X-20.489 Y-18.202 E26.75832
G1 X-19.902 Y-19.044 E26.78881
G1 X-18.982 Y-19.953 E26.82721
G1 X-17.897 Y-20.657 E26.86561
G1 X-16.691 Y-21.126 E26.90401
G1 X-15.416 Y-21.342 E26.94242
G1 X-0.318 Y-21.349 E27.39069
G1 E24.39069 F2700.000
G92 E0
G1 Z0.700 F9000.000
G1 X-0.318 Y-14.799
G1 Z0.200
G1 E3.00000 F2700.000
;TYPE:External perimeter
G1 F3600.000
G1 X14.799 Y-14.799 E3.44884
G1 X14.799 Y14.799 E4.32762
G1 X-14.799 Y14.799 E5.20640
M73 P2 R13
M73 Q2 S13
G1 X-14.799 Y-14.799 E6.08518
G1 X-0.378 Y-14.799 E6.51333
G1 E3.51333 F2700.000
G92 E0
G1 Z0.700 F9000.000
G1 X-13.916 Y14.638
G1 Z0.200
G1 E3.00000 F2700.000
;TYPE:Solid infill
;WIDTH:0.400271
G1 F3600.000
G1 X-14.477 Y14.076 E3.02360
G1 X-14.477 Y13.571 E3.03862
G1 X-13.571 Y14.477 E3.07671
G1 X-13.065 Y14.477 E3.09172
G1 X-14.477 Y13.065 E3.15105
G1 X-14.477 Y12.560 E3.16606
G1 X-12.560 Y14.477 E3.24663
G1 X-12.055 Y14.477 E3.26164
G1 X-14.477 Y12.055 E3.36344
G1 X-14.477 Y11.549 E3.37846
G1 X-11.549 Y14.477 E3.50149
G1 X-11.044 Y14.477 E3.51651
G1 X-14.477 Y11.044 E3.66078
G1 X-14.477 Y10.539 E3.67579
G1 X-10.539 Y14.477 E3.84130
G1 X-10.033 Y14.477 E3.85632
G1 X-14.477 Y10.033 E4.04306
G1 X-14.477 Y9.528 E4.05808
G1 X-9.528 Y14.477 E4.26606
G1 X-9.023 Y14.477 E4.28107
G1 X-14.477 Y9.023 E4.51029
G1 X-14.477 Y8.517 E4.52531
G1 X-8.517 Y14.477 E4.77576
G1 X-8.012 Y14.477 E4.79078
G1 X-14.477 Y8.012 E5.06247
G1 X-14.477 Y7.506 E5.07748
G1 X-7.506 Y14.477 E5.37041
G1 X-7.001 Y14.477 E5.38543
G1 X-14.477 Y7.001 E5.69959
G1 X-14.477 Y6.496 E5.71461
G1 X-6.496 Y14.477 E6.05000
G1 X-5.990 Y14.477 E6.06502
G1 X-14.477 Y5.990 E6.42166
G1 X-14.477 Y5.485 E6.43667
G1 X-5.485 Y14.477 E6.81455
G1 X-4.980 Y14.477 E6.82956
G1 X-14.477 Y4.980 E7.22867
G1 X-14.477 Y4.474 E7.24369
G1 X-4.474 Y14.477 E7.66403
G1 X-3.969 Y14.477 E7.67905
G1 X-14.477 Y3.969 E8.12063
G1 X-14.477 Y3.463 E8.13565
G1 X-3.463 Y14.477 E8.59847
G1 X-2.958 Y14.477 E8.61348
G1 X-14.477 Y2.958 E9.09754
G1 X-14.477 Y2.453 E9.11256
G1 X-2.453 Y14.477 E9.61785
G1 X-1.947 Y14.477 E9.63286
G1 X-14.477 Y1.947 E10.15939
G1 X-14.477 Y1.442 E10.17441
G1 X-1.442 Y14.477 E10.72217
G1 X-0.937 Y14.477 E10.73719
G1 X-14.477 Y0.937 E11.30619
G1 X-14.477 Y0.431 E11.32121
G1 X-0.431 Y14.477 E11.91145
G1 X0.074 Y14.477 E11.92646
G1 X-14.477 Y-0.074 E12.53794
G1 X-14.477 Y-0.580 E12.55295
G1 X0.580 Y14.477 E13.18567
G1 X1.085 Y14.477 E13.20068
G1 X-14.477 Y-1.085 E13.85463
M73 P3 R13
M73 Q3 S13
G1 X-14.477 Y-1.590 E13.86965
G1 X1.590 Y14.477 E14.54483
G1 X2.096 Y14.477 E14.55985
G1 X-14.477 Y-2.096 E15.25627
G1 X-14.477 Y-2.601 E15.27128
G1 X2.601 Y14.477 E15.98894
G1 X3.106 Y14.477 E16.00396
G1 X-14.477 Y-3.106 E16.74285
G1 X-14.477 Y-3.612 E16.75787
G1 X3.612 Y14.477 E17.51800
G1 X4.117 Y14.477 E17.53302
G1 X-14.477 Y-4.117 E18.31438
G1 X-14.477 Y-4.622 E18.32940
G1 X4.622 Y14.477 E19.13200
G1 X5.128 Y14.477 E19.14702
G1 X-14.477 Y-5.128 E19.97086
G1 X-14.477 Y-5.633 E19.98588
G1 X5.633 Y14.477 E20.83095
G1 X6.139 Y14.477 E20.84597
G1 X-14.477 Y-6.139 E21.71228
G1 X-14.477 Y-6.644 E21.72730
G1 X6.644 Y14.477 E22.61485
G1 X7.149 Y14.477 E22.62987
G1 X-14.477 Y-7.149 E23.53865
G1 X-14.477 Y-7.655 E23.55367
G1 X7.655 Y14.477 E24.48369
G1 X8.160 Y14.477 E24.49871
G1 X-14.477 Y-8.160 E25.44997
G1 X-14.477 Y-8.665 E25.46498
G1 X8.665 Y14.477 E26.43748
G1 X9.171 Y14.477 E26.45250
G1 X-14.477 Y-9.171 E27.44623
M73 P4 R13
M73 Q4 S13
G1 X-14.477 Y-9.676 E27.46125
G1 X9.676 Y14.477 E28.47622
G1 X10.182 Y14.477 E28.49123
G1 X-14.477 Y-10.182 E29.52744
G1 X-14.477 Y-10.687 E29.54245
G1 X10.687 Y14.477 E30.59990
G1 X11.192 Y14.477 E30.61491
G1 X-14.477 Y-11.192 E31.69359
G1 X-14.477 Y-11.698 E31.70861
G1 X11.698 Y14.477 E32.80852
G1 X12.203 Y14.477 E32.82354
G1 X-14.477 Y-12.203 E33.94469
G1 X-14.477 Y-12.708 E33.95971
G1 X12.708 Y14.477 E35.10210
G1 X13.214 Y14.477 E35.11711
G1 X-14.477 Y-13.214 E36.28074
G1 X-14.477 Y-13.719 E36.29575
G1 X13.719 Y14.477 E37.48062
G1 X14.225 Y14.477 E37.49563
G1 X-14.477 Y-14.225 E38.70173
G1 X-14.477 Y-14.477 E38.70924
G1 X-14.225 Y-14.477 E38.71675
G1 X14.477 Y14.225 E39.92285
G1 X14.477 Y13.719 E39.93786
G1 X-13.719 Y-14.477 E41.12273
M73 P5 R13
M73 Q5 S13
G1 X-13.214 Y-14.477 E41.13774
G1 X14.477 Y13.214 E42.30137
M73 P5 R12
M73 Q5 S12
G1 X14.477 Y12.708 E42.31639
G1 X-12.708 Y-14.477 E43.45878
G1 X-12.203 Y-14.477 E43.47379
G1 X14.477 Y12.203 E44.59495
G1 X14.477 Y11.698 E44.60996
G1 X-11.698 Y-14.477 E45.70988
G1 X-11.192 Y-14.477 E45.72490
G1 X14.477 Y11.192 E46.80358
G1 X14.477 Y10.687 E46.81859
G1 X-10.687 Y-14.477 E47.87604
G1 X-10.182 Y-14.477 E47.89105
G1 X14.477 Y10.182 E48.92726
G1 X14.477 Y9.676 E48.94228
G1 X-9.676 Y-14.477 E49.95725
G1 X-9.171 Y-14.477 E49.97226
G1 X14.477 Y9.171 E50.96600
G1 X14.477 Y8.665 E50.98102
G1 X-8.665 Y-14.477 E51.95351
G1 X-8.160 Y-14.477 E51.96853
G1 X14.477 Y8.160 E52.91979
G1 X14.477 Y7.655 E52.93481
G1 X-7.655 Y-14.477 E53.86483
G1 X-7.149 Y-14.477 E53.87985
G1 X14.477 Y7.149 E54.78864
M73 P6 R12
M73 Q6 S12
G1 X14.477 Y6.644 E54.80365
G1 X-6.644 Y-14.477 E55.69120
G1 X-6.139 Y-14.477 E55.70622
G1 X14.477 Y6.139 E56.57254
G1 X14.477 Y5.633 E56.58755
G1 X-5.633 Y-14.477 E57.43263
G1 X-5.128 Y-14.477 E57.44765
G1 X14.477 Y5.128 E58.27149
G1 X14.477 Y4.623 E58.28651
G1 X-4.623 Y-14.477 E59.08911
G1 X-4.117 Y-14.477 E59.10413
G1 X14.477 Y4.117 E59.88550
G1 X14.477 Y3.612 E59.90051
G1 X-3.612 Y-14.477 E60.66064
G1 X-3.106 Y-14.477 E60.67566
G1 X14.477 Y3.106 E61.41456
G1 X14.477 Y2.601 E61.42957
G1 X-2.601 Y-14.477 E62.14723
G1 X-2.096 Y-14.477 E62.16225
G1 X14.477 Y2.096 E62.85867
G1 X14.477 Y1.590 E62.87369
G1 X-1.590 Y-14.477 E63.54887
G1 X-1.085 Y-14.477 E63.56389
G1 X14.477 Y1.085 E64.21784
G1 X14.477 Y0.580 E64.23286
G1 X-0.580 Y-14.477 E64.86557
G1 X-0.074 Y-14.477 E64.88059
G1 X14.477 Y0.074 E65.49206
G1 X14.477 Y-0.431 E65.50708
G1 X0.431 Y-14.477 E66.09732
G1 X0.937 Y-14.477 E66.11233
G1 X14.477 Y-0.937 E66.68134
G1 X14.477 Y-1.442 E66.69635
G1 X1.442 Y-14.477 E67.24412
G1 X1.947 Y-14.477 E67.25914
G1 X14.477 Y-1.947 E67.78567
M73 P7 R12
M73 Q7 S12
G1 X14.477 Y-2.453 E67.80068
G1 X2.453 Y-14.477 E68.30598
G1 X2.958 Y-14.477 E68.32099
G1 X14.477 Y-2.958 E68.80505
G1 X14.477 Y-3.463 E68.82007
G1 X3.463 Y-14.477 E69.28289
G1 X3.969 Y-14.477 E69.29790
G1 X14.477 Y-3.969 E69.73949
G1 X14.477 Y-4.474 E69.75450
G1 X4.474 Y-14.477 E70.17485
G1 X4.980 Y-14.477 E70.18987
G1 X14.477 Y-4.980 E70.58898
G1 X14.477 Y-5.485 E70.60399
G1 X5.485 Y-14.477 E70.98187
G1 X5.990 Y-14.477 E70.99689
G1 X14.477 Y-5.990 E71.35352
G1 X14.477 Y-6.496 E71.36854
G1 X6.496 Y-14.477 E71.70394
G1 X7.001 Y-14.477 E71.71896
G1 X14.477 Y-7.001 E72.03312
G1 X14.477 Y-7.506 E72.04814
G1 X7.506 Y-14.477 E72.34107
G1 X8.012 Y-14.477 E72.35608
G1 X14.477 Y-8.012 E72.62777
G1 X14.477 Y-8.517 E72.64279
G1 X8.517 Y-14.477 E72.89325
G1 X9.022 Y-14.477 E72.90826
G1 X14.477 Y-9.022 E73.13748
G1 X14.477 Y-9.528 E73.15250
G1 X9.528 Y-14.477 E73.36048
G1 X10.033 Y-14.477 E73.37549
G1 X14.477 Y-10.033 E73.56224
G1 X14.477 Y-10.539 E73.57726
G1 X10.539 Y-14.477 E73.74277
G1 X11.044 Y-14.477 E73.75778
G1 X14.477 Y-11.044 E73.90205
G1 X14.477 Y-11.549 E73.91707
G1 X11.549 Y-14.477 E74.04011
G1 X12.055 Y-14.477 E74.05512
G1 X14.477 Y-12.055 E74.15692
G1 X14.477 Y-12.560 E74.17194
G1 X12.560 Y-14.477 E74.25250
G1 X13.065 Y-14.477 E74.26752
G1 X14.477 Y-13.065 E74.32684
G1 X14.477 Y-13.571 E74.34186
G1 X13.571 Y-14.477 E74.37995
G1 X14.076 Y-14.477 E74.39496
G1 X14.638 Y-13.916 E74.41857
;LAYER_CHANGE
;Z:0.4
;HEIGHT:0.2
G1 Z0.400 F9000.000
M140 S60 ; set bed temperature
G1 X14.799 Y-13.916
;TYPE:External perimeter
;WIDTH:0.4
G1 F3600.000
G1 X14.799 Y14.799 E75.27113
G1 X-14.799 Y14.799 E76.14991
G1 X-14.799 Y-14.799 E77.02869
G1 X14.799 Y-14.799 E77.90747
G1 X14.799 Y-13.976 E77.93190
G1 E74.93190 F2700.000
G92 E0
G1 Z0.900 F9000.000
G1 X-14.638 Y-13.916
G1 Z0.400
G1 E3.00000 F2700.000
;TYPE:Solid infill
;WIDTH:0.400271
G1 F6000.000
G1 X-14.076 Y-14.477 E3.02360
G1 X-13.571 Y-14.477 E3.03862
G1 X-14.477 Y-13.571 E3.07670
G1 X-14.477 Y-13.066 E3.09172
G1 X-13.066 Y-14.477 E3.15104
G1 X-12.560 Y-14.477 E3.16606
G1 X-14.477 Y-12.560 E3.24662
G1 X-14.477 Y-12.055 E3.26164
G1 X-12.055 Y-14.477 E3.36343
G1 X-11.549 Y-14.477 E3.37845
G1 X-14.477 Y-11.549 E3.50148
G1 X-14.477 Y-11.044 E3.51650
G1 X-11.044 Y-14.477 E3.66077
G1 X-10.539 Y-14.477 E3.67578
G1 X-14.477 Y-10.539 E3.84129
G1 X-14.477 Y-10.033 E3.85630
G1 X-10.033 Y-14.477 E4.04305
G1 X-9.528 Y-14.477 E4.05806
G1 X-14.477 Y-9.528 E4.26604
G1 X-14.477 Y-9.023 E4.28106
G1 X-9.023 Y-14.477 E4.51027
M73 P8 R12
M73 Q8 S12
G1 X-8.517 Y-14.477 E4.52529
G1 X-14.477 Y-8.517 E4.77574
G1 X-14.477 Y-8.012 E4.79076
G1 X-8.012 Y-14.477 E5.06245
G1 X-7.506 Y-14.477 E5.07746
G1 X-14.477 Y-7.506 E5.37039
G1 X-14.477 Y-7.001 E5.38540
G1 X-7.001 Y-14.477 E5.69956
G1 X-6.496 Y-14.477 E5.71458
G1 X-14.477 Y-6.496 E6.04998
G1 X-14.477 Y-5.990 E6.06500
G1 X-5.990 Y-14.477 E6.42163
G1 X-5.485 Y-14.477 E6.43665
G1 X-14.477 Y-5.485 E6.81452
G1 X-14.477 Y-4.980 E6.82953
G1 X-4.980 Y-14.477 E7.22864
G1 X-4.474 Y-14.477 E7.24366
G1 X-14.477 Y-4.474 E7.66400
G1 X-14.477 Y-3.969 E7.67902
G1 X-3.969 Y-14.477 E8.12060
G1 X-3.463 Y-14.477 E8.13562
G1 X-14.477 Y-3.463 E8.59843
