; G-Code originally generated by Simplify3D(R) Version 4.1.2
;M80 ; power supply on
G90
M82
M106 S0
M140 S80 ; custom bed temp
M190 S80 ; custom bed temp
M104 S220 T0 ; custom hot end temp
M109 S220 T0 ; custom hot end temp
G28 ; home all axes
;G29 ; probe ABL
;M420 S1 ; restore ABL mesh 
; custom start gcode
G29  L1 ; Load UBL Mesh
G29 J ; Verify with 3-point ABL
G91 ; Relative positioning
G0 Z5 ; Move 5mm upwards off of the bed to wait for heating
G90 ; Absolute positioning
; process Color1-2
; layer 1, Z = 0.200
T0
G92 E0.0000
G1 E-3 F2700 ; custom retraction - A
; feature skirt
; tool H0.200 W0.576
;zhopupA
G1 X-31.128 Y-12.959000000000003 F6000
G1 Z0.200 F1200
G1 E0 F2400 ; custom un-retraction/prime - A
G92 E0.0000
G1 X-30.896 Y-13.063000000000002 E0.0110 F1800
G1 X-30.169 Y-13.341999999999999 E0.0445
G1 X-29.927 Y-13.421 E0.0555
G1 X-29.175 Y-13.622 E0.0890
G1 X-28.926 Y-13.674999999999997 E0.1000
G1 X-28.158 Y-13.796999999999997 E0.1336
G1 X-27.904 Y-13.823 E0.1445
G1 X-27.191 Y-13.860999999999997 E0.1753
G1 X-27.064 Y-13.863999999999997 E0.1808
G1 X27.063999999999993 Y-13.863999999999997 E2.5140
G1 X27.191000000000003 Y-13.860999999999997 E2.5195
G1 X27.903999999999996 Y-13.823 E2.5503
G1 X28.158 Y-13.796999999999997 E2.5613
G1 X28.926000000000002 Y-13.674999999999997 E2.5948
G1 X29.174999999999997 Y-13.622 E2.6058
G1 X29.927000000000007 Y-13.421 E2.6393
G1 X30.168999999999997 Y-13.341999999999999 E2.6503
G1 X30.896 Y-13.063000000000002 E2.6838
G1 X31.128 Y-12.959000000000003 E2.6948
G1 X31.822000000000003 Y-12.606000000000002 E2.7284
G1 X32.042 Y-12.479 E2.7393
G1 X32.69499999999999 Y-12.055 E2.7729
G1 X32.900999999999996 Y-11.905000000000001 E2.7838
G1 X33.506 Y-11.415999999999997 E2.8174
G1 X33.69499999999999 Y-11.244999999999997 E2.8284
G1 X34.245000000000005 Y-10.695 E2.8619
G1 X34.415000000000006 Y-10.506 E2.8729
G1 X34.905 Y-9.901000000000003 E2.9064
G1 X35.05500000000001 Y-9.695 E2.9174
G1 X35.479 Y-9.042000000000002 E2.9510
G1 X35.605999999999995 Y-8.822000000000003 E2.9619
G1 X35.959 Y-8.128 E2.9955
G1 X36.063 Y-7.896000000000001 E3.0064
G1 X36.342 Y-7.168999999999997 E3.0400
G1 X36.42100000000001 Y-6.927 E3.0510
G1 X36.622 Y-6.174999999999997 E3.0845
G1 X36.675 Y-5.926000000000002 E3.0955
G1 X36.797 Y-5.158000000000001 E3.1290
G1 X36.82299999999999 Y-4.905000000000001 E3.1400
G1 X36.861000000000004 Y-4.1910000000000025 E3.1708
G1 X36.864000000000004 Y-4.064 E3.1763
G1 X36.864000000000004 Y4.064 E3.5266
G1 X36.861000000000004 Y4.1910000000000025 E3.5321
G1 X36.82299999999999 Y4.905000000000001 E3.5629
G1 X36.797 Y5.158000000000001 E3.5739
G1 X36.675 Y5.926000000000002 E3.6074
G1 X36.622 Y6.174999999999997 E3.6184
G1 X36.42100000000001 Y6.927 E3.6519
G1 X36.342 Y7.168999999999997 E3.6629
G1 X36.063 Y7.896000000000001 E3.6965
G1 X35.959 Y8.128 E3.7075
G1 X35.605999999999995 Y8.822000000000003 E3.7410
G1 X35.479 Y9.042000000000002 E3.7520
G1 X35.05500000000001 Y9.695 E3.7855
G1 X34.905 Y9.901000000000003 E3.7965
G1 X34.415000000000006 Y10.506 E3.8300
G1 X34.245000000000005 Y10.695 E3.8410
G1 X33.69499999999999 Y11.244999999999997 E3.8745
G1 X33.506 Y11.415999999999997 E3.8855
G1 X32.900999999999996 Y11.905000000000001 E3.9191
G1 X32.69499999999999 Y12.055 E3.9301
G1 X32.042 Y12.479 E3.9636
G1 X31.822000000000003 Y12.606000000000002 E3.9746
G1 X31.128 Y12.959000000000003 E4.0081
G1 X30.896 Y13.063000000000002 E4.0191
G1 X30.168999999999997 Y13.341999999999999 E4.0526
G1 X29.927000000000007 Y13.421 E4.0636
G1 X29.174999999999997 Y13.622 E4.0972
G1 X28.926000000000002 Y13.674999999999997 E4.1081
G1 X28.158 Y13.796999999999997 E4.1417
G1 X27.903999999999996 Y13.823 E4.1527
G1 X27.191000000000003 Y13.860999999999997 E4.1835
G1 X27.063999999999993 Y13.863999999999997 E4.1889
G1 X-27.064 Y13.863999999999997 E6.5221
G1 X-27.191 Y13.860999999999997 E6.5276
G1 X-27.904 Y13.823 E6.5584
G1 X-28.158 Y13.796999999999997 E6.5694
G1 X-28.926 Y13.674999999999997 E6.6029
G1 X-29.175 Y13.622 E6.6139
G1 X-29.927 Y13.421 E6.6474
G1 X-30.169 Y13.341999999999999 E6.6584
G1 X-30.896 Y13.063000000000002 E6.6920
G1 X-31.128 Y12.959000000000003 E6.7029
G1 X-31.822 Y12.606000000000002 E6.7365
G1 X-32.042 Y12.479 E6.7475
G1 X-32.695 Y12.055 E6.7810
G1 X-32.900999999999996 Y11.905000000000001 E6.7920
G1 X-33.506 Y11.415999999999997 E6.8255
G1 X-33.695 Y11.244999999999997 E6.8365
G1 X-34.245 Y10.695 E6.8700
G1 X-34.416 Y10.506 E6.8810
G1 X-34.905 Y9.901000000000003 E6.9146
G1 X-35.055 Y9.695 E6.9255
G1 X-35.479 Y9.042000000000002 E6.9591
G1 X-35.606 Y8.822000000000003 E6.9701
G1 X-35.959 Y8.128 E7.0036
G1 X-36.063 Y7.896000000000001 E7.0146
G1 X-36.342 Y7.168999999999997 E7.0481
G1 X-36.421 Y6.927 E7.0591
G1 X-36.622 Y6.174999999999997 E7.0926
G1 X-36.675 Y5.926000000000002 E7.1036
G1 X-36.797 Y5.158000000000001 E7.1372
G1 X-36.823 Y4.905000000000001 E7.1481
G1 X-36.859 Y4.216999999999999 E7.1778
G1 X-36.863 Y4.090000000000003 E7.1833
G1 X-36.864000000000004 Y-4.063000000000002 E7.5347
G1 X-36.861000000000004 Y-4.1910000000000025 E7.5402
G1 X-36.823 Y-4.9040000000000035 E7.5710
G1 X-36.797 Y-5.158000000000001 E7.5820
G1 X-36.675 Y-5.926000000000002 E7.6156
G1 X-36.622 Y-6.174999999999997 E7.6265
G1 X-36.421 Y-6.927 E7.6601
G1 X-36.342 Y-7.168999999999997 E7.6711
G1 X-36.063 Y-7.896000000000001 E7.7046
G1 X-35.959 Y-8.128 E7.7156
G1 X-35.606 Y-8.822000000000003 E7.7491
G1 X-35.479 Y-9.042000000000002 E7.7601
G1 X-35.055 Y-9.695 E7.7936
G1 X-34.905 Y-9.901000000000003 E7.8046
G1 X-34.416 Y-10.506 E7.8382
G1 X-34.245 Y-10.695 E7.8491
G1 X-33.695 Y-11.244999999999997 E7.8827
G1 X-33.506 Y-11.415999999999997 E7.8937
G1 X-32.900999999999996 Y-11.905000000000001 E7.9272
G1 X-32.695 Y-12.055 E7.9382
G1 X-32.042 Y-12.479 E7.9717
G1 X-31.822 Y-12.606000000000002 E7.9827
G1 X-31.128 Y-12.959000000000003 E8.0162
G92 E0.0000
G1 E-3 F2700 ; custom retraction - A
;zhopupA
G1 X-30.88 Y-12.439 F6000
G1 Z0.200 F1200
G1 E0 F2400 ; custom un-retraction/prime - A
G92 E0.0000
G1 X-30.675 Y-12.530999999999999 E0.0097 F1800
G1 X-29.977 Y-12.799 E0.0419
G1 X-29.763 Y-12.868000000000002 E0.0516
G1 X-29.041 Y-13.061999999999998 E0.0838
G1 X-28.821 Y-13.107999999999997 E0.0935
G1 X-28.083 Y-13.225000000000001 E0.1258
G1 X-27.859 Y-13.249000000000002 E0.1354
G1 X-27.168 Y-13.284999999999997 E0.1653
G1 X-27.056 Y-13.287999999999997 E0.1701
G1 X27.055999999999997 Y-13.287999999999997 E2.5026
G1 X27.168000000000006 Y-13.284999999999997 E2.5075
G1 X27.858999999999995 Y-13.249000000000002 E2.5373
G1 X28.081999999999994 Y-13.225000000000001 E2.5469
G1 X28.820999999999998 Y-13.107999999999997 E2.5792
G1 X29.040999999999997 Y-13.061999999999998 E2.5889
G1 X29.763000000000005 Y-12.868000000000002 E2.6211
G1 X29.977000000000004 Y-12.799 E2.6308
G1 X30.674999999999997 Y-12.530999999999999 E2.6630
G1 X30.879999999999995 Y-12.439 E2.6727
G1 X31.546999999999997 Y-12.100000000000001 E2.7050
G1 X31.741 Y-11.987000000000002 E2.7146
G1 X32.367999999999995 Y-11.579999999999998 E2.7469
G1 X32.55 Y-11.448 E2.7565
G1 X33.131 Y-10.978000000000002 E2.7888
G1 X33.29900000000001 Y-10.826999999999998 E2.7985
G1 X33.827 Y-10.298000000000002 E2.8307
G1 X33.977000000000004 Y-10.131999999999998 E2.8404
G1 X34.44799999999999 Y-9.549999999999997 E2.8726
G1 X34.58 Y-9.368000000000002 E2.8823
G1 X34.988 Y-8.741 E2.9146
G1 X35.099999999999994 Y-8.546999999999997 E2.9242
G1 X35.43899999999999 Y-7.880000000000003 E2.9565
G1 X35.531000000000006 Y-7.674999999999997 E2.9661
G1 X35.79900000000001 Y-6.976999999999997 E2.9984
G1 X35.867999999999995 Y-6.762999999999998 E3.0081
G1 X36.062 Y-6.040999999999997 E3.0403
G1 X36.108000000000004 Y-5.820999999999998 E3.0500
G1 X36.224999999999994 Y-5.082999999999998 E3.0822
G1 X36.248999999999995 Y-4.859000000000002 E3.0919
G1 X36.285 Y-4.167999999999999 E3.1217
G1 X36.288 Y-4.055999999999997 E3.1266
G1 X36.288 Y4.055999999999997 E3.4762
G1 X36.285 Y4.167999999999999 E3.4811
G1 X36.248999999999995 Y4.859000000000002 E3.5109
G1 X36.224999999999994 Y5.082999999999998 E3.5206
G1 X36.108000000000004 Y5.820999999999998 E3.5528
G1 X36.062 Y6.040999999999997 E3.5625
G1 X35.867999999999995 Y6.762999999999998 E3.5947
G1 X35.79900000000001 Y6.976999999999997 E3.6044
G1 X35.531000000000006 Y7.674999999999997 E3.6367
G1 X35.43899999999999 Y7.880000000000003 E3.6463
G1 X35.099999999999994 Y8.546999999999997 E3.6786
G1 X34.988 Y8.741 E3.6883
G1 X34.58 Y9.368000000000002 E3.7205
G1 X34.44799999999999 Y9.549999999999997 E3.7302
G1 X33.977000000000004 Y10.131999999999998 E3.7624
G1 X33.827 Y10.298000000000002 E3.7721
G1 X33.29900000000001 Y10.826999999999998 E3.8043
G1 X33.131 Y10.978000000000002 E3.8140
G1 X32.55 Y11.448 E3.8463
G1 X32.369 Y11.579999999999998 E3.8559
G1 X31.741 Y11.987000000000002 E3.8882
G1 X31.546999999999997 Y12.100000000000001 E3.8979
G1 X30.879999999999995 Y12.439 E3.9301
G1 X30.674999999999997 Y12.530999999999999 E3.9398
G1 X29.977000000000004 Y12.799 E3.9720
G1 X29.763000000000005 Y12.868000000000002 E3.9817
G1 X29.040999999999997 Y13.061999999999998 E4.0139
G1 X28.820999999999998 Y13.107999999999997 E4.0236
G1 X28.081999999999994 Y13.225000000000001 E4.0559
G1 X27.858999999999995 Y13.249000000000002 E4.0655
G1 X27.168000000000006 Y13.284999999999997 E4.0954
G1 X27.055999999999997 Y13.287999999999997 E4.1002
G1 X-27.056 Y13.287999999999997 E6.4327
G1 X-27.168 Y13.284999999999997 E6.4376
G1 X-27.859 Y13.249000000000002 E6.4674
G1 X-28.082 Y13.225000000000001 E6.4771
G1 X-28.821 Y13.107999999999997 E6.5093
G1 X-29.041 Y13.061999999999998 E6.5190
G1 X-29.763 Y12.868000000000002 E6.5512
G1 X-29.977 Y12.799 E6.5609
G1 X-30.675 Y12.530999999999999 E6.5931
G1 X-30.88 Y12.439 E6.6028
G1 X-31.547 Y12.100000000000001 E6.6351
G1 X-31.741 Y11.988 E6.6447
G1 X-32.369 Y11.579999999999998 E6.6770
G1 X-32.55 Y11.448 E6.6867
G1 X-33.131 Y10.976999999999997 E6.7189
G1 X-33.298 Y10.826999999999998 E6.7286
G1 X-33.827 Y10.298000000000002 E6.7608
G1 X-33.977000000000004 Y10.131 E6.7705
G1 X-34.448 Y9.549999999999997 E6.8027
G1 X-34.58 Y9.369 E6.8124
G1 X-34.988 Y8.741 E6.8447
G1 X-35.1 Y8.546999999999997 E6.8543
G1 X-35.439 Y7.880000000000003 E6.8866
G1 X-35.531 Y7.674999999999997 E6.8963
G1 X-35.799 Y6.976999999999997 E6.9285
G1 X-35.868 Y6.762999999999998 E6.9382
G1 X-36.062 Y6.040999999999997 E6.9704
G1 X-36.108000000000004 Y5.820999999999998 E6.9801
G1 X-36.225 Y5.082999999999998 E7.0123
G1 X-36.249 Y4.859000000000002 E7.0220
G1 X-36.284 Y4.195 E7.0507
G1 X-36.287 Y4.082999999999998 E7.0555
G1 X-36.288 Y-4.055999999999997 E7.4063
G1 X-36.285 Y-4.167999999999999 E7.4112
G1 X-36.249 Y-4.859000000000002 E7.4410
G1 X-36.225 Y-5.082999999999998 E7.4507
G1 X-36.108000000000004 Y-5.820999999999998 E7.4829
G1 X-36.062 Y-6.040999999999997 E7.4926
G1 X-35.868 Y-6.762999999999998 E7.5248
G1 X-35.799 Y-6.976999999999997 E7.5345
G1 X-35.531 Y-7.674999999999997 E7.5668
G1 X-35.439 Y-7.880000000000003 E7.5764
G1 X-35.1 Y-8.546999999999997 E7.6087
G1 X-34.988 Y-8.741 E7.6184
G1 X-34.58 Y-9.368000000000002 E7.6506
G1 X-34.448 Y-9.549999999999997 E7.6603
G1 X-33.977000000000004 Y-10.131 E7.6925
G1 X-33.827 Y-10.298000000000002 E7.7022
G1 X-33.298 Y-10.826999999999998 E7.7344
G1 X-33.131 Y-10.976999999999997 E7.7441
G1 X-32.55 Y-11.448 E7.7764
G1 X-32.367999999999995 Y-11.579999999999998 E7.7860
G1 X-31.741 Y-11.988 E7.8183
G1 X-31.547 Y-12.100000000000001 E7.8280
G1 X-30.88 Y-12.439 E7.8602
G92 E0.0000
G1 E-3 F2700 ; custom retraction - A
; feature inner perimeter
;zhopupA
G1 X-28.916 Y-8.304000000000002 F6000
G1 X-28.937 Y-8.293999999999997
G1 X-28.447 Y-7.25
G1 Z0.200 F1200
G1 E0 F2400 ; custom un-retraction/prime - A
G92 E0.0000
G1 X-28.1 Y-7.384 E0.0161 F1350
G1 X-27.74 Y-7.479999999999997 E0.0321
G1 X-27.372 Y-7.5390000000000015 E0.0482
G1 X-26.962 Y-7.560000000000002 E0.0658
G1 X26.962000000000003 Y-7.560000000000002 E2.3903
G1 X27.372 Y-7.5390000000000015 E2.4079
G1 X27.739999999999995 Y-7.479999999999997 E2.4240
G1 X28.099000000000004 Y-7.384 E2.4401
G1 X28.447000000000003 Y-7.25 E2.4561
G1 X28.778999999999996 Y-7.081000000000003 E2.4722
G1 X29.090999999999994 Y-6.878999999999998 E2.4882
G1 X29.381 Y-6.643999999999998 E2.5043
G1 X29.644000000000005 Y-6.381 E2.5203
G1 X29.879000000000005 Y-6.091000000000001 E2.5364
G1 X30.081000000000003 Y-5.7790000000000035 E2.5524
G1 X30.25 Y-5.447000000000003 E2.5685
G1 X30.384 Y-5.098999999999997 E2.5845
G1 X30.480000000000004 Y-4.740000000000002 E2.6006
G1 X30.539 Y-4.372 E2.6166
G1 X30.560000000000002 Y-3.9620000000000033 E2.6343
G1 X30.560000000000002 Y3.9620000000000033 E2.9759
G1 X30.539 Y4.372 E2.9936
G1 X30.480000000000004 Y4.740000000000002 E3.0097
G1 X30.384 Y5.100000000000001 E3.0257
G1 X30.25 Y5.447000000000003 E3.0418
G1 X30.081000000000003 Y5.7790000000000035 E3.0578
G1 X29.879000000000005 Y6.091000000000001 E3.0739
G1 X29.644000000000005 Y6.381 E3.0899
G1 X29.381 Y6.643999999999998 E3.1060
G1 X29.090999999999994 Y6.878 E3.1220
G1 X28.778999999999996 Y7.081000000000003 E3.1381
G1 X28.447000000000003 Y7.25 E3.1541
G1 X28.099000000000004 Y7.384 E3.1702
G1 X27.739999999999995 Y7.479999999999997 E3.1862
G1 X27.372 Y7.5390000000000015 E3.2023
G1 X26.962000000000003 Y7.560000000000002 E3.2200
G1 X-26.962 Y7.560000000000002 E5.5444
G1 X-27.372 Y7.5390000000000015 E5.5621
G1 X-27.74 Y7.479999999999997 E5.5781
G1 X-28.099 Y7.384 E5.5942
G1 X-28.447 Y7.25 E5.6102
G1 X-28.779 Y7.081000000000003 E5.6263
G1 X-29.091 Y6.878999999999998 E5.6423
G1 X-29.381 Y6.643999999999998 E5.6584
G1 X-29.644 Y6.381 E5.6744
G1 X-29.879 Y6.091000000000001 E5.6905
G1 X-30.081 Y5.7790000000000035 E5.7066
G1 X-30.25 Y5.447000000000003 E5.7226
G1 X-30.384 Y5.098999999999997 E5.7387
G1 X-30.48 Y4.740000000000002 E5.7547
G1 X-30.539 Y4.372 E5.7708
G1 X-30.559 Y3.9879999999999995 E5.7873
G1 X-30.56 Y-3.9620000000000033 E6.1301
G1 X-30.539 Y-4.372 E6.1477
G1 X-30.48 Y-4.740000000000002 E6.1638
G1 X-30.384 Y-5.100000000000001 E6.1798
G1 X-30.25 Y-5.447000000000003 E6.1959
G1 X-30.081 Y-5.7790000000000035 E6.2119
G1 X-29.879 Y-6.091000000000001 E6.2280
G1 X-29.644 Y-6.381 E6.2441
G1 X-29.381 Y-6.643999999999998 E6.2601
G1 X-29.091 Y-6.878 E6.2761
G1 X-28.779 Y-7.081000000000003 E6.2922
G1 X-28.447 Y-7.25 E6.3083
G1 X-28.682 Y-7.777000000000001 F6000
G92 E0.0000
G1 X-28.278 Y-7.932000000000002 E0.0187 F1350
G1 X-27.86 Y-8.043999999999997 E0.0373
G1 X-27.432 Y-8.112000000000002 E0.0560
G1 X-26.977 Y-8.136000000000003 E0.0756
G1 X26.977000000000004 Y-8.136000000000003 E2.4013
G1 X27.432000000000002 Y-8.112000000000002 E2.4210
G1 X27.86 Y-8.043999999999997 E2.4396
G1 X28.278000000000006 Y-7.932000000000002 E2.4583
G1 X28.682000000000002 Y-7.777000000000001 E2.4769
G1 X29.066999999999993 Y-7.581000000000003 E2.4956
G1 X29.430000000000007 Y-7.344999999999999 E2.5142
G1 X29.766999999999996 Y-7.073 E2.5329
G1 X30.072999999999993 Y-6.767000000000003 E2.5515
G1 X30.345 Y-6.43 E2.5702
G1 X30.581000000000003 Y-6.067 E2.5889
G1 X30.777 Y-5.682000000000002 E2.6075
G1 X30.932000000000002 Y-5.277999999999999 E2.6262
G1 X31.043999999999997 Y-4.859999999999999 E2.6448
G1 X31.111999999999995 Y-4.432000000000002 E2.6635
G1 X31.135999999999996 Y-3.9769999999999968 E2.6831
G1 X31.135999999999996 Y3.9769999999999968 E3.0260
G1 X31.111999999999995 Y4.432000000000002 E3.0456
G1 X31.043999999999997 Y4.859999999999999 E3.0643
G1 X30.932000000000002 Y5.277999999999999 E3.0830
G1 X30.777 Y5.682000000000002 E3.1016
G1 X30.581000000000003 Y6.067 E3.1203
G1 X30.345 Y6.43 E3.1389
G1 X30.072999999999993 Y6.767000000000003 E3.1576
G1 X29.766999999999996 Y7.073 E3.1762
G1 X29.430000000000007 Y7.344999999999999 E3.1949
G1 X29.066999999999993 Y7.581000000000003 E3.2135
G1 X28.682000000000002 Y7.777000000000001 E3.2322
G1 X28.278000000000006 Y7.932000000000002 E3.2509
G1 X27.86 Y8.043999999999997 E3.2695
G1 X27.432000000000002 Y8.112000000000002 E3.2882
G1 X26.977000000000004 Y8.136000000000003 E3.3078
G1 X-26.977 Y8.136000000000003 E5.6335
G1 X-27.432 Y8.112000000000002 E5.6532
G1 X-27.86 Y8.043999999999997 E5.6718
G1 X-28.278 Y7.932000000000002 E5.6905
G1 X-28.682 Y7.777000000000001 E5.7091
G1 X-29.067 Y7.581000000000003 E5.7278
G1 X-29.43 Y7.344999999999999 E5.7464
G1 X-29.767 Y7.073 E5.7651
G1 X-30.073 Y6.767000000000003 E5.7837
G1 X-30.345 Y6.43 E5.8024
G1 X-30.581 Y6.067 E5.8211
G1 X-30.777 Y5.682000000000002 E5.8397
G1 X-30.932 Y5.277999999999999 E5.8584
G1 X-31.044 Y4.859999999999999 E5.8770
G1 X-31.112 Y4.432000000000002 E5.8957
G1 X-31.135 Y4.003 E5.9142
G1 X-31.136 Y-3.9769999999999968 E6.2582
G1 X-31.112 Y-4.432000000000002 E6.2778
G1 X-31.044 Y-4.859999999999999 E6.2965
G1 X-30.932 Y-5.277999999999999 E6.3151
G1 X-30.777 Y-5.682000000000002 E6.3338
G1 X-30.581 Y-6.067 E6.3525
G1 X-30.345 Y-6.43 E6.3711
G1 X-30.073 Y-6.767000000000003 E6.3898
G1 X-29.767 Y-7.073 E6.4084
G1 X-29.43 Y-7.344999999999999 E6.4271
G1 X-29.067 Y-7.581000000000003 E6.4457
G1 X-28.682 Y-7.777000000000001 E6.4644
; feature outer perimeter
G1 X-28.916 Y-8.304000000000002 F6000
G92 E0.0000
G1 X-28.456 Y-8.481000000000002 E0.0213 F900
G1 X-27.98 Y-8.609000000000002 E0.0425
G1 X-27.493 Y-8.686 E0.0638
G1 X-26.992 Y-8.712000000000003 E0.0854
G1 X26.992000000000004 Y-8.712000000000003 E2.4124
G1 X27.492999999999995 Y-8.686 E2.4340
G1 X27.980000000000004 Y-8.609000000000002 E2.4552
G1 X28.456000000000003 Y-8.481000000000002 E2.4765
G1 X28.915999999999997 Y-8.304000000000002 E2.4977
G1 X29.355999999999995 Y-8.079999999999998 E2.5190
G1 X29.769000000000005 Y-7.811999999999998 E2.5403
G1 X30.153000000000006 Y-7.500999999999998 E2.5615
G1 X30.501000000000005 Y-7.152999999999999 E2.5828
G1 X30.811999999999998 Y-6.768999999999998 E2.6040
G1 X31.08 Y-6.356000000000002 E2.6253
G1 X31.304000000000002 Y-5.915999999999997 E2.6466
G1 X31.480999999999995 Y-5.456000000000003 E2.6678
G1 X31.608999999999995 Y-4.979999999999997 E2.6891
G1 X31.686000000000007 Y-4.491999999999997 E2.7103
G1 X31.712000000000003 Y-3.993000000000002 E2.7319
G1 X31.712000000000003 Y3.993000000000002 E3.0761
G1 X31.686000000000007 Y4.491999999999997 E3.0977
G1 X31.608999999999995 Y4.979999999999997 E3.1189
G1 X31.480999999999995 Y5.456000000000003 E3.1402
G1 X31.304000000000002 Y5.915999999999997 E3.1615
G1 X31.08 Y6.356000000000002 E3.1827
G1 X30.811999999999998 Y6.768999999999998 E3.2040
G1 X30.501000000000005 Y7.152999999999999 E3.2252
G1 X30.153000000000006 Y7.500999999999998 E3.2465
G1 X29.769000000000005 Y7.811999999999998 E3.2678
G1 X29.355999999999995 Y8.079999999999998 E3.2890
G1 X28.915999999999997 Y8.304000000000002 E3.3103
G1 X28.456000000000003 Y8.481000000000002 E3.3315
G1 X27.980000000000004 Y8.609000000000002 E3.3528
G1 X27.492000000000004 Y8.686 E3.3740
G1 X26.992000000000004 Y8.712000000000003 E3.3956
G1 X-26.992 Y8.712000000000003 E5.7226
G1 X-27.493 Y8.686 E5.7442
G1 X-27.98 Y8.609000000000002 E5.7655
G1 X-28.456 Y8.481000000000002 E5.7868
G1 X-28.916 Y8.304000000000002 E5.8080
G1 X-29.356 Y8.079999999999998 E5.8293
G1 X-29.769 Y7.811999999999998 E5.8505
G1 X-30.153 Y7.500999999999998 E5.8718
G1 X-30.501 Y7.152999999999999 E5.8930
G1 X-30.812 Y6.768999999999998 E5.9143
G1 X-31.08 Y6.356000000000002 E5.9356
G1 X-31.304 Y5.915999999999997 E5.9568
G1 X-31.481 Y5.456000000000003 E5.9781
G1 X-31.609 Y4.979999999999997 E5.9993
G1 X-31.686 Y4.493000000000002 E6.0206
G1 X-31.711 Y4.018000000000001 E6.0411
G1 X-31.712 Y-3.9919999999999973 E6.3864
G1 X-31.686 Y-4.493000000000002 E6.4080
G1 X-31.609 Y-4.979999999999997 E6.4292
G1 X-31.481 Y-5.456000000000003 E6.4505
G1 X-31.304 Y-5.915999999999997 E6.4717
G1 X-31.08 Y-6.356000000000002 E6.4930
G1 X-30.812 Y-6.768999999999998 E6.5142
G1 X-30.501 Y-7.152999999999999 E6.5355
G1 X-30.153 Y-7.500999999999998 E6.5568
G1 X-29.769 Y-7.811999999999998 E6.5780
G1 X-29.356 Y-8.079999999999998 E6.5993
G1 X-28.916 Y-8.304000000000002 E6.6205
; feature solid layer
G1 X-27.965 Y7.061999999999998 F6000
G92 E0.0000
G1 X-30.062 Y4.965000000000003 E0.1278 F1440
G1 X-30.142 Y4.667999999999999 E0.1411
G1 X-30.194 Y4.3359999999999985 E0.1556
G1 X-30.212 Y4.000999999999998 E0.1701
G1 X-27.001 Y7.212000000000003 E0.3658
G1 X-26.953 Y7.213999999999999 E0.3679
G1 X-26.184 Y7.213999999999999 E0.4010
G1 X-30.213 Y3.1850000000000023 E0.6467
G1 X-30.213 Y2.3699999999999974 E0.6818
G1 X-25.369 Y7.213999999999999 E0.9771
G1 X-24.554 Y7.213999999999999 E1.0122
G1 X-30.213 Y1.5549999999999997 E1.3572
G1 X-30.214 Y0.7409999999999997 E1.3923
G1 X-23.74 Y7.213999999999999 E1.7869
G1 X-22.925 Y7.213999999999999 E1.8220
G1 X-30.214 Y-0.07399999999999807 E2.2663
G1 X-30.214 Y-0.8890000000000029 E2.3015
G1 X-22.111 Y7.213999999999999 E2.7954
G1 X-21.296 Y7.213999999999999 E2.8305
G1 X-30.214 Y-1.703000000000003 E3.3742
G1 X-30.214 Y-2.5180000000000007 E3.4093
G1 X-20.482 Y7.213999999999999 E4.0026
G1 X-19.667 Y7.213999999999999 E4.0377
G1 X-30.214 Y-3.3329999999999984 E4.6807
G1 X-30.214 Y-3.953000000000003 E4.7074
G1 X-30.205 Y-4.137999999999998 E4.7154
G1 X-18.852 Y7.213999999999999 E5.4074
G1 X-18.038 Y7.213999999999999 E5.4425
G1 X-30.095 Y-4.8430000000000035 E6.1775
G1 X-30.055 Y-4.993000000000002 E6.1842
G1 X-29.934 Y-5.305999999999997 E6.1987
G1 X-29.87 Y-5.432000000000002 E6.2048
G1 X-17.223 Y7.213999999999999 E6.9758
G1 X-16.409 Y7.213999999999999 E7.0109
G1 X-29.559 Y-5.936 E7.8125
G1 X-29.387 Y-6.149000000000001 E7.8243
G1 X-29.172 Y-6.363999999999997 E7.8374
G1 X-15.594000000000001 Y7.213999999999999 E8.6652
G1 X-14.779000000000003 Y7.213999999999999 E8.7003
G1 X-28.709 Y-6.715000000000003 E9.5494
G1 X-28.606 Y-6.7819999999999965 E9.5547
G1 X-28.306 Y-6.9339999999999975 E9.5692
G1 X-28.167 Y-6.9879999999999995 E9.5756
G1 X-13.965000000000003 Y7.213999999999999 E10.4414
G1 X-13.149999999999999 Y7.213999999999999 E10.4765
G1 X-27.528 Y-7.1640000000000015 E11.3530
G1 X-27.336 Y-7.194000000000003 E11.3614
G1 X-26.953 Y-7.213999999999999 E11.3779
G1 X-26.764 Y-7.213999999999999 E11.3860
G1 X-12.335999999999999 Y7.213999999999999 E12.2656
G1 X-11.521 Y7.213999999999999 E12.3007
G1 X-25.95 Y-7.213999999999999 E13.1803
G1 X-25.135 Y-7.213999999999999 E13.2154
G1 X-10.707 Y7.213999999999999 E14.0950
G1 X-9.892000000000003 Y7.213999999999999 E14.1301
G1 X-24.321 Y-7.213999999999999 E15.0097
G1 X-23.506 Y-7.213999999999999 E15.0448
G1 X-9.076999999999998 Y7.213999999999999 E15.9244
G1 X-8.262999999999998 Y7.213999999999999 E15.9595
G1 X-22.692 Y-7.213999999999999 E16.8391
G1 X-21.877 Y-7.213999999999999 E16.8742
G1 X-7.448 Y7.213999999999999 E17.7538
G1 X-6.634 Y7.213999999999999 E17.7889
G1 X-21.062 Y-7.213999999999999 E18.6684
G1 X-20.248 Y-7.213999999999999 E18.7036
G1 X-5.819000000000003 Y7.213999999999999 E19.5831
G1 X-5.003999999999998 Y7.213999999999999 E19.6182
G1 X-19.433 Y-7.213999999999999 E20.4978
G1 X-18.619 Y-7.213999999999999 E20.5329
G1 X-4.189999999999998 Y7.213999999999999 E21.4125
G1 X-3.375 Y7.213999999999999 E21.4476
G1 X-17.804000000000002 Y-7.213999999999999 E22.3272
G1 X-16.988999999999997 Y-7.213999999999999 E22.3623
G1 X-2.561 Y7.213999999999999 E23.2419
G1 X-1.7460000000000022 Y7.213999999999999 E23.2770
G1 X-16.174999999999997 Y-7.213999999999999 E24.1566
G1 X-15.36 Y-7.213999999999999 E24.1917
G1 X-0.9309999999999974 Y7.213999999999999 E25.0713
G1 X-0.11699999999999733 Y7.213999999999999 E25.1064
G1 X-14.546 Y-7.213999999999999 E25.9860
G1 X-13.731000000000002 Y-7.213999999999999 E26.0211
G1 X0.6980000000000004 Y7.213999999999999 E26.9007
G1 X1.5120000000000005 Y7.213999999999999 E26.9358
G1 X-12.915999999999997 Y-7.213999999999999 E27.8153
G1 X-12.101999999999997 Y-7.213999999999999 E27.8505
G1 X2.326999999999998 Y7.213999999999999 E28.7300
G1 X3.1409999999999982 Y7.213999999999999 E28.7651
G1 X-11.286999999999999 Y-7.213999999999999 E29.6447
G1 X-10.472999999999999 Y-7.213999999999999 E29.6798
G1 X3.956000000000003 Y7.213999999999999 E30.5594
G1 X4.771000000000001 Y7.213999999999999 E30.5945
G1 X-9.658000000000001 Y-7.213999999999999 E31.4741
G1 X-8.844000000000001 Y-7.213999999999999 E31.5092
G1 X5.585000000000001 Y7.213999999999999 E32.3888
G1 X6.399999999999999 Y7.213999999999999 E32.4239
G1 X-8.029000000000003 Y-7.213999999999999 E33.3035
G1 X-7.213999999999999 Y-7.213999999999999 E33.3386
G1 X7.213999999999999 Y7.213999999999999 E34.2182
G1 X8.029000000000003 Y7.213999999999999 E34.2533
G1 X-6.399999999999999 Y-7.213999999999999 E35.1329
G1 X-5.585000000000001 Y-7.213999999999999 E35.1680
G1 X8.844000000000001 Y7.213999999999999 E36.0476
G1 X9.658000000000001 Y7.213999999999999 E36.0827
G1 X-4.771000000000001 Y-7.213999999999999 E36.9622
G1 X-3.956000000000003 Y-7.213999999999999 E36.9974
G1 X10.472999999999999 Y7.213999999999999 E37.8769
G1 X11.286999999999999 Y7.213999999999999 E37.9120
G1 X-3.1409999999999982 Y-7.213999999999999 E38.7916
G1 X-2.326999999999998 Y-7.213999999999999 E38.8267
G1 X12.101999999999997 Y7.213999999999999 E39.7063
G1 X12.917000000000002 Y7.213999999999999 E39.7414
G1 X-1.5120000000000005 Y-7.213999999999999 E40.6210
G1 X-0.6980000000000004 Y-7.213999999999999 E40.6561
G1 X13.731000000000002 Y7.213999999999999 E41.5357
G1 X14.546000000000006 Y7.213999999999999 E41.5708
G1 X0.11699999999999733 Y-7.213999999999999 E42.4504
G1 X0.9309999999999974 Y-7.213999999999999 E42.4855
G1 X15.36 Y7.213999999999999 E43.3651
G1 X16.174999999999997 Y7.213999999999999 E43.4002
G1 X1.7460000000000022 Y-7.213999999999999 E44.2798
G1 X2.561 Y-7.213999999999999 E44.3149
G1 X16.989000000000004 Y7.213999999999999 E45.1945
G1 X17.804000000000002 Y7.213999999999999 E45.2296
G1 X3.375 Y-7.213999999999999 E46.1091
G1 X4.189999999999998 Y-7.213999999999999 E46.1443
G1 X18.619 Y7.213999999999999 E47.0238
G1 X19.433000000000007 Y7.213999999999999 E47.0589
G1 X5.003999999999998 Y-7.213999999999999 E47.9385
G1 X5.819000000000003 Y-7.213999999999999 E47.9736
G1 X20.248000000000005 Y7.213999999999999 E48.8532
G1 X21.061999999999998 Y7.213999999999999 E48.8883
G1 X6.634 Y-7.213999999999999 E49.7679
G1 X7.448 Y-7.213999999999999 E49.8030
G1 X21.876999999999995 Y7.213999999999999 E50.6826
G1 X22.691999999999993 Y7.213999999999999 E50.7177
G1 X8.262999999999998 Y-7.213999999999999 E51.5973
G1 X9.076999999999998 Y-7.213999999999999 E51.6324
G1 X23.506 Y7.213999999999999 E52.5120
G1 X24.320999999999998 Y7.213999999999999 E52.5471
G1 X9.892000000000003 Y-7.213999999999999 E53.4267
G1 X10.707 Y-7.213999999999999 E53.4618
G1 X25.135000000000005 Y7.213999999999999 E54.3414
G1 X25.950000000000003 Y7.213999999999999 E54.3765
G1 X11.521 Y-7.213999999999999 E55.2560
G1 X12.335999999999999 Y-7.213999999999999 E55.2912
G1 X26.763999999999996 Y7.213999999999999 E56.1707
G1 X26.953000000000003 Y7.213999999999999 E56.1789
G1 X27.336 Y7.194000000000003 E56.1954
G1 X27.528999999999996 Y7.1640000000000015 E56.2038
G1 X13.149999999999999 Y-7.213999999999999 E57.0803
G1 X13.965000000000003 Y-7.213999999999999 E57.1154
G1 X28.167 Y6.9879999999999995 E57.9812
G1 X28.305999999999997 Y6.9339999999999975 E57.9876
G1 X28.605999999999995 Y6.7819999999999965 E58.0021
G1 X28.709000000000003 Y6.715000000000003 E58.0074
G1 X14.778999999999996 Y-7.213999999999999 E58.8565
G1 X15.593999999999994 Y-7.213999999999999 E58.8916
G1 X29.171999999999997 Y6.363999999999997 E59.7193
G1 X29.387 Y6.149000000000001 E59.7324
G1 X29.558999999999997 Y5.936 E59.7442
G1 X16.409000000000006 Y-7.213999999999999 E60.5459
G1 X17.223 Y-7.213999999999999 E60.5810
G1 X29.870000000000005 Y5.432000000000002 E61.3520
G1 X29.933999999999997 Y5.305999999999997 E61.3581
G1 X30.055000000000007 Y4.991999999999997 E61.3726
G1 X30.095 Y4.8430000000000035 E61.3792
G1 X18.037999999999997 Y-7.213999999999999 E62.1142
G1 X18.852000000000004 Y-7.213999999999999 E62.1493
G1 X30.205 Y4.137999999999998 E62.8414
G1 X30.214 Y3.953000000000003 E62.8493
G1 X30.214 Y3.3329999999999984 E62.8761
G1 X19.667 Y-7.213999999999999 E63.5191
G1 X20.482 Y-7.213999999999999 E63.5542
G1 X30.214 Y2.5180000000000007 E64.1475
G1 X30.214 Y1.7040000000000006 E64.1826
G1 X21.296000000000006 Y-7.213999999999999 E64.7262
G1 X22.111000000000004 Y-7.213999999999999 E64.7614
G1 X30.214 Y0.8890000000000029 E65.2554
G1 X30.214 Y0.07500000000000284 E65.2905
G1 X22.924999999999997 Y-7.213999999999999 E65.7348
G1 X23.739999999999995 Y-7.213999999999999 E65.7699
G1 X30.214 Y-0.740000000000002 E66.1646
G1 X30.214 Y-1.5549999999999997 E66.1997
G1 X24.555000000000007 Y-7.213999999999999 E66.5447
G1 X25.369 Y-7.213999999999999 E66.5799
G1 X30.214 Y-2.3689999999999998 E66.8752
G1 X30.214 Y-3.1839999999999975 E66.9103
G1 X26.183999999999997 Y-7.213999999999999 E67.1561
G1 X26.953000000000003 Y-7.213999999999999 E67.1892
G1 X27.001000000000005 Y-7.212000000000003 E67.1913
G1 X30.212000000000003 Y-4.000999999999998 E67.3870
G1 X30.194000000000003 Y-4.3359999999999985 E67.4015
G1 X30.141999999999996 Y-4.667999999999999 E67.4160
G1 X30.061999999999998 Y-4.965000000000003 E67.4293
G1 X27.965000000000003 Y-7.061999999999998 E67.5571
G92 E0.0000
G1 E-3 F2700 ; custom retraction - A
; layer 2, Z = 0.400
M106 S255 ; custom fan 100% from layer 2
; feature inner perimeter
; tool H0.200 W0.480
;zhopupA
G1 X28.174000000000007 Y-7.612000000000002 F6000
G1 Z0.400 F1200
G1 E0 F2400 ; custom un-retraction/prime - A
G92 E0.0000
G1 X28.545 Y-7.469999999999999 E0.0143 F2700
G1 X28.899 Y-7.2890000000000015 E0.0286
G1 X29.233000000000004 Y-7.073 E0.0428
G1 X29.542 Y-6.823 E0.0571
G1 X29.822999999999993 Y-6.542000000000002 E0.0714
G1 X30.072999999999993 Y-6.232999999999997 E0.0857
G1 X30.289 Y-5.899000000000001 E0.1000
G1 X30.47 Y-5.545000000000002 E0.1143
G1 X30.611999999999995 Y-5.1739999999999995 E0.1285
G1 X30.715000000000003 Y-4.789999999999999 E0.1428
G1 X30.778000000000006 Y-4.3969999999999985 E0.1571
G1 X30.799999999999997 Y-3.969000000000001 E0.1725
G1 X30.799999999999997 Y3.969000000000001 E0.4576
G1 X30.778000000000006 Y4.3969999999999985 E0.4730
G1 X30.715000000000003 Y4.789999999999999 E0.4873
G1 X30.611999999999995 Y5.1739999999999995 E0.5016
G1 X30.47 Y5.545000000000002 E0.5159
G1 X30.289 Y5.899000000000001 E0.5302
G1 X30.072999999999993 Y6.232999999999997 E0.5444
G1 X29.822999999999993 Y6.540999999999997 E0.5587
G1 X29.540999999999997 Y6.823 E0.5730
G1 X29.233000000000004 Y7.073 E0.5873
G1 X28.899 Y7.2890000000000015 E0.6016
G1 X28.545 Y7.469999999999999 E0.6158
G1 X28.174000000000007 Y7.612000000000002 E0.6301
G1 X27.790000000000006 Y7.715000000000003 E0.6444
G1 X27.397000000000006 Y7.777999999999999 E0.6587
G1 X26.968999999999994 Y7.799999999999997 E0.6741
G1 X-26.969 Y7.799999999999997 E2.6116
G1 X-27.397 Y7.777999999999999 E2.6270
G1 X-27.79 Y7.715000000000003 E2.6413
G1 X-28.174 Y7.612000000000002 E2.6555
G1 X-28.545 Y7.469999999999999 E2.6698
G1 X-28.899 Y7.2890000000000015 E2.6841
G1 X-29.233 Y7.073 E2.6984
G1 X-29.541 Y6.823 E2.7127
G1 X-29.823 Y6.540999999999997 E2.7270
G1 X-30.073 Y6.232999999999997 E2.7412
G1 X-30.289 Y5.899000000000001 E2.7555
G1 X-30.47 Y5.545000000000002 E2.7698
G1 X-30.612 Y5.1739999999999995 E2.7841
G1 X-30.715 Y4.789999999999999 E2.7984
G1 X-30.778 Y4.3969999999999985 E2.8126
G1 X-30.796 Y4.046999999999997 E2.8252
G1 X-30.8 Y-3.969000000000001 E3.1132
G1 X-30.778 Y-4.3969999999999985 E3.1286
G1 X-30.715 Y-4.789999999999999 E3.1429
G1 X-30.612 Y-5.1739999999999995 E3.1571
G1 X-30.47 Y-5.545000000000002 E3.1714
G1 X-30.289 Y-5.899000000000001 E3.1857
G1 X-30.073 Y-6.232999999999997 E3.2000
G1 X-29.823 Y-6.542000000000002 E3.2143
G1 X-29.542 Y-6.823 E3.2285
G1 X-29.233 Y-7.073 E3.2428
G1 X-28.899 Y-7.2890000000000015 E3.2571
G1 X-28.545 Y-7.469999999999999 E3.2714
G1 X-28.174 Y-7.612000000000002 E3.2857
G1 X-27.79 Y-7.715000000000003 E3.3000
G1 X-27.397 Y-7.777999999999999 E3.3142
G1 X-26.969 Y-7.799999999999997 E3.3296
G1 X26.968999999999994 Y-7.799999999999997 E5.2671
G1 X27.397000000000006 Y-7.777999999999999 E5.2825
G1 X27.790000000000006 Y-7.715000000000003 E5.2968
G1 X28.174000000000007 Y-7.612000000000002 E5.3111
G1 X28.322000000000003 Y-8.07 F6000
G92 E0.0000
G1 X28.739999999999995 Y-7.908999999999999 E0.0161 F2700
G1 X29.138999999999996 Y-7.706000000000003 E0.0322
G1 X29.515 Y-7.462000000000003 E0.0483
G1 X29.863 Y-7.18 E0.0644
G1 X30.180000000000007 Y-6.8629999999999995 E0.0804
G1 X30.462000000000003 Y-6.515000000000001 E0.0965
G1 X30.706000000000003 Y-6.139000000000003 E0.1126
G1 X30.909000000000006 Y-5.740000000000002 E0.1287
G1 X31.069999999999993 Y-5.322000000000003 E0.1448
G1 X31.185000000000002 Y-4.890000000000001 E0.1609
G1 X31.256 Y-4.447000000000003 E0.1770
G1 X31.28 Y-3.9810000000000016 E0.1937
G1 X31.28 Y3.9810000000000016 E0.4798
G1 X31.256 Y4.447000000000003 E0.4965
G1 X31.185000000000002 Y4.890000000000001 E0.5126
G1 X31.069999999999993 Y5.322000000000003 E0.5287
G1 X30.909000000000006 Y5.740000000000002 E0.5448
G1 X30.706000000000003 Y6.140000000000001 E0.5609
G1 X30.462000000000003 Y6.515000000000001 E0.5770
G1 X30.180000000000007 Y6.8629999999999995 E0.5930
G1 X29.863 Y7.18 E0.6091
G1 X29.515 Y7.462000000000003 E0.6252
G1 X29.14 Y7.706000000000003 E0.6413
G1 X28.739999999999995 Y7.908999999999999 E0.6574
G1 X28.322000000000003 Y8.07 E0.6735
G1 X27.89 Y8.186 E0.6896
G1 X27.447000000000003 Y8.256 E0.7057
G1 X26.980999999999995 Y8.280000000000001 E0.7224
G1 X-26.981 Y8.280000000000001 E2.6608
G1 X-27.447 Y8.256 E2.6776
G1 X-27.89 Y8.185000000000002 E2.6937
G1 X-28.322 Y8.07 E2.7098
G1 X-28.74 Y7.908999999999999 E2.7258
G1 X-29.14 Y7.706000000000003 E2.7419
G1 X-29.515 Y7.462000000000003 E2.7580
G1 X-29.863 Y7.18 E2.7741
G1 X-30.18 Y6.8629999999999995 E2.7902
G1 X-30.462 Y6.515000000000001 E2.8063
G1 X-30.706 Y6.139000000000003 E2.8224
G1 X-30.909 Y5.740000000000002 E2.8385
G1 X-31.07 Y5.322000000000003 E2.8546
G1 X-31.186 Y4.890000000000001 E2.8706
G1 X-31.256 Y4.447000000000003 E2.8867
G1 X-31.276 Y4.0589999999999975 E2.9007
G1 X-31.28 Y-3.9810000000000016 E3.1895
G1 X-31.256 Y-4.447000000000003 E3.2063
G1 X-31.186 Y-4.890000000000001 E3.2224
G1 X-31.07 Y-5.322000000000003 E3.2385
G1 X-30.909 Y-5.740000000000002 E3.2545
G1 X-30.706 Y-6.139000000000003 E3.2706
G1 X-30.462 Y-6.515000000000001 E3.2867
G1 X-30.18 Y-6.8629999999999995 E3.3028
G1 X-29.863 Y-7.18 E3.3189
G1 X-29.515 Y-7.462000000000003 E3.3350
G1 X-29.139 Y-7.706000000000003 E3.3511
G1 X-28.74 Y-7.908999999999999 E3.3672
G1 X-28.322 Y-8.07 E3.3833
G1 X-27.89 Y-8.186 E3.3993
G1 X-27.447 Y-8.256 E3.4154
G1 X-26.981 Y-8.280000000000001 E3.4322
G1 X26.980999999999995 Y-8.280000000000001 E5.3706
G1 X27.447000000000003 Y-8.256 E5.3873
G1 X27.89 Y-8.185000000000002 E5.4034
G1 X28.322000000000003 Y-8.07 E5.4195
; feature outer perimeter
G1 X28.471000000000004 Y-8.527000000000001 F6000
G92 E0.0000
G1 X28.936000000000007 Y-8.347999999999999 E0.0179 F1800
G1 X29.379999999999995 Y-8.122 E0.0358
G1 X29.798000000000002 Y-7.850999999999999 E0.0537
G1 X30.185000000000002 Y-7.536999999999999 E0.0716
G1 X30.537000000000006 Y-7.185000000000002 E0.0895
G1 X30.851 Y-6.798000000000002 E0.1074
G1 X31.122 Y-6.380000000000003 E0.1253
G1 X31.348 Y-5.936 E0.1432
G1 X31.527 Y-5.4709999999999965 E0.1611
G1 X31.656000000000006 Y-4.990000000000002 E0.1790
G1 X31.733999999999995 Y-4.4979999999999976 E0.1969
G1 X31.760000000000005 Y-3.9939999999999998 E0.2150
G1 X31.760000000000005 Y3.9939999999999998 E0.5019
G1 X31.733999999999995 Y4.4979999999999976 E0.5200
G1 X31.656000000000006 Y4.990000000000002 E0.5379
G1 X31.527 Y5.4709999999999965 E0.5558
G1 X31.348 Y5.936 E0.5737
G1 X31.122 Y6.380000000000003 E0.5916
G1 X30.851 Y6.798000000000002 E0.6095
G1 X30.537000000000006 Y7.185000000000002 E0.6274
G1 X30.185000000000002 Y7.536999999999999 E0.6453
G1 X29.798000000000002 Y7.850999999999999 E0.6632
G1 X29.379999999999995 Y8.122 E0.6811
G1 X28.936000000000007 Y8.347999999999999 E0.6990
G1 X28.471000000000004 Y8.527000000000001 E0.7169
G1 X27.989999999999995 Y8.655999999999999 E0.7348
G1 X27.497 Y8.734000000000002 E0.7527
G1 X26.994 Y8.759999999999998 E0.7708
G1 X-26.994 Y8.759999999999998 E2.7101
G1 X-27.497 Y8.734000000000002 E2.7282
G1 X-27.99 Y8.655999999999999 E2.7461
G1 X-28.471 Y8.527000000000001 E2.7640
G1 X-28.936 Y8.347999999999999 E2.7819
G1 X-29.38 Y8.122 E2.7998
G1 X-29.798 Y7.850999999999999 E2.8177
G1 X-30.185 Y7.536999999999999 E2.8356
G1 X-30.537 Y7.185000000000002 E2.8535
G1 X-30.851 Y6.798000000000002 E2.8714
G1 X-31.122 Y6.380000000000003 E2.8892
G1 X-31.348 Y5.936 E2.9071
G1 X-31.527 Y5.4709999999999965 E2.9250
G1 X-31.656 Y4.990000000000002 E2.9429
G1 X-31.734 Y4.4979999999999976 E2.9608
G1 X-31.756 Y4.072000000000003 E2.9761
G1 X-31.76 Y-3.9939999999999998 E3.2659
G1 X-31.734 Y-4.4979999999999976 E3.2840
G1 X-31.656 Y-4.990000000000002 E3.3019
G1 X-31.527 Y-5.4709999999999965 E3.3198
G1 X-31.348 Y-5.936 E3.3377
G1 X-31.122 Y-6.380000000000003 E3.3556
G1 X-30.851 Y-6.798000000000002 E3.3735
G1 X-30.537 Y-7.185000000000002 E3.3914
G1 X-30.185 Y-7.536999999999999 E3.4093
G1 X-29.798 Y-7.850999999999999 E3.4272
G1 X-29.38 Y-8.122 E3.4451
G1 X-28.936 Y-8.347999999999999 E3.4629
G1 X-28.471 Y-8.527000000000001 E3.4808
G1 X-27.99 Y-8.655999999999999 E3.4987
G1 X-27.498 Y-8.734000000000002 E3.5166
G1 X-26.994 Y-8.759999999999998 E3.5348
G1 X26.994 Y-8.759999999999998 E5.4740
G1 X27.497 Y-8.734000000000002 E5.4922
G1 X27.989999999999995 Y-8.655999999999999 E5.5101
G1 X28.471000000000004 Y-8.527000000000001 E5.5280
; feature solid layer
G1 X30.384 Y4.914999999999999 F6000
G92 E0.0000
G1 X27.915000000000006 Y7.384 E0.1254 F2880
G1 X27.730000000000004 Y7.433 E0.1323
G1 X27.367000000000004 Y7.491 E0.1455
G1 X27.116 Y7.503999999999998 E0.1545
G1 X30.504000000000005 Y4.116 E0.3266
G1 X30.512 Y3.9609999999999985 E0.3322
G1 X30.512 Y3.429000000000002 E0.3513
G1 X26.429000000000002 Y7.5120000000000005 E0.5587
G1 X25.75 Y7.5120000000000005 E0.5831
G1 X30.512 Y2.75 E0.8250
G1 X30.512 Y2.0720000000000027 E0.8494
G1 X25.072000000000003 Y7.5120000000000005 E1.1257
G1 X24.393 Y7.5120000000000005 E1.1501
G1 X30.512 Y1.3930000000000007 E1.4610
G1 X30.512 Y0.7139999999999986 E1.4854
G1 X23.714 Y7.5120000000000005 E1.8307
G1 X23.034999999999997 Y7.5120000000000005 E1.8551
G1 X30.512 Y0.03499999999999659 E2.2349
G1 X30.512 Y-0.6439999999999984 E2.2593
G1 X22.355999999999995 Y7.5120000000000005 E2.6736
G1 X21.677000000000007 Y7.5120000000000005 E2.6980
G1 X30.512 Y-1.3230000000000004 E3.1468
G1 X30.512 Y-2.0009999999999977 E3.1712
G1 X20.998999999999995 Y7.5120000000000005 E3.6545
G1 X20.319999999999993 Y7.5120000000000005 E3.6788
G1 X30.512 Y-2.6799999999999997 E4.1966
G1 X30.512 Y-3.3590000000000018 E4.2210
G1 X19.641000000000005 Y7.5120000000000005 E4.7732
G1 X18.962000000000003 Y7.5120000000000005 E4.7976
G1 X30.507999999999996 Y-4.033999999999999 E5.3842
G1 X30.491 Y-4.366999999999997 E5.3961
G1 X30.445999999999998 Y-4.649999999999999 E5.4064
G1 X18.283 Y7.5120000000000005 E6.0243
G1 X17.604 Y7.5120000000000005 E6.0487
G1 X30.299999999999997 Y-5.1839999999999975 E6.6936
G1 X30.206999999999994 Y-5.427999999999997 E6.7030
G1 X30.090999999999994 Y-5.6540000000000035 E6.7121
G1 X16.926000000000002 Y7.5120000000000005 E7.3809
G1 X16.247 Y7.5120000000000005 E7.4053
G1 X29.831999999999994 Y-6.073 E8.0954
G1 X29.608000000000004 Y-6.348999999999997 E8.1082
G1 X29.519000000000005 Y-6.439 E8.1127
G1 X15.567999999999998 Y7.5120000000000005 E8.8214
G1 X14.888999999999996 Y7.5120000000000005 E8.8458
G1 X29.161 Y-6.759999999999998 E9.5708
G1 X29.063000000000002 Y-6.840000000000003 E9.5754
G1 X28.759 Y-7.036999999999999 E9.5884
G1 X14.209999999999994 Y7.5120000000000005 E10.3275
G1 X13.531999999999996 Y7.5120000000000005 E10.3518
G1 X28.299000000000007 Y-7.256 E11.1020
G1 X28.084999999999994 Y-7.338000000000001 E11.1103
G1 X27.784000000000006 Y-7.418999999999997 E11.1215
G1 X12.853000000000002 Y7.5120000000000005 E11.8800
G1 X12.174 Y7.5120000000000005 E11.9044
G1 X27.186000000000007 Y-7.5 E12.6670
G1 X26.961 Y-7.5120000000000005 E12.6751
G1 X26.519000000000005 Y-7.5120000000000005 E12.6910
G1 X11.494999999999997 Y7.5120000000000005 E13.4542
G1 X10.816000000000003 Y7.5120000000000005 E13.4786
G1 X25.840000000000003 Y-7.5120000000000005 E14.2418
G1 X25.161 Y-7.5120000000000005 E14.2662
G1 X10.137 Y7.5120000000000005 E15.0294
G1 X9.459000000000003 Y7.5120000000000005 E15.0538
G1 X24.483000000000004 Y-7.5120000000000005 E15.8170
G1 X23.804000000000002 Y-7.5120000000000005 E15.8414
G1 X8.780000000000001 Y7.5120000000000005 E16.6046
G1 X8.100999999999999 Y7.5120000000000005 E16.6290
G1 X23.125 Y-7.5120000000000005 E17.3922
G1 X22.445999999999998 Y-7.5120000000000005 E17.4166
G1 X7.421999999999997 Y7.5120000000000005 E18.1798
G1 X6.743000000000002 Y7.5120000000000005 E18.2042
G1 X21.766999999999996 Y-7.5120000000000005 E18.9674
G1 X21.087999999999994 Y-7.5120000000000005 E18.9918
G1 X6.064 Y7.5120000000000005 E19.7550
G1 X5.386000000000003 Y7.5120000000000005 E19.7794
G1 X20.409999999999997 Y-7.5120000000000005 E20.5426
G1 X19.730999999999995 Y-7.5120000000000005 E20.5670
G1 X4.707000000000001 Y7.5120000000000005 E21.3302
G1 X4.027999999999999 Y7.5120000000000005 E21.3546
G1 X19.052000000000007 Y-7.5120000000000005 E22.1178
G1 X18.373000000000005 Y-7.5120000000000005 E22.1422
G1 X3.3489999999999966 Y7.5120000000000005 E22.9054
G1 X2.6700000000000017 Y7.5120000000000005 E22.9298
G1 X17.694000000000003 Y-7.5120000000000005 E23.6930
G1 X17.016000000000005 Y-7.5120000000000005 E23.7174
G1 X1.9919999999999973 Y7.5120000000000005 E24.4806
G1 X1.3130000000000024 Y7.5120000000000005 E24.5050
G1 X16.337000000000003 Y-7.5120000000000005 E25.2682
G1 X15.658000000000001 Y-7.5120000000000005 E25.2926
G1 X0.6340000000000003 Y7.5120000000000005 E26.0558
G1 X-0.045000000000001705 Y7.5120000000000005 E26.0802
G1 X14.979 Y-7.5120000000000005 E26.8434
G1 X14.299999999999997 Y-7.5120000000000005 E26.8678
G1 X-0.7239999999999966 Y7.5120000000000005 E27.6310
G1 X-1.4029999999999987 Y7.5120000000000005 E27.6554
G1 X13.621000000000002 Y-7.5120000000000005 E28.4186
G1 X12.942999999999998 Y-7.5120000000000005 E28.4430
G1 X-2.081000000000003 Y7.5120000000000005 E29.2062
G1 X-2.759999999999998 Y7.5120000000000005 E29.2306
G1 X12.264000000000003 Y-7.5120000000000005 E29.9938
G1 X11.585 Y-7.5120000000000005 E30.0182
G1 X-3.439 Y7.5120000000000005 E30.7814
G1 X-4.118000000000002 Y7.5120000000000005 E30.8058
G1 X10.905999999999999 Y-7.5120000000000005 E31.5690
G1 X10.226999999999997 Y-7.5120000000000005 E31.5934
G1 X-4.796999999999997 Y7.5120000000000005 E32.3566
G1 X-5.475000000000001 Y7.5120000000000005 E32.3810
G1 X9.549 Y-7.5120000000000005 E33.1442
G1 X8.869999999999997 Y-7.5120000000000005 E33.1686
G1 X-6.1540000000000035 Y7.5120000000000005 E33.9318
G1 X-6.832999999999998 Y7.5120000000000005 E33.9562
G1 X8.191000000000003 Y-7.5120000000000005 E34.7194
G1 X7.5120000000000005 Y-7.5120000000000005 E34.7438
G1 X-7.5120000000000005 Y7.5120000000000005 E35.5070
G1 X-8.191000000000003 Y7.5120000000000005 E35.5314
G1 X6.832999999999998 Y-7.5120000000000005 E36.2946
G1 X6.1540000000000035 Y-7.5120000000000005 E36.3190
G1 X-8.869999999999997 Y7.5120000000000005 E37.0822
G1 X-9.548000000000002 Y7.5120000000000005 E37.1066
G1 X5.475999999999999 Y-7.5120000000000005 E37.8698
G1 X4.796999999999997 Y-7.5120000000000005 E37.8942
G1 X-10.226999999999997 Y7.5120000000000005 E38.6574
G1 X-10.905999999999999 Y7.5120000000000005 E38.6818
G1 X4.118000000000002 Y-7.5120000000000005 E39.4450
G1 X3.439 Y-7.5120000000000005 E39.4694
G1 X-11.585 Y7.5120000000000005 E40.2326
G1 X-12.264000000000003 Y7.5120000000000005 E40.2570
G1 X2.759999999999998 Y-7.5120000000000005 E41.0202
G1 X2.081000000000003 Y-7.5120000000000005 E41.0446
G1 X-12.942999999999998 Y7.5120000000000005 E41.8078
G1 X-13.621000000000002 Y7.5120000000000005 E41.8322
G1 X1.4029999999999987 Y-7.5120000000000005 E42.5954
G1 X0.7239999999999966 Y-7.5120000000000005 E42.6198
G1 X-14.299999999999997 Y7.5120000000000005 E43.3830
G1 X-14.979 Y7.5120000000000005 E43.4074
G1 X0.045000000000001705 Y-7.5120000000000005 E44.1706
G1 X-0.6340000000000003 Y-7.5120000000000005 E44.1950
G1 X-15.658000000000001 Y7.5120000000000005 E44.9582
G1 X-16.337000000000003 Y7.5120000000000005 E44.9826
G1 X-1.3130000000000024 Y-7.5120000000000005 E45.7458
G1 X-1.9909999999999997 Y-7.5120000000000005 E45.7702
G1 X-17.015 Y7.5120000000000005 E46.5334
G1 X-17.694000000000003 Y7.5120000000000005 E46.5578
G1 X-2.6700000000000017 Y-7.5120000000000005 E47.3210
G1 X-3.3489999999999966 Y-7.5120000000000005 E47.3454
G1 X-18.373 Y7.5120000000000005 E48.1086
G1 X-19.052 Y7.5120000000000005 E48.1330
G1 X-4.027999999999999 Y-7.5120000000000005 E48.8962
G1 X-4.707000000000001 Y-7.5120000000000005 E48.9206
G1 X-19.731 Y7.5120000000000005 E49.6838
G1 X-20.41 Y7.5120000000000005 E49.7082
G1 X-5.386000000000003 Y-7.5120000000000005 E50.4714
G1 X-6.064 Y-7.5120000000000005 E50.4958
G1 X-21.088 Y7.5120000000000005 E51.2590
G1 X-21.767 Y7.5120000000000005 E51.2834
G1 X-6.743000000000002 Y-7.5120000000000005 E52.0466
G1 X-7.421999999999997 Y-7.5120000000000005 E52.0710
G1 X-22.446 Y7.5120000000000005 E52.8342
G1 X-23.125 Y7.5120000000000005 E52.8586
G1 X-8.100999999999999 Y-7.5120000000000005 E53.6218
G1 X-8.780000000000001 Y-7.5120000000000005 E53.6462
G1 X-23.804 Y7.5120000000000005 E54.4094
G1 X-24.483 Y7.5120000000000005 E54.4338
G1 X-9.459000000000003 Y-7.5120000000000005 E55.1970
G1 X-10.137 Y-7.5120000000000005 E55.2214
G1 X-25.161 Y7.5120000000000005 E55.9846
G1 X-25.84 Y7.5120000000000005 E56.0090
G1 X-10.816000000000003 Y-7.5120000000000005 E56.7722
G1 X-11.494999999999997 Y-7.5120000000000005 E56.7966
G1 X-26.519 Y7.5120000000000005 E57.5598
G1 X-26.961 Y7.5120000000000005 E57.5757
G1 X-27.186 Y7.5 E57.5838
G1 X-12.174 Y-7.5120000000000005 E58.3464
G1 X-12.853000000000002 Y-7.5120000000000005 E58.3708
G1 X-27.784 Y7.418999999999997 E59.1293
G1 X-28.085 Y7.338000000000001 E59.1405
G1 X-28.299 Y7.256 E59.1487
G1 X-13.530999999999999 Y-7.5120000000000005 E59.8989
G1 X-14.21 Y-7.5120000000000005 E59.9233
G1 X-28.759 Y7.036999999999999 E60.6624
G1 X-29.063 Y6.840000000000003 E60.6754
G1 X-29.161 Y6.759999999999998 E60.6800
G1 X-14.889000000000003 Y-7.5120000000000005 E61.4050
G1 X-15.567999999999998 Y-7.5120000000000005 E61.4294
G1 X-29.518 Y6.439 E62.1381
G1 X-29.608 Y6.348999999999997 E62.1426
G1 X-29.832 Y6.073 E62.1554
G1 X-16.247 Y-7.5120000000000005 E62.8455
G1 X-16.926000000000002 Y-7.5120000000000005 E62.8699
G1 X-30.091 Y5.6540000000000035 E63.5387
G1 X-30.207 Y5.427999999999997 E63.5478
G1 X-30.3 Y5.1839999999999975 E63.5572
G1 X-17.604 Y-7.5120000000000005 E64.2021
G1 X-18.283 Y-7.5120000000000005 E64.2265
G1 X-30.446 Y4.651000000000003 E64.8444
G1 X-30.491 Y4.366999999999997 E64.8547
G1 X-30.508 Y4.0390000000000015 E64.8665
G1 X-30.508 Y4.033999999999999 E64.8667
G1 X-18.962 Y-7.5120000000000005 E65.4532
G1 X-19.641 Y-7.5120000000000005 E65.4776
G1 X-30.508 Y3.354999999999997 E66.0296
G1 X-30.509 Y2.6769999999999996 E66.0540
G1 X-20.32 Y-7.5120000000000005 E66.5716
G1 X-20.999 Y-7.5120000000000005 E66.5960
G1 X-30.509 Y1.9979999999999976 E67.0791
G1 X-30.509 Y1.3200000000000003 E67.1035
G1 X-21.677 Y-7.5120000000000005 E67.5522
G1 X-22.356 Y-7.5120000000000005 E67.5765
G1 X-30.51 Y0.6409999999999982 E67.9907
G1 X-30.51 Y-0.036999999999999034 E68.0151
G1 X-23.035 Y-7.5120000000000005 E68.3948
G1 X-23.714 Y-7.5120000000000005 E68.4192
G1 X-30.51 Y-0.7150000000000034 E68.7645
G1 X-30.511 Y-1.3939999999999984 E68.7889
G1 X-24.393 Y-7.5120000000000005 E69.0997
G1 X-25.071 Y-7.5120000000000005 E69.1240
G1 X-30.511 Y-2.0720000000000027 E69.4004
G1 X-30.511 Y-2.7509999999999977 E69.4247
G1 X-25.75 Y-7.5120000000000005 E69.6666
G1 X-26.429 Y-7.5120000000000005 E69.6910
G1 X-30.512 Y-3.429000000000002 E69.8984
G1 X-30.512 Y-3.9609999999999985 E69.9175
G1 X-30.504 Y-4.116 E69.9231
G1 X-27.116 Y-7.503999999999998 E70.0952
G1 X-27.367 Y-7.491 E70.1042
G1 X-27.73 Y-7.433 E70.1174
G1 X-27.915 Y-7.384 E70.1243
G1 X-30.384 Y-4.914999999999999 E70.2497
G92 E0.0000
G1 E-3 F2700 ; custom retraction - A
; layer 3, Z = 0.600
;fan3
; feature inner perimeter
;zhopupA
G1 X-30.612 Y-5.1739999999999995 F6000
G1 Z0.600 F1200
G1 E0 F2400 ; custom un-retraction/prime - A
G92 E0.0000
G1 X-30.47 Y-5.545000000000002 E0.0143 F2700
G1 X-30.289 Y-5.899000000000001 E0.0286
G1 X-30.073 Y-6.232999999999997 E0.0428
G1 X-29.823 Y-6.542000000000002 E0.0571
G1 X-29.542 Y-6.823 E0.0714
G1 X-29.233 Y-7.073 E0.0857
G1 X-28.899 Y-7.2890000000000015 E0.1000
G1 X-28.545 Y-7.469999999999999 E0.1143
G1 X-28.174 Y-7.612000000000002 E0.1285
G1 X-27.79 Y-7.715000000000003 E0.1428
G1 X-27.397 Y-7.777999999999999 E0.1571
G1 X-26.969 Y-7.799999999999997 E0.1725
G1 X26.968999999999994 Y-7.799999999999997 E2.1100
G1 X27.397000000000006 Y-7.777999999999999 E2.1254
G1 X27.790000000000006 Y-7.715000000000003 E2.1397
G1 X28.174000000000007 Y-7.612000000000002 E2.1540
G1 X28.545 Y-7.469999999999999 E2.1682
G1 X28.899 Y-7.2890000000000015 E2.1825
G1 X29.233000000000004 Y-7.073 E2.1968
G1 X29.542 Y-6.823 E2.2111
G1 X29.822999999999993 Y-6.542000000000002 E2.2254
G1 X30.072999999999993 Y-6.232999999999997 E2.2396
G1 X30.289 Y-5.899000000000001 E2.2539
G1 X30.47 Y-5.545000000000002 E2.2682
G1 X30.611999999999995 Y-5.1739999999999995 E2.2825
G1 X30.715000000000003 Y-4.789999999999999 E2.2968
G1 X30.778000000000006 Y-4.3969999999999985 E2.3111
G1 X30.799999999999997 Y-3.969000000000001 E2.3265
G1 X30.799999999999997 Y3.969000000000001 E2.6116
G1 X30.778000000000006 Y4.3969999999999985 E2.6270
G1 X30.715000000000003 Y4.789999999999999 E2.6413
G1 X30.611999999999995 Y5.1739999999999995 E2.6555
G1 X30.47 Y5.545000000000002 E2.6698
G1 X30.289 Y5.899000000000001 E2.6841
G1 X30.072999999999993 Y6.232999999999997 E2.6984
G1 X29.822999999999993 Y6.540999999999997 E2.7127
G1 X29.540999999999997 Y6.823 E2.7270
G1 X29.233000000000004 Y7.073 E2.7412
G1 X28.899 Y7.2890000000000015 E2.7555
G1 X28.545 Y7.469999999999999 E2.7698
G1 X28.174000000000007 Y7.612000000000002 E2.7841
G1 X27.790000000000006 Y7.715000000000003 E2.7984
G1 X27.397000000000006 Y7.777999999999999 E2.8126
G1 X26.968999999999994 Y7.799999999999997 E2.8281
G1 X-26.969 Y7.799999999999997 E4.7655
G1 X-27.397 Y7.777999999999999 E4.7809
G1 X-27.79 Y7.715000000000003 E4.7952
G1 X-28.174 Y7.612000000000002 E4.8095
G1 X-28.545 Y7.469999999999999 E4.8238
G1 X-28.899 Y7.2890000000000015 E4.8381
G1 X-29.233 Y7.073 E4.8524
G1 X-29.541 Y6.823 E4.8666
G1 X-29.823 Y6.540999999999997 E4.8809
G1 X-30.073 Y6.232999999999997 E4.8952
G1 X-30.289 Y5.899000000000001 E4.9095
G1 X-30.47 Y5.545000000000002 E4.9238
G1 X-30.612 Y5.1739999999999995 E4.9380
G1 X-30.715 Y4.789999999999999 E4.9523
G1 X-30.778 Y4.3969999999999985 E4.9666
G1 X-30.793 Y4.098999999999997 E4.9773
G1 X-30.8 Y-3.969000000000001 E5.2671
G1 X-30.778 Y-4.3969999999999985 E5.2825
G1 X-30.715 Y-4.789999999999999 E5.2968
G1 X-30.612 Y-5.1739999999999995 E5.3111
G1 X-31.07 Y-5.322000000000003 F6000
G92 E0.0000
G1 X-30.909 Y-5.740000000000002 E0.0161 F2700
G1 X-30.706 Y-6.139000000000003 E0.0322
G1 X-30.462 Y-6.515000000000001 E0.0483
G1 X-30.18 Y-6.8629999999999995 E0.0644
G1 X-29.863 Y-7.18 E0.0804
G1 X-29.515 Y-7.462000000000003 E0.0965
G1 X-29.139 Y-7.706000000000003 E0.1126
G1 X-28.74 Y-7.908999999999999 E0.1287
G1 X-28.322 Y-8.07 E0.1448
G1 X-27.89 Y-8.186 E0.1609
G1 X-27.447 Y-8.256 E0.1770
G1 X-26.981 Y-8.280000000000001 E0.1937
G1 X26.980999999999995 Y-8.280000000000001 E2.1321
G1 X27.447000000000003 Y-8.256 E2.1489
G1 X27.89 Y-8.185000000000002 E2.1650
G1 X28.322000000000003 Y-8.07 E2.1811
G1 X28.739999999999995 Y-7.908999999999999 E2.1972
G1 X29.138999999999996 Y-7.706000000000003 E2.2132
G1 X29.515 Y-7.462000000000003 E2.2293
G1 X29.863 Y-7.18 E2.2454
G1 X30.180000000000007 Y-6.8629999999999995 E2.2615
G1 X30.462000000000003 Y-6.515000000000001 E2.2776
G1 X30.706000000000003 Y-6.139000000000003 E2.2937
G1 X30.909000000000006 Y-5.740000000000002 E2.3098
G1 X31.069999999999993 Y-5.322000000000003 E2.3259
G1 X31.185000000000002 Y-4.890000000000001 E2.3420
G1 X31.256 Y-4.447000000000003 E2.3580
G1 X31.28 Y-3.9810000000000016 E2.3748
G1 X31.28 Y3.9810000000000016 E2.6608
G1 X31.256 Y4.447000000000003 E2.6776
G1 X31.185000000000002 Y4.890000000000001 E2.6937
G1 X31.069999999999993 Y5.322000000000003 E2.7098
G1 X30.909000000000006 Y5.740000000000002 E2.7259
G1 X30.706000000000003 Y6.140000000000001 E2.7419
G1 X30.462000000000003 Y6.515000000000001 E2.7580
G1 X30.180000000000007 Y6.8629999999999995 E2.7741
G1 X29.863 Y7.18 E2.7902
G1 X29.515 Y7.462000000000003 E2.8063
G1 X29.14 Y7.706000000000003 E2.8224
G1 X28.739999999999995 Y7.908999999999999 E2.8385
G1 X28.322000000000003 Y8.07 E2.8546
G1 X27.89 Y8.186 E2.8707
G1 X27.447000000000003 Y8.256 E2.8867
G1 X26.980999999999995 Y8.280000000000001 E2.9035
G1 X-26.981 Y8.280000000000001 E4.8419
G1 X-27.447 Y8.256 E4.8587
G1 X-27.89 Y8.185000000000002 E4.8747
G1 X-28.322 Y8.07 E4.8908
G1 X-28.74 Y7.908999999999999 E4.9069
G1 X-29.14 Y7.706000000000003 E4.9230
G1 X-29.515 Y7.462000000000003 E4.9391
G1 X-29.863 Y7.18 E4.9552
G1 X-30.18 Y6.8629999999999995 E4.9713
G1 X-30.462 Y6.515000000000001 E4.9874
G1 X-30.706 Y6.139000000000003 E5.0035
G1 X-30.909 Y5.740000000000002 E5.0195
G1 X-31.07 Y5.322000000000003 E5.0356
G1 X-31.186 Y4.890000000000001 E5.0517
G1 X-31.256 Y4.447000000000003 E5.0678
G1 X-31.273 Y4.110999999999997 E5.0799
G1 X-31.28 Y-3.9810000000000016 E5.3706
G1 X-31.256 Y-4.447000000000003 E5.3873
G1 X-31.186 Y-4.890000000000001 E5.4034
G1 X-31.07 Y-5.322000000000003 E5.4195
; feature outer perimeter
G1 X-31.527 Y-5.4709999999999965 F6000
G92 E0.0000
G1 X-31.348 Y-5.936 E0.0179 F1800
G1 X-31.122 Y-6.380000000000003 E0.0358
G1 X-30.851 Y-6.798000000000002 E0.0537
G1 X-30.537 Y-7.185000000000002 E0.0716
G1 X-30.185 Y-7.536999999999999 E0.0895
G1 X-29.798 Y-7.850999999999999 E0.1074
G1 X-29.38 Y-8.122 E0.1253
G1 X-28.936 Y-8.347999999999999 E0.1432
G1 X-28.471 Y-8.527000000000001 E0.1611
G1 X-27.99 Y-8.655999999999999 E0.1790
G1 X-27.498 Y-8.734000000000002 E0.1969
G1 X-26.994 Y-8.759999999999998 E0.2150
G1 X26.994 Y-8.759999999999998 E2.1543
G1 X27.497 Y-8.734000000000002 E2.1724
G1 X27.989999999999995 Y-8.655999999999999 E2.1903
G1 X28.471000000000004 Y-8.527000000000001 E2.2082
G1 X28.936000000000007 Y-8.347999999999999 E2.2261
G1 X29.379999999999995 Y-8.122 E2.2440
G1 X29.798000000000002 Y-7.850999999999999 E2.2619
G1 X30.185000000000002 Y-7.536999999999999 E2.2798
G1 X30.537000000000006 Y-7.185000000000002 E2.2977
G1 X30.851 Y-6.798000000000002 E2.3155
G1 X31.122 Y-6.380000000000003 E2.3334
G1 X31.348 Y-5.936 E2.3513
G1 X31.527 Y-5.4709999999999965 E2.3692
G1 X31.656000000000006 Y-4.990000000000002 E2.3871
G1 X31.733999999999995 Y-4.4979999999999976 E2.4050
G1 X31.760000000000005 Y-3.9939999999999998 E2.4231
G1 X31.760000000000005 Y3.9939999999999998 E2.7101
G1 X31.733999999999995 Y4.4979999999999976 E2.7282
G1 X31.656000000000006 Y4.990000000000002 E2.7461
G1 X31.527 Y5.4709999999999965 E2.7640
G1 X31.348 Y5.936 E2.7819
G1 X31.122 Y6.380000000000003 E2.7998
G1 X30.851 Y6.798000000000002 E2.8177
G1 X30.537000000000006 Y7.185000000000002 E2.8356
G1 X30.185000000000002 Y7.536999999999999 E2.8535
G1 X29.798000000000002 Y7.850999999999999 E2.8714
G1 X29.379999999999995 Y8.122 E2.8893
G1 X28.936000000000007 Y8.347999999999999 E2.9071
G1 X28.471000000000004 Y8.527000000000001 E2.9250
G1 X27.989999999999995 Y8.655999999999999 E2.9429
G1 X27.497 Y8.734000000000002 E2.9608
G1 X26.994 Y8.759999999999998 E2.9790
G1 X-26.994 Y8.759999999999998 E4.9182
G1 X-27.497 Y8.734000000000002 E4.9364
G1 X-27.99 Y8.655999999999999 E4.9543
G1 X-28.471 Y8.527000000000001 E4.9721
G1 X-28.936 Y8.347999999999999 E4.9900
G1 X-29.38 Y8.122 E5.0079
G1 X-29.798 Y7.850999999999999 E5.0258
G1 X-30.185 Y7.536999999999999 E5.0437
G1 X-30.537 Y7.185000000000002 E5.0616
G1 X-30.851 Y6.798000000000002 E5.0795
G1 X-31.122 Y6.380000000000003 E5.0974
G1 X-31.348 Y5.936 E5.1153
G1 X-31.527 Y5.4709999999999965 E5.1332
G1 X-31.656 Y4.990000000000002 E5.1511
G1 X-31.734 Y4.4979999999999976 E5.1690
G1 X-31.753 Y4.124000000000002 E5.1824
G1 X-31.76 Y-3.9939999999999998 E5.4740
G1 X-31.734 Y-4.4979999999999976 E5.4922
G1 X-31.656 Y-4.990000000000002 E5.5101
G1 X-31.527 Y-5.4709999999999965 E5.5280
; feature solid layer
G1 X-27.915 Y7.384 F6000
G92 E0.0000
G1 X-30.384 Y4.914999999999999 E0.1254 F2880
G1 X-30.433 Y4.729999999999997 E0.1323
G1 X-30.491 Y4.366999999999997 E0.1455
G1 X-30.504 Y4.116 E0.1545
G1 X-27.116 Y7.503999999999998 E0.3266
G1 X-26.961 Y7.5120000000000005 E0.3322
G1 X-26.429 Y7.5120000000000005 E0.3513
G1 X-30.506 Y3.4350000000000023 E0.5584
G1 X-30.506 Y2.7560000000000002 E0.5828
G1 X-25.75 Y7.5120000000000005 E0.8244
G1 X-25.071 Y7.5120000000000005 E0.8488
G1 X-30.507 Y2.076999999999998 E1.1249
G1 X-30.507 Y1.3969999999999985 E1.1493
G1 X-24.393 Y7.5120000000000005 E1.4599
G1 X-23.714 Y7.5120000000000005 E1.4843
G1 X-30.508 Y0.7180000000000035 E1.8295
G1 X-30.509 Y0.0379999999999967 E1.8539
G1 X-23.035 Y7.5120000000000005 E2.2335
G1 X-22.356 Y7.5120000000000005 E2.2579
G1 X-30.509 Y-0.6409999999999982 E2.6721
G1 X-30.51 Y-1.3200000000000003 E2.6965
G1 X-21.677 Y7.5120000000000005 E3.1452
G1 X-20.999 Y7.5120000000000005 E3.1696
G1 X-30.51 Y-2 E3.6527
G1 X-30.511 Y-2.679000000000002 E3.6772
G1 X-20.32 Y7.5120000000000005 E4.1949
G1 X-19.641 Y7.5120000000000005 E4.2192
G1 X-30.511 Y-3.3590000000000018 E4.7715
G1 X-30.512 Y-3.9620000000000033 E4.7931
G1 X-30.508 Y-4.033999999999999 E4.7957
G1 X-18.962 Y7.5120000000000005 E5.3823
G1 X-18.283 Y7.5120000000000005 E5.4067
G1 X-30.446 Y-4.651000000000003 E6.0245
G1 X-30.433 Y-4.729999999999997 E6.0274
G1 X-30.338 Y-5.085000000000001 E6.0406
G1 X-30.3 Y-5.1839999999999975 E6.0444
G1 X-17.604 Y7.5120000000000005 E6.6894
G1 X-16.926000000000002 Y7.5120000000000005 E6.7137
G1 X-30.091 Y-5.6540000000000035 E7.3826
G1 X-30.04 Y-5.755000000000003 E7.3866
G1 X-29.84 Y-6.063000000000002 E7.3998
G1 X-29.832 Y-6.073 E7.4003
G1 X-16.247 Y7.5120000000000005 E8.0904
G1 X-15.567999999999998 Y7.5120000000000005 E8.1148
G1 X-29.518 Y-6.439 E8.8235
G1 X-29.349 Y-6.607999999999997 E8.8321
G1 X-29.161 Y-6.759999999999998 E8.8408
G1 X-14.889000000000003 Y7.5120000000000005 E9.5658
G1 X-14.21 Y7.5120000000000005 E9.5902
G1 X-28.759 Y-7.036999999999999 E10.3292
G1 X-28.428 Y-7.207000000000001 E10.3426
G1 X-28.299 Y-7.256 E10.3476
G1 X-13.530999999999999 Y7.5120000000000005 E11.0978
G1 X-12.853000000000002 Y7.5120000000000005 E11.1221
G1 X-27.784 Y-7.418999999999997 E11.8806
G1 X-27.73 Y-7.433 E11.8826
G1 X-27.367 Y-7.491 E11.8958
G1 X-27.186 Y-7.5 E11.9023
G1 X-12.174 Y7.5120000000000005 E12.6650
G1 X-11.494999999999997 Y7.5120000000000005 E12.6893
G1 X-26.519 Y-7.5120000000000005 E13.4526
G1 X-25.84 Y-7.5120000000000005 E13.4769
G1 X-10.816000000000003 Y7.5120000000000005 E14.2402
G1 X-10.137 Y7.5120000000000005 E14.2645
G1 X-25.161 Y-7.5120000000000005 E15.0278
G1 X-24.483 Y-7.5120000000000005 E15.0521
G1 X-9.459000000000003 Y7.5120000000000005 E15.8154
G1 X-8.780000000000001 Y7.5120000000000005 E15.8397
G1 X-23.804 Y-7.5120000000000005 E16.6030
G1 X-23.125 Y-7.5120000000000005 E16.6273
G1 X-8.100999999999999 Y7.5120000000000005 E17.3906
G1 X-7.421999999999997 Y7.5120000000000005 E17.4149
G1 X-22.446 Y-7.5120000000000005 E18.1782
G1 X-21.767 Y-7.5120000000000005 E18.2025
G1 X-6.743000000000002 Y7.5120000000000005 E18.9658
G1 X-6.064 Y7.5120000000000005 E18.9901
G1 X-21.088 Y-7.5120000000000005 E19.7534
G1 X-20.41 Y-7.5120000000000005 E19.7777
G1 X-5.386000000000003 Y7.5120000000000005 E20.5410
G1 X-4.707000000000001 Y7.5120000000000005 E20.5653
G1 X-19.731 Y-7.5120000000000005 E21.3286
G1 X-19.052 Y-7.5120000000000005 E21.3529
G1 X-4.027999999999999 Y7.5120000000000005 E22.1162
G1 X-3.3489999999999966 Y7.5120000000000005 E22.1405
G1 X-18.373 Y-7.5120000000000005 E22.9038
G1 X-17.694000000000003 Y-7.5120000000000005 E22.9281
G1 X-2.6700000000000017 Y7.5120000000000005 E23.6914
G1 X-1.9919999999999973 Y7.5120000000000005 E23.7158
G1 X-17.016 Y-7.5120000000000005 E24.4790
G1 X-16.337000000000003 Y-7.5120000000000005 E24.5034
G1 X-1.3130000000000024 Y7.5120000000000005 E25.2666
G1 X-0.6340000000000003 Y7.5120000000000005 E25.2910
G1 X-15.658000000000001 Y-7.5120000000000005 E26.0542
G1 X-14.979 Y-7.5120000000000005 E26.0786
G1 X0.045000000000001705 Y7.5120000000000005 E26.8418
G1 X0.7239999999999966 Y7.5120000000000005 E26.8662
G1 X-14.299999999999997 Y-7.5120000000000005 E27.6294
G1 X-13.621000000000002 Y-7.5120000000000005 E27.6538
G1 X1.4029999999999987 Y7.5120000000000005 E28.4170
G1 X2.081000000000003 Y7.5120000000000005 E28.4414
G1 X-12.942999999999998 Y-7.5120000000000005 E29.2046
G1 X-12.264000000000003 Y-7.5120000000000005 E29.2290
G1 X2.759999999999998 Y7.5120000000000005 E29.9922
G1 X3.439 Y7.5120000000000005 E30.0166
G1 X-11.585 Y-7.5120000000000005 E30.7798
G1 X-10.905999999999999 Y-7.5120000000000005 E30.8042
G1 X4.118000000000002 Y7.5120000000000005 E31.5674
G1 X4.796999999999997 Y7.5120000000000005 E31.5918
G1 X-10.226999999999997 Y-7.5120000000000005 E32.3550
G1 X-9.548000000000002 Y-7.5120000000000005 E32.3794
G1 X5.475999999999999 Y7.5120000000000005 E33.1426
G1 X6.1540000000000035 Y7.5120000000000005 E33.1670
G1 X-8.869999999999997 Y-7.5120000000000005 E33.9302
G1 X-8.191000000000003 Y-7.5120000000000005 E33.9546
G1 X6.832999999999998 Y7.5120000000000005 E34.7178
G1 X7.5120000000000005 Y7.5120000000000005 E34.7422
G1 X-7.5120000000000005 Y-7.5120000000000005 E35.5054
G1 X-6.832999999999998 Y-7.5120000000000005 E35.5298
G1 X8.191000000000003 Y7.5120000000000005 E36.2930
G1 X8.869999999999997 Y7.5120000000000005 E36.3174
G1 X-6.1540000000000035 Y-7.5120000000000005 E37.0806
G1 X-5.475999999999999 Y-7.5120000000000005 E37.1050
G1 X9.548000000000002 Y7.5120000000000005 E37.8682
G1 X10.226999999999997 Y7.5120000000000005 E37.8926
G1 X-4.796999999999997 Y-7.5120000000000005 E38.6558
G1 X-4.118000000000002 Y-7.5120000000000005 E38.6802
G1 X10.905999999999999 Y7.5120000000000005 E39.4434
G1 X11.585 Y7.5120000000000005 E39.4678
G1 X-3.439 Y-7.5120000000000005 E40.2310
G1 X-2.759999999999998 Y-7.5120000000000005 E40.2554
G1 X12.264000000000003 Y7.5120000000000005 E41.0186
G1 X12.942999999999998 Y7.5120000000000005 E41.0430
G1 X-2.081000000000003 Y-7.5120000000000005 E41.8062
G1 X-1.4029999999999987 Y-7.5120000000000005 E41.8306
G1 X13.621000000000002 Y7.5120000000000005 E42.5938
G1 X14.299999999999997 Y7.5120000000000005 E42.6182
G1 X-0.7239999999999966 Y-7.5120000000000005 E43.3814
G1 X-0.045000000000001705 Y-7.5120000000000005 E43.4058
G1 X14.979 Y7.5120000000000005 E44.1690
G1 X15.658000000000001 Y7.5120000000000005 E44.1934
G1 X0.6340000000000003 Y-7.5120000000000005 E44.9566
G1 X1.3130000000000024 Y-7.5120000000000005 E44.9810
G1 X16.337000000000003 Y7.5120000000000005 E45.7442
G1 X17.016000000000005 Y7.5120000000000005 E45.7686
G1 X1.9919999999999973 Y-7.5120000000000005 E46.5318
G1 X2.6700000000000017 Y-7.5120000000000005 E46.5562
G1 X17.694000000000003 Y7.5120000000000005 E47.3194
G1 X18.373000000000005 Y7.5120000000000005 E47.3438
G1 X3.3489999999999966 Y-7.5120000000000005 E48.1070
G1 X4.027999999999999 Y-7.5120000000000005 E48.1314
G1 X19.052000000000007 Y7.5120000000000005 E48.8946
G1 X19.730999999999995 Y7.5120000000000005 E48.9190
G1 X4.707000000000001 Y-7.5120000000000005 E49.6822
G1 X5.386000000000003 Y-7.5120000000000005 E49.7066
G1 X20.409999999999997 Y7.5120000000000005 E50.4698
G1 X21.087999999999994 Y7.5120000000000005 E50.4942
G1 X6.064 Y-7.5120000000000005 E51.2574
G1 X6.743000000000002 Y-7.5120000000000005 E51.2818
G1 X21.766999999999996 Y7.5120000000000005 E52.0450
G1 X22.445999999999998 Y7.5120000000000005 E52.0694
G1 X7.421999999999997 Y-7.5120000000000005 E52.8326
G1 X8.100999999999999 Y-7.5120000000000005 E52.8570
G1 X23.125 Y7.5120000000000005 E53.6202
G1 X23.804000000000002 Y7.5120000000000005 E53.6446
G1 X8.780000000000001 Y-7.5120000000000005 E54.4078
G1 X9.459000000000003 Y-7.5120000000000005 E54.4322
G1 X24.483000000000004 Y7.5120000000000005 E55.1954
G1 X25.161 Y7.5120000000000005 E55.2198
G1 X10.137 Y-7.5120000000000005 E55.9830
G1 X10.816000000000003 Y-7.5120000000000005 E56.0074
G1 X25.840000000000003 Y7.5120000000000005 E56.7706
G1 X26.519000000000005 Y7.5120000000000005 E56.7950
G1 X11.494999999999997 Y-7.5120000000000005 E57.5582
G1 X12.174 Y-7.5120000000000005 E57.5826
G1 X27.186000000000007 Y7.5 E58.3452
G1 X27.367000000000004 Y7.491 E58.3517
G1 X27.730000000000004 Y7.433 E58.3649
G1 X27.784000000000006 Y7.418999999999997 E58.3669
G1 X12.853000000000002 Y-7.5120000000000005 E59.1254
G1 X13.531999999999996 Y-7.5120000000000005 E59.1498
G1 X28.299000000000007 Y7.256 E59.9000
G1 X28.427999999999997 Y7.207000000000001 E59.9049
G1 X28.754999999999995 Y7.039999999999999 E59.9181
G1 X28.759 Y7.036999999999999 E59.9183
G1 X14.209999999999994 Y-7.5120000000000005 E60.6574
G1 X14.888999999999996 Y-7.5120000000000005 E60.6818
G1 X29.161 Y6.759999999999998 E61.4068
G1 X29.349000000000004 Y6.607999999999997 E61.4155
G1 X29.518 Y6.439 E61.4241
G1 X15.567999999999998 Y-7.5120000000000005 E62.1328
G1 X16.247 Y-7.5120000000000005 E62.1572
G1 X29.831999999999994 Y6.073 E62.8473
G1 X29.840000000000003 Y6.063000000000002 E62.8477
G1 X30.040000000000006 Y5.755000000000003 E62.8609
G1 X30.090999999999994 Y5.6540000000000035 E62.8650
G1 X16.926000000000002 Y-7.5120000000000005 E63.5338
G1 X17.604 Y-7.5120000000000005 E63.5582
G1 X30.299999999999997 Y5.1839999999999975 E64.2031
G1 X30.337999999999994 Y5.085000000000001 E64.2069
G1 X30.433000000000007 Y4.729999999999997 E64.2201
G1 X30.445999999999998 Y4.651000000000003 E64.2230
G1 X18.283 Y-7.5120000000000005 E64.8409
G1 X18.962000000000003 Y-7.5120000000000005 E64.8653
G1 X30.507999999999996 Y4.033999999999999 E65.4518
G1 X30.512 Y3.9609999999999985 E65.4544
G1 X30.512 Y3.3590000000000018 E65.4761
G1 X19.641000000000005 Y-7.5120000000000005 E66.0283
G1 X20.319999999999993 Y-7.5120000000000005 E66.0527
G1 X30.512 Y2.6799999999999997 E66.5705
G1 X30.512 Y2.0009999999999977 E66.5948
G1 X20.998999999999995 Y-7.5120000000000005 E67.0781
G1 X21.677000000000007 Y-7.5120000000000005 E67.1025
G1 X30.512 Y1.3230000000000004 E67.5513
G1 X30.512 Y0.6439999999999984 E67.5757
G1 X22.355999999999995 Y-7.5120000000000005 E67.9900
G1 X23.034999999999997 Y-7.5120000000000005 E68.0144
G1 X30.512 Y-0.03499999999999659 E68.3942
G1 X30.512 Y-0.7139999999999986 E68.4186
G1 X23.714 Y-7.5120000000000005 E68.7639
G1 X24.393 Y-7.5120000000000005 E68.7883
G1 X30.512 Y-1.3930000000000007 E69.0992
G1 X30.512 Y-2.070999999999998 E69.1236
G1 X25.070999999999998 Y-7.5120000000000005 E69.3999
G1 X25.75 Y-7.5120000000000005 E69.4243
G1 X30.512 Y-2.75 E69.6662
G1 X30.512 Y-3.429000000000002 E69.6906
G1 X26.429000000000002 Y-7.5120000000000005 E69.8980
G1 X26.961 Y-7.5120000000000005 E69.9171
G1 X27.116 Y-7.503999999999998 E69.9227
G1 X30.504000000000005 Y-4.116 E70.0948
G1 X30.491 Y-4.366999999999997 E70.1038
G1 X30.433000000000007 Y-4.729999999999997 E70.1170
G1 X30.384 Y-4.914999999999999 E70.1239
G1 X27.915000000000006 Y-7.384 E70.2493
G92 E0.0000
G1 E-3 F2700 ; custom retraction - A
; layer 4, Z = 0.800
; feature inner perimeter
;zhopupA
G1 X28.174000000000007 Y-7.612000000000002 F6000
G1 Z0.800 F1200
G1 E0 F2400 ; custom un-retraction/prime - A
G92 E0.0000
G1 X28.545 Y-7.469999999999999 E0.0143 F2700
G1 X28.899 Y-7.2890000000000015 E0.0286
G1 X29.233000000000004 Y-7.073 E0.0428
G1 X29.542 Y-6.823 E0.0571
G1 X29.822999999999993 Y-6.542000000000002 E0.0714
G1 X30.072999999999993 Y-6.232999999999997 E0.0857
G1 X30.289 Y-5.899000000000001 E0.1000
G1 X30.47 Y-5.545000000000002 E0.1143
G1 X30.611999999999995 Y-5.1739999999999995 E0.1285
G1 X30.715000000000003 Y-4.789999999999999 E0.1428
G1 X30.778000000000006 Y-4.3969999999999985 E0.1571
G1 X30.799999999999997 Y-3.969000000000001 E0.1725
G1 X30.799999999999997 Y3.969000000000001 E0.4576
G1 X30.778000000000006 Y4.3969999999999985 E0.4730
G1 X30.715000000000003 Y4.789999999999999 E0.4873
G1 X30.611999999999995 Y5.1739999999999995 E0.5016
G1 X30.47 Y5.545000000000002 E0.5159
G1 X30.289 Y5.899000000000001 E0.5302
G1 X30.072999999999993 Y6.232999999999997 E0.5444
G1 X29.822999999999993 Y6.540999999999997 E0.5587
G1 X29.540999999999997 Y6.823 E0.5730
G1 X29.233000000000004 Y7.073 E0.5873
G1 X28.899 Y7.2890000000000015 E0.6016
G1 X28.545 Y7.469999999999999 E0.6158
G1 X28.174000000000007 Y7.612000000000002 E0.6301
G1 X27.790000000000006 Y7.715000000000003 E0.6444
G1 X27.397000000000006 Y7.777999999999999 E0.6587
G1 X26.968999999999994 Y7.799999999999997 E0.6741
G1 X-26.969 Y7.799999999999997 E2.6116
G1 X-27.397 Y7.777999999999999 E2.6270
G1 X-27.79 Y7.715000000000003 E2.6413
G1 X-28.174 Y7.612000000000002 E2.6555
G1 X-28.545 Y7.469999999999999 E2.6698
G1 X-28.899 Y7.2890000000000015 E2.6841
G1 X-29.233 Y7.073 E2.6984
G1 X-29.541 Y6.823 E2.7127
G1 X-29.823 Y6.540999999999997 E2.7270
G1 X-30.073 Y6.232999999999997 E2.7412
G1 X-30.289 Y5.899000000000001 E2.7555
G1 X-30.47 Y5.545000000000002 E2.7698
G1 X-30.612 Y5.1739999999999995 E2.7841
G1 X-30.715 Y4.789999999999999 E2.7984
G1 X-30.778 Y4.3969999999999985 E2.8126
G1 X-30.79 Y4.151000000000003 E2.8215
G1 X-30.8 Y-3.969000000000001 E3.1132
G1 X-30.778 Y-4.3969999999999985 E3.1286
G1 X-30.715 Y-4.789999999999999 E3.1429
G1 X-30.612 Y-5.1739999999999995 E3.1571
G1 X-30.47 Y-5.545000000000002 E3.1714
G1 X-30.289 Y-5.899000000000001 E3.1857
G1 X-30.073 Y-6.232999999999997 E3.2000
G1 X-29.823 Y-6.542000000000002 E3.2143
G1 X-29.542 Y-6.823 E3.2285
G1 X-29.233 Y-7.073 E3.2428
G1 X-28.899 Y-7.2890000000000015 E3.2571
G1 X-28.545 Y-7.469999999999999 E3.2714
G1 X-28.174 Y-7.612000000000002 E3.2857
G1 X-27.79 Y-7.715000000000003 E3.2999
G1 X-27.397 Y-7.777999999999999 E3.3142
G1 X-26.969 Y-7.799999999999997 E3.3296
G1 X26.968999999999994 Y-7.799999999999997 E5.2671
G1 X27.397000000000006 Y-7.777999999999999 E5.2825
G1 X27.790000000000006 Y-7.715000000000003 E5.2968
G1 X28.174000000000007 Y-7.612000000000002 E5.3111
G1 X28.322000000000003 Y-8.07 F6000
G92 E0.0000
G1 X28.739999999999995 Y-7.908999999999999 E0.0161 F2700
G1 X29.138999999999996 Y-7.706000000000003 E0.0322
G1 X29.515 Y-7.462000000000003 E0.0483
G1 X29.863 Y-7.18 E0.0644
G1 X30.180000000000007 Y-6.8629999999999995 E0.0804
G1 X30.462000000000003 Y-6.515000000000001 E0.0965
G1 X30.706000000000003 Y-6.139000000000003 E0.1126
G1 X30.909000000000006 Y-5.740000000000002 E0.1287
G1 X31.069999999999993 Y-5.322000000000003 E0.1448
G1 X31.185000000000002 Y-4.890000000000001 E0.1609
G1 X31.256 Y-4.447000000000003 E0.1770
G1 X31.28 Y-3.9810000000000016 E0.1937
G1 X31.28 Y3.9810000000000016 E0.4798
G1 X31.256 Y4.447000000000003 E0.4965
G1 X31.185000000000002 Y4.890000000000001 E0.5126
G1 X31.069999999999993 Y5.322000000000003 E0.5287
G1 X30.909000000000006 Y5.740000000000002 E0.5448
G1 X30.706000000000003 Y6.140000000000001 E0.5609
G1 X30.462000000000003 Y6.515000000000001 E0.5770
G1 X30.180000000000007 Y6.8629999999999995 E0.5930
G1 X29.863 Y7.18 E0.6091
G1 X29.515 Y7.462000000000003 E0.6252
G1 X29.14 Y7.706000000000003 E0.6413
G1 X28.739999999999995 Y7.908999999999999 E0.6574
G1 X28.322000000000003 Y8.07 E0.6735
G1 X27.89 Y8.186 E0.6896
G1 X27.447000000000003 Y8.256 E0.7057
G1 X26.980999999999995 Y8.280000000000001 E0.7224
G1 X-26.981 Y8.280000000000001 E2.6608
G1 X-27.447 Y8.256 E2.6776
G1 X-27.89 Y8.185000000000002 E2.6937
G1 X-28.322 Y8.07 E2.7098
G1 X-28.74 Y7.908999999999999 E2.7258
G1 X-29.14 Y7.706000000000003 E2.7419
G1 X-29.515 Y7.462000000000003 E2.7580
G1 X-29.863 Y7.18 E2.7741
G1 X-30.18 Y6.8629999999999995 E2.7902
G1 X-30.462 Y6.515000000000001 E2.8063
G1 X-30.706 Y6.139000000000003 E2.8224
G1 X-30.909 Y5.740000000000002 E2.8385
G1 X-31.07 Y5.322000000000003 E2.8546
G1 X-31.186 Y4.890000000000001 E2.8706
G1 X-31.256 Y4.447000000000003 E2.8867
G1 X-31.27 Y4.1640000000000015 E2.8969
G1 X-31.28 Y-3.9819999999999993 E3.1895
G1 X-31.256 Y-4.447000000000003 E3.2063
G1 X-31.186 Y-4.890000000000001 E3.2224
G1 X-31.07 Y-5.322000000000003 E3.2385
G1 X-30.909 Y-5.740000000000002 E3.2545
G1 X-30.706 Y-6.139000000000003 E3.2706
G1 X-30.462 Y-6.515000000000001 E3.2867
G1 X-30.18 Y-6.8629999999999995 E3.3028
G1 X-29.863 Y-7.18 E3.3189
G1 X-29.515 Y-7.462000000000003 E3.3350
G1 X-29.139 Y-7.706000000000003 E3.3511
G1 X-28.74 Y-7.908999999999999 E3.3672
G1 X-28.322 Y-8.07 E3.3833
G1 X-27.89 Y-8.186 E3.3993
G1 X-27.447 Y-8.256 E3.4154
G1 X-26.981 Y-8.280000000000001 E3.4322
G1 X26.980999999999995 Y-8.280000000000001 E5.3706
G1 X27.447000000000003 Y-8.256 E5.3873
G1 X27.89 Y-8.185000000000002 E5.4034
G1 X28.322000000000003 Y-8.07 E5.4195
; feature outer perimeter
G1 X28.471000000000004 Y-8.527000000000001 F6000
G92 E0.0000
G1 X28.936000000000007 Y-8.347999999999999 E0.0179 F1800
G1 X29.379999999999995 Y-8.122 E0.0358
G1 X29.798000000000002 Y-7.850999999999999 E0.0537
G1 X30.185000000000002 Y-7.536999999999999 E0.0716
G1 X30.537000000000006 Y-7.185000000000002 E0.0895
G1 X30.851 Y-6.798000000000002 E0.1074
G1 X31.122 Y-6.380000000000003 E0.1253
G1 X31.348 Y-5.936 E0.1432
G1 X31.527 Y-5.4709999999999965 E0.1611
G1 X31.656000000000006 Y-4.990000000000002 E0.1790
G1 X31.733999999999995 Y-4.4979999999999976 E0.1969
G1 X31.760000000000005 Y-3.9939999999999998 E0.2150
G1 X31.760000000000005 Y3.9939999999999998 E0.5019
G1 X31.733999999999995 Y4.4979999999999976 E0.5200
G1 X31.656000000000006 Y4.990000000000002 E0.5379
G1 X31.527 Y5.4709999999999965 E0.5558
G1 X31.348 Y5.936 E0.5737
G1 X31.122 Y6.380000000000003 E0.5916
G1 X30.851 Y6.798000000000002 E0.6095
G1 X30.537000000000006 Y7.185000000000002 E0.6274
G1 X30.185000000000002 Y7.536999999999999 E0.6453
G1 X29.798000000000002 Y7.850999999999999 E0.6632
G1 X29.379999999999995 Y8.122 E0.6811
G1 X28.936000000000007 Y8.347999999999999 E0.6990
G1 X28.471000000000004 Y8.527000000000001 E0.7169
G1 X27.989999999999995 Y8.655999999999999 E0.7348
G1 X27.497 Y8.734000000000002 E0.7527
G1 X26.994 Y8.759999999999998 E0.7708
G1 X-26.994 Y8.759999999999998 E2.7101
G1 X-27.497 Y8.734000000000002 E2.7282
G1 X-27.99 Y8.655999999999999 E2.7461
G1 X-28.471 Y8.527000000000001 E2.7640
G1 X-28.936 Y8.347999999999999 E2.7819
G1 X-29.38 Y8.122 E2.7998
G1 X-29.798 Y7.850999999999999 E2.8177
G1 X-30.185 Y7.536999999999999 E2.8356
G1 X-30.537 Y7.185000000000002 E2.8535
G1 X-30.851 Y6.798000000000002 E2.8714
G1 X-31.122 Y6.380000000000003 E2.8892
G1 X-31.348 Y5.936 E2.9071
G1 X-31.527 Y5.4709999999999965 E2.9250
G1 X-31.656 Y4.990000000000002 E2.9429
G1 X-31.734 Y4.4979999999999976 E2.9608
G1 X-31.75 Y4.177 E2.9724
G1 X-31.76 Y-3.9939999999999998 E3.2659
G1 X-31.734 Y-4.4979999999999976 E3.2840
G1 X-31.656 Y-4.990000000000002 E3.3019
G1 X-31.527 Y-5.4709999999999965 E3.3198
G1 X-31.348 Y-5.936 E3.3377
G1 X-31.122 Y-6.380000000000003 E3.3556
G1 X-30.851 Y-6.798000000000002 E3.3735
G1 X-30.537 Y-7.185000000000002 E3.3914
G1 X-30.185 Y-7.536999999999999 E3.4093
G1 X-29.798 Y-7.850999999999999 E3.4272
G1 X-29.38 Y-8.122 E3.4450
G1 X-28.936 Y-8.347999999999999 E3.4629
G1 X-28.471 Y-8.527000000000001 E3.4808
G1 X-27.99 Y-8.655999999999999 E3.4987
G1 X-27.498 Y-8.734000000000002 E3.5166
G1 X-26.994 Y-8.759999999999998 E3.5348
G1 X26.994 Y-8.759999999999998 E5.4740
G1 X27.497 Y-8.734000000000002 E5.4922
G1 X27.989999999999995 Y-8.655999999999999 E5.5101
G1 X28.471000000000004 Y-8.527000000000001 E5.5279
; feature infill
; tool H0.200 W0.600
G1 X30.451999999999998 Y3.488999999999997 F6000
G92 E0.0000
G1 X26.489000000000004 Y7.451999999999998 E0.2516 F3600
G1 X18.004000000000005 Y7.451999999999998 E0.6326
G1 X30.331999999999994 Y-4.875999999999998 E1.4155
G1 X30.281000000000006 Y-5.0660000000000025 E1.4243
G1 X30.152 Y-5.402999999999999 E1.4405
G1 X29.988 Y-5.725000000000001 E1.4567
G1 X29.790999999999997 Y-6.027999999999999 E1.4729
G1 X29.563999999999993 Y-6.308 E1.4892
G1 X29.308000000000007 Y-6.564 E1.5054
G1 X29.028000000000006 Y-6.790999999999997 E1.5216
G1 X28.724999999999994 Y-6.9879999999999995 E1.5378
G1 X28.403000000000006 Y-7.152000000000001 E1.5540
G1 X28.066000000000003 Y-7.280999999999999 E1.5702
G1 X27.717 Y-7.374000000000002 E1.5864
G1 X27.361000000000004 Y-7.430999999999997 E1.6027
G1 X26.959000000000003 Y-7.451999999999998 E1.6207
G1 X24.423000000000002 Y-7.451999999999998 E1.7346
G1 X9.518999999999998 Y7.451999999999998 E2.6810
G1 X1.0330000000000013 Y7.451999999999998 E3.0620
G1 X15.936999999999998 Y-7.451999999999998 E4.0084
G1 X7.451999999999998 Y-7.451999999999998 E4.3894
G1 X-7.451999999999998 Y7.451999999999998 E5.3358
G1 X-15.936999999999998 Y7.451999999999998 E5.7168
G1 X-1.0330000000000013 Y-7.451999999999998 E6.6632
G1 X-9.518999999999998 Y-7.451999999999998 E7.0442
G1 X-24.423 Y7.451999999999998 E7.9906
G1 X-26.959 Y7.451999999999998 E8.1045
G1 X-27.361 Y7.430999999999997 E8.1225
G1 X-27.717 Y7.374000000000002 E8.1388
G1 X-28.066 Y7.280999999999999 E8.1550
G1 X-28.403 Y7.152000000000001 E8.1712
G1 X-28.725 Y6.9879999999999995 E8.1874
G1 X-29.028 Y6.790999999999997 E8.2036
G1 X-29.308 Y6.564 E8.2198
G1 X-29.564 Y6.308 E8.2361
G1 X-29.791 Y6.027999999999999 E8.2523
G1 X-29.988 Y5.725000000000001 E8.2685
G1 X-30.152 Y5.402999999999999 E8.2847
G1 X-30.281 Y5.0660000000000025 E8.3009
G1 X-30.332 Y4.875999999999998 E8.3097
G1 X-18.004 Y-7.451999999999998 E9.0926
G1 X-26.489 Y-7.451999999999998 E9.4736
G1 X-30.451 Y-3.490000000000002 E9.7252
G92 E0.0000
G1 E-3 F2700 ; custom retraction - A
; layer 5, Z = 1.000
;fan5
; feature inner perimeter
; tool H0.200 W0.480
;zhopupA
G1 X-30.8 Y-3.969000000000001 F6000
G1 Z1.000 F1200
G1 E0 F2400 ; custom un-retraction/prime - A
G92 E0.0000
G1 X-30.778 Y-4.3969999999999985 E0.0154 F2700
G1 X-30.715 Y-4.789999999999999 E0.0297
G1 X-30.612 Y-5.1739999999999995 E0.0440
G1 X-30.47 Y-5.545000000000002 E0.0583
G1 X-30.289 Y-5.899000000000001 E0.0725
G1 X-30.073 Y-6.232999999999997 E0.0868
G1 X-29.823 Y-6.542000000000002 E0.1011
G1 X-29.542 Y-6.823 E0.1154
G1 X-29.233 Y-7.073 E0.1297
G1 X-28.899 Y-7.2890000000000015 E0.1439
G1 X-28.545 Y-7.469999999999999 E0.1582
G1 X-28.174 Y-7.612000000000002 E0.1725
G1 X-27.79 Y-7.715000000000003 E0.1868
G1 X-27.397 Y-7.777999999999999 E0.2011
G1 X-26.969 Y-7.799999999999997 E0.2165
G1 X26.968999999999994 Y-7.799999999999997 E2.1540
G1 X27.397000000000006 Y-7.777999999999999 E2.1694
G1 X27.790000000000006 Y-7.715000000000003 E2.1837
G1 X28.174000000000007 Y-7.612000000000002 E2.1979
G1 X28.545 Y-7.469999999999999 E2.2122
G1 X28.899 Y-7.2890000000000015 E2.2265
G1 X29.233000000000004 Y-7.073 E2.2408
G1 X29.542 Y-6.823 E2.2551
G1 X29.822999999999993 Y-6.542000000000002 E2.2693
G1 X30.072999999999993 Y-6.232999999999997 E2.2836
G1 X30.289 Y-5.899000000000001 E2.2979
G1 X30.47 Y-5.545000000000002 E2.3122
G1 X30.611999999999995 Y-5.1739999999999995 E2.3265
G1 X30.715000000000003 Y-4.789999999999999 E2.3407
G1 X30.778000000000006 Y-4.3969999999999985 E2.3550
G1 X30.799999999999997 Y-3.969000000000001 E2.3704
G1 X30.799999999999997 Y3.969000000000001 E2.6556
G1 X30.778000000000006 Y4.3969999999999985 E2.6710
G1 X30.715000000000003 Y4.789999999999999 E2.6852
G1 X30.611999999999995 Y5.1739999999999995 E2.6995
G1 X30.47 Y5.545000000000002 E2.7138
G1 X30.289 Y5.899000000000001 E2.7281
G1 X30.072999999999993 Y6.232999999999997 E2.7424
G1 X29.822999999999993 Y6.540999999999997 E2.7566
G1 X29.540999999999997 Y6.823 E2.7709
G1 X29.233000000000004 Y7.073 E2.7852
G1 X28.899 Y7.2890000000000015 E2.7995
G1 X28.545 Y7.469999999999999 E2.8138
G1 X28.174000000000007 Y7.612000000000002 E2.8281
G1 X27.790000000000006 Y7.715000000000003 E2.8423
G1 X27.397000000000006 Y7.777999999999999 E2.8566
G1 X26.968999999999994 Y7.799999999999997 E2.8720
G1 X-26.969 Y7.799999999999997 E4.8095
G1 X-27.397 Y7.777999999999999 E4.8249
G1 X-27.79 Y7.715000000000003 E4.8392
G1 X-28.174 Y7.612000000000002 E4.8535
G1 X-28.545 Y7.469999999999999 E4.8678
G1 X-28.899 Y7.2890000000000015 E4.8820
G1 X-29.233 Y7.073 E4.8963
G1 X-29.541 Y6.823 E4.9106
G1 X-29.823 Y6.540999999999997 E4.9249
G1 X-30.073 Y6.232999999999997 E4.9392
G1 X-30.289 Y5.899000000000001 E4.9535
G1 X-30.47 Y5.545000000000002 E4.9677
G1 X-30.612 Y5.1739999999999995 E4.9820
G1 X-30.715 Y4.789999999999999 E4.9963
G1 X-30.778 Y4.3969999999999985 E5.0106
G1 X-30.8 Y3.969000000000001 E5.0260
G1 X-30.8 Y-3.969000000000001 E5.3111
G1 X-31.28 Y-3.9810000000000016 F6000
G92 E0.0000
G1 X-31.256 Y-4.447000000000003 E0.0168 F2700
G1 X-31.186 Y-4.890000000000001 E0.0329
G1 X-31.07 Y-5.322000000000003 E0.0489
G1 X-30.909 Y-5.740000000000002 E0.0650
G1 X-30.706 Y-6.139000000000003 E0.0811
G1 X-30.462 Y-6.515000000000001 E0.0972
G1 X-30.18 Y-6.8629999999999995 E0.1133
G1 X-29.863 Y-7.18 E0.1294
G1 X-29.515 Y-7.462000000000003 E0.1455
G1 X-29.139 Y-7.706000000000003 E0.1616
G1 X-28.74 Y-7.908999999999999 E0.1777
G1 X-28.322 Y-8.07 E0.1937
G1 X-27.89 Y-8.186 E0.2098
G1 X-27.447 Y-8.256 E0.2259
G1 X-26.981 Y-8.280000000000001 E0.2427
G1 X26.980999999999995 Y-8.280000000000001 E2.1811
G1 X27.447000000000003 Y-8.256 E2.1978
G1 X27.89 Y-8.185000000000002 E2.2139
G1 X28.322000000000003 Y-8.07 E2.2300
G1 X28.739999999999995 Y-7.908999999999999 E2.2461
G1 X29.138999999999996 Y-7.706000000000003 E2.2622
G1 X29.515 Y-7.462000000000003 E2.2783
G1 X29.863 Y-7.18 E2.2944
G1 X30.180000000000007 Y-6.8629999999999995 E2.3105
G1 X30.462000000000003 Y-6.515000000000001 E2.3265
G1 X30.706000000000003 Y-6.139000000000003 E2.3426
G1 X30.909000000000006 Y-5.740000000000002 E2.3587
G1 X31.069999999999993 Y-5.322000000000003 E2.3748
G1 X31.185000000000002 Y-4.890000000000001 E2.3909
G1 X31.256 Y-4.447000000000003 E2.4070
G1 X31.28 Y-3.9810000000000016 E2.4237
G1 X31.28 Y3.9810000000000016 E2.7098
G1 X31.256 Y4.447000000000003 E2.7265
G1 X31.185000000000002 Y4.890000000000001 E2.7426
G1 X31.069999999999993 Y5.322000000000003 E2.7587
G1 X30.909000000000006 Y5.740000000000002 E2.7748
G1 X30.706000000000003 Y6.140000000000001 E2.7909
G1 X30.462000000000003 Y6.515000000000001 E2.8070
G1 X30.180000000000007 Y6.8629999999999995 E2.8231
G1 X29.863 Y7.18 E2.8392
G1 X29.515 Y7.462000000000003 E2.8552
G1 X29.14 Y7.706000000000003 E2.8713
G1 X28.739999999999995 Y7.908999999999999 E2.8874
G1 X28.322000000000003 Y8.07 E2.9035
G1 X27.89 Y8.186 E2.9196
G1 X27.447000000000003 Y8.256 E2.9357
G1 X26.980999999999995 Y8.280000000000001 E2.9525
G1 X-26.981 Y8.280000000000001 E4.8908
G1 X-27.447 Y8.256 E4.9076
G1 X-27.89 Y8.185000000000002 E4.9237
G1 X-28.322 Y8.07 E4.9398
G1 X-28.74 Y7.908999999999999 E4.9559
G1 X-29.14 Y7.706000000000003 E4.9720
G1 X-29.515 Y7.462000000000003 E4.9880
G1 X-29.863 Y7.18 E5.0041
G1 X-30.18 Y6.8629999999999995 E5.0202
G1 X-30.462 Y6.515000000000001 E5.0363
G1 X-30.706 Y6.139000000000003 E5.0524
G1 X-30.909 Y5.740000000000002 E5.0685
G1 X-31.07 Y5.322000000000003 E5.0846
G1 X-31.186 Y4.890000000000001 E5.1007
G1 X-31.256 Y4.447000000000003 E5.1167
G1 X-31.28 Y3.9810000000000016 E5.1335
G1 X-31.28 Y-3.9810000000000016 E5.4195
; feature outer perimeter
G1 X-31.76 Y-3.9939999999999998 F6000
G92 E0.0000
G1 X-31.734 Y-4.4979999999999976 E0.0181 F1800
G1 X-31.656 Y-4.990000000000002 E0.0360
G1 X-31.527 Y-5.4709999999999965 E0.0539
G1 X-31.348 Y-5.936 E0.0718
G1 X-31.122 Y-6.380000000000003 E0.0897
G1 X-30.851 Y-6.798000000000002 E0.1076
G1 X-30.537 Y-7.185000000000002 E0.1255
G1 X-30.185 Y-7.536999999999999 E0.1434
G1 X-29.798 Y-7.850999999999999 E0.1613
G1 X-29.38 Y-8.122 E0.1792
G1 X-28.936 Y-8.347999999999999 E0.1971
G1 X-28.471 Y-8.527000000000001 E0.2150
G1 X-27.99 Y-8.655999999999999 E0.2329
G1 X-27.498 Y-8.734000000000002 E0.2508
G1 X-26.994 Y-8.759999999999998 E0.2689
G1 X26.994 Y-8.759999999999998 E2.2082
G1 X27.497 Y-8.734000000000002 E2.2263
G1 X27.989999999999995 Y-8.655999999999999 E2.2442
G1 X28.471000000000004 Y-8.527000000000001 E2.2621
G1 X28.936000000000007 Y-8.347999999999999 E2.2800
G1 X29.379999999999995 Y-8.122 E2.2979
G1 X29.798000000000002 Y-7.850999999999999 E2.3158
G1 X30.185000000000002 Y-7.536999999999999 E2.3337
G1 X30.537000000000006 Y-7.185000000000002 E2.3516
G1 X30.851 Y-6.798000000000002 E2.3695
G1 X31.122 Y-6.380000000000003 E2.3874
G1 X31.348 Y-5.936 E2.4053
G1 X31.527 Y-5.4709999999999965 E2.4231
G1 X31.656000000000006 Y-4.990000000000002 E2.4410
G1 X31.733999999999995 Y-4.4979999999999976 E2.4589
G1 X31.760000000000005 Y-3.9939999999999998 E2.4771
G1 X31.760000000000005 Y3.9939999999999998 E2.7640
G1 X31.733999999999995 Y4.4979999999999976 E2.7821
G1 X31.656000000000006 Y4.990000000000002 E2.8000
G1 X31.527 Y5.4709999999999965 E2.8179
G1 X31.348 Y5.936 E2.8358
G1 X31.122 Y6.380000000000003 E2.8537
G1 X30.851 Y6.798000000000002 E2.8716
G1 X30.537000000000006 Y7.185000000000002 E2.8895
G1 X30.185000000000002 Y7.536999999999999 E2.9074
G1 X29.798000000000002 Y7.850999999999999 E2.9253
G1 X29.379999999999995 Y8.122 E2.9432
G1 X28.936000000000007 Y8.347999999999999 E2.9611
G1 X28.471000000000004 Y8.527000000000001 E2.9790
G1 X27.989999999999995 Y8.655999999999999 E2.9968
G1 X27.497 Y8.734000000000002 E3.0148
G1 X26.994 Y8.759999999999998 E3.0329
G1 X-26.994 Y8.759999999999998 E4.9721
G1 X-27.497 Y8.734000000000002 E4.9903
G1 X-27.99 Y8.655999999999999 E5.0082
G1 X-28.471 Y8.527000000000001 E5.0261
G1 X-28.936 Y8.347999999999999 E5.0440
G1 X-29.38 Y8.122 E5.0619
G1 X-29.798 Y7.850999999999999 E5.0798
G1 X-30.185 Y7.536999999999999 E5.0976
G1 X-30.537 Y7.185000000000002 E5.1155
G1 X-30.851 Y6.798000000000002 E5.1334
G1 X-31.122 Y6.380000000000003 E5.1513
G1 X-31.348 Y5.936 E5.1692
G1 X-31.527 Y5.4709999999999965 E5.1871
G1 X-31.656 Y4.990000000000002 E5.2050
G1 X-31.734 Y4.4979999999999976 E5.2229
G1 X-31.76 Y3.9939999999999998 E5.2410
G1 X-31.76 Y-3.9939999999999998 E5.5280
; feature infill
; tool H0.200 W0.600
G1 X-26.489 Y7.451999999999998 F6000
G92 E0.0000
G1 X-30.452 Y3.488999999999997 E0.2516 F3600
G1 X-30.452 Y-3.959000000000003 E0.5861
G1 X-30.431 Y-4.360999999999997 E0.6041
G1 X-30.374 Y-4.716999999999999 E0.6203
G1 X-30.332 Y-4.875999999999998 E0.6277
G1 X-18.004 Y7.451999999999998 E1.4106
G1 X-9.518999999999998 Y7.451999999999998 E1.7916
G1 X-24.423 Y-7.451999999999998 E2.7380
G1 X-15.936999999999998 Y-7.451999999999998 E3.1190
G1 X-1.0330000000000013 Y7.451999999999998 E4.0654
G1 X7.451999999999998 Y7.451999999999998 E4.4464
G1 X-7.451999999999998 Y-7.451999999999998 E5.3928
G1 X1.0330000000000013 Y-7.451999999999998 E5.7738
G1 X15.936999999999998 Y7.451999999999998 E6.7202
G1 X24.423000000000002 Y7.451999999999998 E7.1012
G1 X9.518999999999998 Y-7.451999999999998 E8.0476
G1 X18.004000000000005 Y-7.451999999999998 E8.4286
G1 X30.331999999999994 Y4.875999999999998 E9.2114
G1 X30.373999999999995 Y4.716999999999999 E9.2188
G1 X30.430999999999997 Y4.360999999999997 E9.2350
G1 X30.451999999999998 Y3.959000000000003 E9.2530
G1 X30.451999999999998 Y-3.488999999999997 E9.5875
G1 X26.489000000000004 Y-7.451999999999998 E9.8391
G92 E0.0000
G1 E-3 F2700 ; custom retraction - A
; layer 6, Z = 1.200
; feature inner perimeter
; tool H0.200 W0.480
;zhopupA
G1 X26.968999999999994 Y-7.799999999999997 F6000
G1 Z1.200 F1200
G1 E0 F2400 ; custom un-retraction/prime - A
G92 E0.0000
G1 X27.397000000000006 Y-7.777999999999999 E0.0154 F2700
G1 X27.790000000000006 Y-7.715000000000003 E0.0297
G1 X28.174000000000007 Y-7.612000000000002 E0.0440
G1 X28.545 Y-7.469999999999999 E0.0583
G1 X28.899 Y-7.2890000000000015 E0.0725
G1 X29.233000000000004 Y-7.073 E0.0868
G1 X29.542 Y-6.823 E0.1011
G1 X29.822999999999993 Y-6.542000000000002 E0.1154
G1 X30.072999999999993 Y-6.232999999999997 E0.1297
G1 X30.289 Y-5.899000000000001 E0.1439
G1 X30.47 Y-5.545000000000002 E0.1582
G1 X30.611999999999995 Y-5.1739999999999995 E0.1725
G1 X30.715000000000003 Y-4.789999999999999 E0.1868
G1 X30.778000000000006 Y-4.3969999999999985 E0.2011
G1 X30.799999999999997 Y-3.969000000000001 E0.2165
G1 X30.799999999999997 Y3.969000000000001 E0.5016
G1 X30.778000000000006 Y4.3969999999999985 E0.5170
G1 X30.715000000000003 Y4.789999999999999 E0.5313
G1 X30.611999999999995 Y5.1739999999999995 E0.5456
G1 X30.47 Y5.545000000000002 E0.5598
G1 X30.289 Y5.899000000000001 E0.5741
G1 X30.072999999999993 Y6.232999999999997 E0.5884
G1 X29.822999999999993 Y6.540999999999997 E0.6027
G1 X29.540999999999997 Y6.823 E0.6170
G1 X29.233000000000004 Y7.073 E0.6313
G1 X28.899 Y7.2890000000000015 E0.6455
G1 X28.545 Y7.469999999999999 E0.6598
G1 X28.174000000000007 Y7.612000000000002 E0.6741
G1 X27.790000000000006 Y7.715000000000003 E0.6884
G1 X27.397000000000006 Y7.777999999999999 E0.7027
G1 X26.968999999999994 Y7.799999999999997 E0.7181
G1 X-26.969 Y7.799999999999997 E2.6555
G1 X-27.397 Y7.777999999999999 E2.6710
G1 X-27.79 Y7.715000000000003 E2.6852
G1 X-28.174 Y7.612000000000002 E2.6995
G1 X-28.545 Y7.469999999999999 E2.7138
G1 X-28.899 Y7.2890000000000015 E2.7281
G1 X-29.233 Y7.073 E2.7424
G1 X-29.541 Y6.823 E2.7566
G1 X-29.823 Y6.540999999999997 E2.7709
G1 X-30.073 Y6.232999999999997 E2.7852
G1 X-30.289 Y5.899000000000001 E2.7995
G1 X-30.47 Y5.545000000000002 E2.8138
G1 X-30.612 Y5.1739999999999995 E2.8281
G1 X-30.715 Y4.789999999999999 E2.8423
G1 X-30.778 Y4.3969999999999985 E2.8566
G1 X-30.8 Y3.969000000000001 E2.8720
G1 X-30.8 Y-3.969000000000001 E3.1571
G1 X-30.778 Y-4.3969999999999985 E3.1726
G1 X-30.715 Y-4.789999999999999 E3.1868
G1 X-30.612 Y-5.1739999999999995 E3.2011
G1 X-30.47 Y-5.545000000000002 E3.2154
G1 X-30.289 Y-5.899000000000001 E3.2297
G1 X-30.073 Y-6.232999999999997 E3.2440
G1 X-29.823 Y-6.542000000000002 E3.2582
G1 X-29.542 Y-6.823 E3.2725
G1 X-29.233 Y-7.073 E3.2868
G1 X-28.899 Y-7.2890000000000015 E3.3011
G1 X-28.545 Y-7.469999999999999 E3.3154
G1 X-28.174 Y-7.612000000000002 E3.3296
G1 X-27.79 Y-7.715000000000003 E3.3439
G1 X-27.397 Y-7.777999999999999 E3.3582
G1 X-26.969 Y-7.799999999999997 E3.3736
G1 X26.968999999999994 Y-7.799999999999997 E5.3111
G1 X26.980999999999995 Y-8.280000000000001 F6000
G92 E0.0000
G1 X27.447000000000003 Y-8.256 E0.0168 F2700
G1 X27.89 Y-8.185000000000002 E0.0329
G1 X28.322000000000003 Y-8.07 E0.0489
G1 X28.739999999999995 Y-7.908999999999999 E0.0650
G1 X29.138999999999996 Y-7.706000000000003 E0.0811
G1 X29.515 Y-7.462000000000003 E0.0972
G1 X29.863 Y-7.18 E0.1133
G1 X30.180000000000007 Y-6.8629999999999995 E0.1294
G1 X30.462000000000003 Y-6.515000000000001 E0.1455
G1 X30.706000000000003 Y-6.139000000000003 E0.1616
G1 X30.909000000000006 Y-5.740000000000002 E0.1777
G1 X31.069999999999993 Y-5.322000000000003 E0.1937
G1 X31.185000000000002 Y-4.890000000000001 E0.2098
G1 X31.256 Y-4.447000000000003 E0.2259
G1 X31.28 Y-3.9810000000000016 E0.2427
G1 X31.28 Y3.9810000000000016 E0.5287
G1 X31.256 Y4.447000000000003 E0.5455
G1 X31.185000000000002 Y4.890000000000001 E0.5616
G1 X31.069999999999993 Y5.322000000000003 E0.5776
G1 X30.909000000000006 Y5.740000000000002 E0.5937
G1 X30.706000000000003 Y6.140000000000001 E0.6098
G1 X30.462000000000003 Y6.515000000000001 E0.6259
G1 X30.180000000000007 Y6.8629999999999995 E0.6420
G1 X29.863 Y7.18 E0.6581
G1 X29.515 Y7.462000000000003 E0.6742
G1 X29.14 Y7.706000000000003 E0.6903
G1 X28.739999999999995 Y7.908999999999999 E0.7064
G1 X28.322000000000003 Y8.07 E0.7224
G1 X27.89 Y8.186 E0.7385
G1 X27.447000000000003 Y8.256 E0.7546
G1 X26.980999999999995 Y8.280000000000001 E0.7714
G1 X-26.981 Y8.280000000000001 E2.7098
G1 X-27.447 Y8.256 E2.7265
G1 X-27.89 Y8.185000000000002 E2.7426
G1 X-28.322 Y8.07 E2.7587
G1 X-28.74 Y7.908999999999999 E2.7748
G1 X-29.14 Y7.706000000000003 E2.7909
G1 X-29.515 Y7.462000000000003 E2.8070
G1 X-29.863 Y7.18 E2.8231
G1 X-30.18 Y6.8629999999999995 E2.8392
G1 X-30.462 Y6.515000000000001 E2.8552
G1 X-30.706 Y6.139000000000003 E2.8713
G1 X-30.909 Y5.740000000000002 E2.8874
G1 X-31.07 Y5.322000000000003 E2.9035
G1 X-31.186 Y4.890000000000001 E2.9196
G1 X-31.256 Y4.447000000000003 E2.9357
G1 X-31.28 Y3.9810000000000016 E2.9525
G1 X-31.28 Y-3.9810000000000016 E3.2385
G1 X-31.256 Y-4.447000000000003 E3.2552
G1 X-31.186 Y-4.890000000000001 E3.2713
G1 X-31.07 Y-5.322000000000003 E3.2874
G1 X-30.909 Y-5.740000000000002 E3.3035
G1 X-30.706 Y-6.139000000000003 E3.3196
G1 X-30.462 Y-6.515000000000001 E3.3357
G1 X-30.18 Y-6.8629999999999995 E3.3518
G1 X-29.863 Y-7.18 E3.3679
G1 X-29.515 Y-7.462000000000003 E3.3839
G1 X-29.139 Y-7.706000000000003 E3.4000
G1 X-28.74 Y-7.908999999999999 E3.4161
G1 X-28.322 Y-8.07 E3.4322
G1 X-27.89 Y-8.186 E3.4483
G1 X-27.447 Y-8.256 E3.4644
G1 X-26.981 Y-8.280000000000001 E3.4812
G1 X26.980999999999995 Y-8.280000000000001 E5.4195
; feature outer perimeter
G1 X26.994 Y-8.759999999999998 F6000
G92 E0.0000
G1 X27.497 Y-8.734000000000002 E0.0181 F1800
G1 X27.989999999999995 Y-8.655999999999999 E0.0360
G1 X28.471000000000004 Y-8.527000000000001 E0.0539
G1 X28.936000000000007 Y-8.347999999999999 E0.0718
G1 X29.379999999999995 Y-8.122 E0.0897
G1 X29.798000000000002 Y-7.850999999999999 E0.1076
G1 X30.185000000000002 Y-7.536999999999999 E0.1255
G1 X30.537000000000006 Y-7.185000000000002 E0.1434
G1 X30.851 Y-6.798000000000002 E0.1613
G1 X31.122 Y-6.380000000000003 E0.1792
G1 X31.348 Y-5.936 E0.1971
G1 X31.527 Y-5.4709999999999965 E0.2150
G1 X31.656000000000006 Y-4.990000000000002 E0.2329
G1 X31.733999999999995 Y-4.4979999999999976 E0.2508
G1 X31.760000000000005 Y-3.9939999999999998 E0.2689
G1 X31.760000000000005 Y3.9939999999999998 E0.5558
G1 X31.733999999999995 Y4.4979999999999976 E0.5739
G1 X31.656000000000006 Y4.990000000000002 E0.5918
G1 X31.527 Y5.4709999999999965 E0.6097
G1 X31.348 Y5.936 E0.6276
G1 X31.122 Y6.380000000000003 E0.6455
G1 X30.851 Y6.798000000000002 E0.6634
G1 X30.537000000000006 Y7.185000000000002 E0.6813
G1 X30.185000000000002 Y7.536999999999999 E0.6992
G1 X29.798000000000002 Y7.850999999999999 E0.7171
G1 X29.379999999999995 Y8.122 E0.7350
G1 X28.936000000000007 Y8.347999999999999 E0.7529
G1 X28.471000000000004 Y8.527000000000001 E0.7708
G1 X27.989999999999995 Y8.655999999999999 E0.7887
G1 X27.497 Y8.734000000000002 E0.8066
G1 X26.994 Y8.759999999999998 E0.8247
G1 X-26.994 Y8.759999999999998 E2.7640
G1 X-27.497 Y8.734000000000002 E2.7821
G1 X-27.99 Y8.655999999999999 E2.8000
G1 X-28.471 Y8.527000000000001 E2.8179
G1 X-28.936 Y8.347999999999999 E2.8358
G1 X-29.38 Y8.122 E2.8537
G1 X-29.798 Y7.850999999999999 E2.8716
G1 X-30.185 Y7.536999999999999 E2.8895
G1 X-30.537 Y7.185000000000002 E2.9074
G1 X-30.851 Y6.798000000000002 E2.9253
G1 X-31.122 Y6.380000000000003 E2.9432
G1 X-31.348 Y5.936 E2.9611
G1 X-31.527 Y5.4709999999999965 E2.9790
G1 X-31.656 Y4.990000000000002 E2.9969
G1 X-31.734 Y4.4979999999999976 E3.0147
G1 X-31.76 Y3.9939999999999998 E3.0329
G1 X-31.76 Y-3.9939999999999998 E3.3198
G1 X-31.734 Y-4.4979999999999976 E3.3379
G1 X-31.656 Y-4.990000000000002 E3.3558
G1 X-31.527 Y-5.4709999999999965 E3.3737
G1 X-31.348 Y-5.936 E3.3916
G1 X-31.122 Y-6.380000000000003 E3.4095
G1 X-30.851 Y-6.798000000000002 E3.4274
G1 X-30.537 Y-7.185000000000002 E3.4453
G1 X-30.185 Y-7.536999999999999 E3.4632
G1 X-29.798 Y-7.850999999999999 E3.4811
G1 X-29.38 Y-8.122 E3.4990
G1 X-28.936 Y-8.347999999999999 E3.5169
G1 X-28.471 Y-8.527000000000001 E3.5348
G1 X-27.99 Y-8.655999999999999 E3.5527
G1 X-27.498 Y-8.734000000000002 E3.5706
G1 X-26.994 Y-8.759999999999998 E3.5887
G1 X26.994 Y-8.759999999999998 E5.5280
; feature infill
; tool H0.200 W0.600
G1 X30.451999999999998 Y3.488999999999997 F6000
G92 E0.0000
G1 X26.489000000000004 Y7.451999999999998 E0.2516 F3600
G1 X18.004000000000005 Y7.451999999999998 E0.6326
G1 X30.331999999999994 Y-4.875999999999998 E1.4155
G1 X30.281000000000006 Y-5.0660000000000025 E1.4243
G1 X30.152 Y-5.402999999999999 E1.4405
G1 X29.988 Y-5.725000000000001 E1.4567
G1 X29.790999999999997 Y-6.027999999999999 E1.4729
G1 X29.563999999999993 Y-6.308 E1.4892
G1 X29.308000000000007 Y-6.564 E1.5054
G1 X29.028000000000006 Y-6.790999999999997 E1.5216
G1 X28.724999999999994 Y-6.9879999999999995 E1.5378
G1 X28.403000000000006 Y-7.152000000000001 E1.5540
G1 X28.066000000000003 Y-7.280999999999999 E1.5702
G1 X27.717 Y-7.374000000000002 E1.5864
G1 X27.361000000000004 Y-7.430999999999997 E1.6027
G1 X26.959000000000003 Y-7.451999999999998 E1.6207
G1 X24.423000000000002 Y-7.451999999999998 E1.7346
G1 X9.518999999999998 Y7.451999999999998 E2.6810
G1 X1.0330000000000013 Y7.451999999999998 E3.0620
G1 X15.936999999999998 Y-7.451999999999998 E4.0084
G1 X7.451999999999998 Y-7.451999999999998 E4.3894
G1 X-7.451999999999998 Y7.451999999999998 E5.3358
G1 X-15.936999999999998 Y7.451999999999998 E5.7168
G1 X-1.0330000000000013 Y-7.451999999999998 E6.6632
G1 X-9.518999999999998 Y-7.451999999999998 E7.0442
G1 X-24.423 Y7.451999999999998 E7.9906
G1 X-26.959 Y7.451999999999998 E8.1045
G1 X-27.361 Y7.430999999999997 E8.1225
G1 X-27.717 Y7.374000000000002 E8.1388
G1 X-28.066 Y7.280999999999999 E8.1550
G1 X-28.403 Y7.152000000000001 E8.1712
G1 X-28.725 Y6.9879999999999995 E8.1874
G1 X-29.028 Y6.790999999999997 E8.2036
G1 X-29.308 Y6.564 E8.2198
G1 X-29.564 Y6.308 E8.2361
G1 X-29.791 Y6.027999999999999 E8.2523
G1 X-29.988 Y5.725000000000001 E8.2685
G1 X-30.152 Y5.402999999999999 E8.2847
G1 X-30.281 Y5.0660000000000025 E8.3009
G1 X-30.332 Y4.875999999999998 E8.3097
G1 X-18.004 Y-7.451999999999998 E9.0926
G1 X-26.489 Y-7.451999999999998 E9.4736
G1 X-30.452 Y-3.488999999999997 E9.7252
G92 E0.0000
G1 E-3 F2700 ; custom retraction - A
; layer 7, Z = 1.400
; feature inner perimeter
; tool H0.200 W0.480
;zhopupA
G1 X-30.8 Y-3.969000000000001 F6000
G1 Z1.400 F1200
G1 E0 F2400 ; custom un-retraction/prime - A
G92 E0.0000
G1 X-30.778 Y-4.3969999999999985 E0.0154 F2700
G1 X-30.715 Y-4.789999999999999 E0.0297
G1 X-30.612 Y-5.1739999999999995 E0.0440
G1 X-30.47 Y-5.545000000000002 E0.0583
G1 X-30.289 Y-5.899000000000001 E0.0725
G1 X-30.073 Y-6.232999999999997 E0.0868
G1 X-29.823 Y-6.542000000000002 E0.1011
G1 X-29.542 Y-6.823 E0.1154
G1 X-29.233 Y-7.073 E0.1297
G1 X-28.899 Y-7.2890000000000015 E0.1439
G1 X-28.545 Y-7.469999999999999 E0.1582
G1 X-28.174 Y-7.612000000000002 E0.1725
G1 X-27.79 Y-7.715000000000003 E0.1868
G1 X-27.397 Y-7.777999999999999 E0.2011
G1 X-26.969 Y-7.799999999999997 E0.2165
G1 X26.968999999999994 Y-7.799999999999997 E2.1540
G1 X27.397000000000006 Y-7.777999999999999 E2.1694
G1 X27.790000000000006 Y-7.715000000000003 E2.1837
G1 X28.174000000000007 Y-7.612000000000002 E2.1979
G1 X28.545 Y-7.469999999999999 E2.2122
G1 X28.899 Y-7.2890000000000015 E2.2265
G1 X29.233000000000004 Y-7.073 E2.2408
G1 X29.542 Y-6.823 E2.2551
G1 X29.822999999999993 Y-6.542000000000002 E2.2693
G1 X30.072999999999993 Y-6.232999999999997 E2.2836
G1 X30.289 Y-5.899000000000001 E2.2979
G1 X30.47 Y-5.545000000000002 E2.3122
G1 X30.611999999999995 Y-5.1739999999999995 E2.3265
G1 X30.715000000000003 Y-4.789999999999999 E2.3407
G1 X30.778000000000006 Y-4.3969999999999985 E2.3550
G1 X30.799999999999997 Y-3.969000000000001 E2.3704
G1 X30.799999999999997 Y3.969000000000001 E2.6556
G1 X30.778000000000006 Y4.3969999999999985 E2.6710
G1 X30.715000000000003 Y4.789999999999999 E2.6852
G1 X30.611999999999995 Y5.1739999999999995 E2.6995
G1 X30.47 Y5.545000000000002 E2.7138
G1 X30.289 Y5.899000000000001 E2.7281
G1 X30.072999999999993 Y6.232999999999997 E2.7424
G1 X29.822999999999993 Y6.540999999999997 E2.7566
G1 X29.540999999999997 Y6.823 E2.7709
G1 X29.233000000000004 Y7.073 E2.7852
G1 X28.899 Y7.2890000000000015 E2.7995
G1 X28.545 Y7.469999999999999 E2.8138
G1 X28.174000000000007 Y7.612000000000002 E2.8281
G1 X27.790000000000006 Y7.715000000000003 E2.8423
G1 X27.397000000000006 Y7.777999999999999 E2.8566
G1 X26.968999999999994 Y7.799999999999997 E2.8720
G1 X-26.969 Y7.799999999999997 E4.8095
G1 X-27.397 Y7.777999999999999 E4.8249
G1 X-27.79 Y7.715000000000003 E4.8392
G1 X-28.174 Y7.612000000000002 E4.8535
G1 X-28.545 Y7.469999999999999 E4.8678
G1 X-28.899 Y7.2890000000000015 E4.8820
G1 X-29.233 Y7.073 E4.8963
G1 X-29.541 Y6.823 E4.9106
G1 X-29.823 Y6.540999999999997 E4.9249
G1 X-30.073 Y6.232999999999997 E4.9392
G1 X-30.289 Y5.899000000000001 E4.9535
G1 X-30.47 Y5.545000000000002 E4.9677
G1 X-30.612 Y5.1739999999999995 E4.9820
G1 X-30.715 Y4.789999999999999 E4.9963
G1 X-30.778 Y4.3969999999999985 E5.0106
G1 X-30.8 Y3.969000000000001 E5.0260
G1 X-30.8 Y-3.969000000000001 E5.3111
G1 X-31.28 Y-3.9810000000000016 F6000
G92 E0.0000
G1 X-31.256 Y-4.447000000000003 E0.0168 F2700
G1 X-31.186 Y-4.890000000000001 E0.0329
G1 X-31.07 Y-5.322000000000003 E0.0489
G1 X-30.909 Y-5.740000000000002 E0.0650
G1 X-30.706 Y-6.139000000000003 E0.0811
G1 X-30.462 Y-6.515000000000001 E0.0972
