; generated by PrusaSlicer 2.3.0-rc2+ on 2021-03-30 at 04:20:58 UTC

; 

; external perimeters extrusion width = 0.45mm
; perimeters extrusion width = 0.45mm
; infill extrusion width = 0.45mm
; solid infill extrusion width = 0.45mm
; top infill extrusion width = 0.40mm

M73 P0 R98
M73 Q0 S98
M201 X9000 Y9000 Z9000 E10000 ; sets maximum accelerations, mm/sec^2
M203 X500 Y500 Z500 E120 ; sets maximum feedrates, mm/sec
M204 P1500 R1500 T1500 ; sets acceleration (P, T) and retract acceleration (R), mm/sec^2
M205 X20.00 Y20.00 Z20.00 E25.00 ; sets the jerk limits, mm/sec
M205 S0 T0 ; sets the minimum extruding and travel feed rate, mm/sec
M107
M190 S80 ; set bed temperature and wait for it to be reached
M104 S220 ; set temperature
;TYPE:Custom
G28 ; home all axes
G29 L1  ; Load the mesh saved in slot 1
G29 J   ; 3-point ABL, tilt mesh accordingly
M109 S220 ; set temperature and wait for it to be reached
G21 ; set units to millimeters
G90 ; use absolute coordinates
M82 ; use absolute distances for extrusion
G92 E0
;LAYER_CHANGE
;Z:0.2
;HEIGHT:0.2
G1 Z0.200 F9000.000
G1 E-3.00000 F2700.000
G92 E0
G1 Z0.700 F9000.000
G1 X-19.817 Y-19.807
G1 Z0.200
G1 E3.00000 F2700.000
;TYPE:Skirt
;WIDTH:0.45
G1 F3600.000
G1 X5.191 Y-44.827 E4.19741
G1 X6.309 Y-45.728 E4.24600
G1 X7.104 Y-46.168 E4.27676
G1 X7.956 Y-46.500 E4.30773
G1 X8.846 Y-46.716 E4.33871
G1 X9.749 Y-46.810 E4.36946
G1 X36.006 Y-46.814 E5.25823
G1 X36.836 Y-46.763 E5.28637
G1 X38.404 Y-46.518 E5.34008
G1 X39.634 Y-46.183 E5.38324
G1 X41.812 Y-45.106 E5.46548
G1 X43.054 Y-44.167 E5.51819
G1 X44.207 Y-43.012 E5.57342
G1 X44.741 Y-42.367 E5.60178
G1 X45.196 Y-41.655 E5.63036
G1 X45.925 Y-40.232 E5.68449
G1 X46.439 Y-38.789 E5.73633
G1 X46.794 Y-36.522 E5.81401
G1 X46.805 Y32.348 E8.14517
G1 X46.516 Y34.955 E8.23395
G1 X45.698 Y37.641 E8.32899
G1 X44.377 Y40.140 E8.42468
G1 X42.812 Y42.113 E8.50991
G1 X42.110 Y42.814 E8.54350
G1 X40.362 Y44.227 E8.61959
G1 X37.816 Y45.624 E8.71789
G1 X34.964 Y46.514 E8.81900
G1 X32.179 Y46.812 E8.91382
G1 X-36.219 Y46.811 E11.22901
G1 X-38.448 Y46.510 E11.30515
G1 X-39.586 Y46.200 E11.34505
G1 X-41.689 Y45.177 E11.42424
G1 X-42.806 Y44.392 E11.47044
G1 X-44.140 Y43.082 E11.53372
G1 X-44.680 Y42.450 E11.56186
G1 X-45.174 Y41.695 E11.59240
G1 X-45.896 Y40.289 E11.64589
G1 X-46.441 Y38.782 E11.70012
G1 X-46.802 Y36.412 E11.78127
G1 X-46.805 Y9.639 E12.68752
G1 X-46.653 Y8.528 E12.72546
G1 X-46.322 Y7.458 E12.76340
G1 X-45.820 Y6.456 E12.80134
G1 X-45.156 Y5.545 E12.83949
G1 X-19.859 Y-19.765 E14.05072
G1 E11.05072 F2700.000
G92 E0
G1 Z0.700 F9000.000
G1 X44.416 Y-42.122
G1 Z0.200
G1 E3.00000 F2700.000
G1 F3600.000
G1 X45.563 Y-40.044 E3.08033
G1 X46.047 Y-38.680 E3.12934
G1 X46.390 Y-36.468 E3.20508
G1 X46.399 Y32.319 E5.53344
G1 X46.119 Y34.868 E5.62026
G1 X45.321 Y37.487 E5.71292
G1 X44.033 Y39.923 E5.80619
G1 X42.497 Y41.855 E5.88975
G1 X41.837 Y42.512 E5.92126
G1 X40.121 Y43.899 E5.99596
G1 X37.643 Y45.255 E6.09155
G1 X34.876 Y46.117 E6.18967
G1 X32.166 Y46.405 E6.28190
G1 X-36.200 Y46.404 E8.59602
G1 X-38.374 Y46.109 E8.67027
G1 X-39.441 Y45.820 E8.70769
G1 X-41.486 Y44.824 E8.78469
G1 X-42.553 Y44.073 E8.82886
G1 X-44.360 Y42.197 E8.91702
G1 X-44.824 Y41.485 E8.94578
G1 X-45.536 Y40.100 E8.99849
G1 X-46.047 Y38.679 E9.04960
G1 X-46.396 Y36.381 E9.12829
G1 X-46.399 Y9.675 E10.03226
G1 X-46.257 Y8.623 E10.06820
G1 X-45.944 Y7.608 E10.10414
G1 X-45.467 Y6.659 E10.14009
G1 X-44.836 Y5.797 E10.17624
G1 X5.478 Y-44.539 E12.58530
M73 P0 R97
M73 Q0 S97
G1 X6.523 Y-45.382 E12.63072
G1 X7.277 Y-45.800 E12.65991
G1 X8.081 Y-46.113 E12.68910
G1 X8.919 Y-46.315 E12.71829
G1 X9.777 Y-46.403 E12.74748
G1 X36.006 Y-46.407 E13.63531
G1 X38.331 Y-46.117 E13.71461
G1 X39.488 Y-45.803 E13.75519
G1 X41.600 Y-44.758 E13.83494
G1 X42.779 Y-43.867 E13.88499
G1 X44.375 Y-42.166 E13.96394
G1 E10.96394 F2700.000
G92 E0
G1 Z0.700 F9000.000
G1 X10.225 Y10.225
G1 Z0.200
G1 E3.00000 F2700.000
;TYPE:External perimeter
G1 F3600.000
G1 X10.225 Y-39.775 E4.69244
G1 X36.044 Y-39.765 E5.56638
G1 X37.166 Y-39.588 E5.60482
G1 X38.217 Y-39.052 E5.64477
G1 X39.052 Y-38.217 E5.68472
G1 X39.588 Y-37.166 E5.72467
G1 X39.775 Y-35.982 E5.76522
G1 X39.775 Y31.989 E8.06597
G1 X39.625 Y33.517 E8.11793
G1 X39.182 Y34.975 E8.16951
G1 X38.464 Y36.319 E8.22109
G1 X37.497 Y37.497 E8.27268
G1 X36.319 Y38.464 E8.32426
G1 X34.975 Y39.182 E8.37585
G1 X33.517 Y39.625 E8.42743
G1 X31.989 Y39.775 E8.47939
G1 X-35.982 Y39.775 E10.78014
G1 X-37.166 Y39.588 E10.82069
G1 X-38.217 Y39.052 E10.86064
G1 X-39.052 Y38.217 E10.90059
G1 X-39.588 Y37.166 E10.94054
G1 X-39.775 Y35.982 E10.98109
G1 X-39.775 Y10.225 E11.85295
G1 X10.165 Y10.225 E13.54336
G1 X10.620 Y10.162 F9000.000
G1 X10.632 Y10.632
;TYPE:Perimeter
G1 F3600.000
G1 X10.632 Y-39.368 E15.23579
G1 X36.012 Y-39.358 E16.09487
G1 X37.038 Y-39.196 E16.13004
G1 X37.975 Y-38.718 E16.16562
G1 X38.718 Y-37.975 E16.20121
G1 X39.196 Y-37.038 E16.23679
G1 X39.368 Y-35.950 E16.27408
G1 X39.368 Y31.969 E18.57306
G1 X39.223 Y33.437 E18.62299
G1 X38.804 Y34.818 E18.67186
G1 X38.124 Y36.092 E18.72073
G1 X37.208 Y37.208 E18.76960
G1 X36.092 Y38.124 E18.81847
G1 X34.818 Y38.804 E18.86734
G1 X33.437 Y39.223 E18.91621
G1 X31.969 Y39.368 E18.96613
G1 X-35.950 Y39.368 E21.26512
G1 X-37.038 Y39.196 E21.30241
G1 X-37.975 Y38.718 E21.33799
G1 X-38.718 Y37.975 E21.37357
G1 X-39.196 Y37.038 E21.40916
G1 X-39.368 Y35.950 E21.44645
G1 X-39.368 Y10.632 E22.30344
G1 X10.572 Y10.632 E23.99385
G1 X11.039 Y11.039 F9000.000
G1 F3600.000
G1 X11.039 Y-38.960 E25.68627
G1 X35.980 Y-38.951 E26.53048
G1 X36.911 Y-38.804 E26.56239
G1 X37.733 Y-38.385 E26.59361
G1 X38.385 Y-37.733 E26.62483
G1 X38.804 Y-36.911 E26.65605
G1 X38.961 Y-35.918 E26.69007
G1 X38.961 Y31.949 E28.98730
G1 X38.822 Y33.357 E29.03519
G1 X38.426 Y34.662 E29.08134
G1 X37.784 Y35.864 E29.12750
G1 X36.919 Y36.919 E29.17365
G1 X35.864 Y37.784 E29.21981
G1 X34.662 Y38.426 E29.26596
G1 X33.357 Y38.822 E29.31212
G1 X31.949 Y38.961 E29.36001
G1 X-35.918 Y38.961 E31.65724
G1 X-36.911 Y38.804 E31.69126
G1 X-37.733 Y38.385 E31.72248
G1 X-38.385 Y37.733 E31.75369
G1 X-38.804 Y36.911 E31.78491
G1 X-38.961 Y35.918 E31.81893
G1 X-38.961 Y11.039 E32.66106
G1 X10.979 Y11.039 E34.35147
G1 E31.35147 F2700.000
G92 E0
G1 Z0.700 F9000.000
G1 X27.033 Y-22.955
G1 Z0.200
G1 E3.00000 F2700.000
;TYPE:External perimeter
G1 F3600.000
G1 X26.219 Y-23.347 E3.03058
G1 X25.610 Y-24.088 E3.06305
G1 X25.402 Y-25.000 E3.09471
G1 X25.610 Y-25.910 E3.12631
G1 X26.192 Y-26.640 E3.15791
G1 X27.033 Y-27.045 E3.18952
G1 X27.967 Y-27.045 E3.22112
G1 X28.808 Y-26.640 E3.25272
G1 X29.390 Y-25.910 E3.28432
G1 X29.591 Y-25.030 E3.31490
G1 X29.391 Y-24.091 E3.34737
G1 X28.808 Y-23.360 E3.37903
G1 X27.967 Y-22.955 E3.41063
G1 X27.093 Y-22.955 E3.44020
G1 X26.761 Y-22.662 F9000.000
G1 X26.940 Y-22.548
;TYPE:Perimeter
G1 F3600.000
G1 X25.962 Y-23.019 E3.47697
G1 X25.235 Y-23.904 E3.51573
G1 X24.985 Y-25.000 E3.55379
G1 X25.234 Y-26.091 E3.59168
G1 X25.932 Y-26.967 E3.62957
G1 X26.940 Y-27.452 E3.66746
G1 X28.060 Y-27.452 E3.70535
G1 X29.068 Y-26.967 E3.74324
G1 X29.766 Y-26.091 E3.78113
G1 X30.008 Y-25.033 E3.81790
G1 X29.769 Y-23.912 E3.85666
G1 X29.068 Y-23.033 E3.89472
G1 X28.060 Y-22.548 E3.93261
G1 X27.000 Y-22.548 E3.96847
G1 X26.847 Y-22.141 F9000.000
G1 F3600.000
G1 X25.704 Y-22.691 E4.01142
G1 X24.859 Y-23.720 E4.05647
G1 X24.567 Y-25.000 E4.10092
G1 X24.858 Y-26.273 E4.14510
G1 X25.671 Y-27.293 E4.18929
G1 X26.847 Y-27.859 E4.23347
G1 X28.153 Y-27.859 E4.27765
G1 X29.329 Y-27.293 E4.32183
G1 X30.142 Y-26.273 E4.36601
G1 X30.425 Y-25.036 E4.40896
G1 X30.147 Y-23.734 E4.45401
G1 X29.329 Y-22.707 E4.49846
G1 X28.153 Y-22.141 E4.54265
G1 X26.907 Y-22.141 E4.58480
G1 E1.58480 F2700.000
G92 E0
G1 Z0.700 F9000.000
G1 X27.033 Y25.455
G1 Z0.200
G1 E3.00000 F2700.000
;TYPE:External perimeter
G1 F3600.000
G1 X27.967 Y25.455 E3.03160
G1 X28.808 Y25.860 E3.06320
G1 X29.390 Y26.590 E3.09480
G1 X29.591 Y27.470 E3.12538
G1 X29.391 Y28.409 E3.15786
G1 X28.808 Y29.140 E3.18952
G1 X27.967 Y29.545 E3.22112
G1 X27.033 Y29.545 E3.25272
G1 X26.219 Y29.153 E3.28330
G1 X25.610 Y28.412 E3.31577
G1 X25.402 Y27.500 E3.34743
G1 X25.610 Y26.590 E3.37903
G1 X26.192 Y25.860 E3.41063
G1 X26.979 Y25.481 E3.44020
G1 X27.151 Y25.073 F9000.000
G1 X26.940 Y25.048
;TYPE:Perimeter
G1 F3600.000
G1 X28.060 Y25.048 E3.47810
G1 X29.068 Y25.533 E3.51599
G1 X29.766 Y26.409 E3.55388
G1 X30.008 Y27.467 E3.59064
G1 X29.769 Y28.588 E3.62941
G1 X29.068 Y29.467 E3.66746
G1 X28.060 Y29.952 E3.70535
G1 X26.940 Y29.952 E3.74324
G1 X25.962 Y29.481 E3.78001
G1 X25.235 Y28.596 E3.81877
G1 X24.985 Y27.500 E3.85683
G1 X25.234 Y26.409 E3.89472
G1 X25.932 Y25.533 E3.93261
G1 X26.886 Y25.074 E3.96847
G1 X26.847 Y24.641 F9000.000
G1 F3600.000
G1 X28.153 Y24.641 E4.01265
G1 X29.329 Y25.207 E4.05683
G1 X30.142 Y26.227 E4.10101
G1 X30.425 Y27.464 E4.14396
G1 X30.147 Y28.766 E4.18902
G1 X29.329 Y29.793 E4.23347
G1 X28.153 Y30.359 E4.27765
G1 X26.847 Y30.359 E4.32183
G1 X25.704 Y29.809 E4.36478
G1 X24.859 Y28.780 E4.40983
G1 X24.567 Y27.500 E4.45428
G1 X24.858 Y26.227 E4.49846
G1 X25.671 Y25.207 E4.54265
G1 X26.793 Y24.667 E4.58480
G1 E1.58480 F2700.000
G92 E0
G1 Z0.700 F9000.000
G1 X-22.909 Y27.470
G1 Z0.200
G1 E3.00000 F2700.000
;TYPE:External perimeter
G1 F3600.000
G1 X-23.109 Y28.409 E3.03248
G1 X-23.692 Y29.140 E3.06413
G1 X-24.533 Y29.545 E3.09574
G1 X-25.467 Y29.545 E3.12734
G1 X-26.281 Y29.153 E3.15791
G1 X-26.890 Y28.412 E3.19039
G1 X-27.098 Y27.500 E3.22205
G1 X-26.890 Y26.590 E3.25365
G1 X-26.308 Y25.860 E3.28525
G1 X-25.467 Y25.455 E3.31685
G1 X-24.533 Y25.455 E3.34846
G1 X-23.692 Y25.860 E3.38006
G1 X-23.110 Y26.590 E3.41166
G1 X-22.922 Y27.412 E3.44020
G1 X-22.560 Y27.667 F9000.000
G1 X-22.492 Y27.467
;TYPE:Perimeter
G1 F3600.000
G1 X-22.731 Y28.588 E3.47897
G1 X-23.432 Y29.467 E3.51702
G1 X-24.440 Y29.952 E3.55492
G1 X-25.560 Y29.952 E3.59281
G1 X-26.538 Y29.481 E3.62957
G1 X-27.265 Y28.596 E3.66834
G1 X-27.515 Y27.500 E3.70639
G1 X-27.266 Y26.409 E3.74428
G1 X-26.568 Y25.533 E3.78217
G1 X-25.560 Y25.048 E3.82006
G1 X-24.440 Y25.048 E3.85796
G1 X-23.432 Y25.533 E3.89585
G1 X-22.734 Y26.409 E3.93374
G1 X-22.505 Y27.409 E3.96847
G1 X-22.075 Y27.464 F9000.000
G1 F3600.000
G1 X-22.353 Y28.766 E4.01353
G1 X-23.171 Y29.793 E4.05797
G1 X-24.347 Y30.359 E4.10216
G1 X-25.653 Y30.359 E4.14634
G1 X-26.796 Y29.809 E4.18929
G1 X-27.641 Y28.780 E4.23434
G1 X-27.933 Y27.500 E4.27879
G1 X-27.642 Y26.227 E4.32297
G1 X-26.829 Y25.207 E4.36715
G1 X-25.653 Y24.641 E4.41133
G1 X-24.347 Y24.641 E4.45552
G1 X-23.171 Y25.207 E4.49970
G1 X-22.358 Y26.227 E4.54388
G1 X-22.089 Y27.406 E4.58480
G1 E1.58480 F2700.000
G92 E0
G1 Z0.700 F9000.000
G1 X-18.358 Y38.839
G1 Z0.200
G1 E3.00000 F2700.000
;TYPE:Solid infill
;WIDTH:0.451448
G1 F3600.000
G1 X-38.656 Y18.541 E3.97509
G1 X-38.656 Y19.119 E3.99471
G1 X-19.119 Y38.656 E4.93324
G1 X-19.697 Y38.656 E4.95287
G1 X-38.656 Y19.697 E5.86365
G1 X-38.656 Y20.274 E5.88327
G1 X-20.274 Y38.656 E6.76629
G1 X-20.852 Y38.656 E6.78592
G1 X-38.656 Y20.852 E7.64119
G1 X-38.656 Y21.430 E7.66081
G1 X-21.430 Y38.656 E8.48832
G1 X-22.008 Y38.656 E8.50795
G1 X-38.656 Y22.008 E9.30771
G1 X-38.656 Y22.585 E9.32733
G1 X-22.585 Y38.656 E10.09934
G1 X-23.163 Y38.656 E10.11896
G1 X-38.656 Y23.163 E10.86321
G1 X-38.656 Y23.741 E10.88283
G1 X-23.741 Y38.656 E11.59933
G1 X-24.319 Y38.656 E11.61895
G1 X-38.656 Y24.319 E12.30769
G1 X-38.656 Y24.896 E12.32732
G1 X-24.896 Y38.656 E12.98830
G1 X-25.474 Y38.656 E13.00793
G1 X-38.656 Y25.474 E13.64116
G1 X-38.656 Y26.052 E13.66078
G1 X-26.052 Y38.656 E14.26626
G1 X-26.630 Y38.656 E14.28588
G1 X-38.656 Y26.630 E14.86360
G1 X-38.656 Y27.207 E14.88323
G1 X-27.207 Y38.656 E15.43319
G1 X-27.785 Y38.656 E15.45282
G1 X-38.656 Y27.785 E15.97503
G1 X-38.656 Y28.363 E15.99465
G1 X-28.363 Y38.656 E16.48911
G1 X-28.941 Y38.656 E16.50873
G1 X-38.656 Y28.941 E16.97543
G1 X-38.656 Y29.518 E16.99506
G1 X-29.518 Y38.656 E17.43400
G1 X-30.096 Y38.656 E17.45363
G1 X-38.656 Y30.096 E17.86482
G1 X-38.656 Y30.674 E17.88445
G1 X-30.674 Y38.656 E18.26788
G1 X-31.252 Y38.656 E18.28751
G1 X-38.656 Y31.252 E18.64319
G1 X-38.656 Y31.829 E18.66281
G1 X-31.829 Y38.656 E18.99074
G1 X-32.407 Y38.656 E19.01037
G1 X-38.656 Y32.407 E19.31054
G1 X-38.656 Y32.985 E19.33016
G1 X-32.985 Y38.656 E19.60258
G1 X-33.563 Y38.656 E19.62221
G1 X-38.656 Y33.563 E19.86687
G1 X-38.656 Y34.140 E19.88649
G1 X-34.140 Y38.656 E20.10340
G1 X-34.718 Y38.656 E20.12303
G1 X-38.656 Y34.718 E20.31218
G1 X-38.656 Y35.296 E20.33180
G1 X-35.296 Y38.656 E20.49320
G1 X-35.874 Y38.656 E20.51283
G1 X-38.656 Y35.874 E20.64647
G1 X-38.551 Y36.556 E20.66993
G1 X-36.556 Y38.551 E20.76574
G1 X-36.815 Y38.510 E20.77466
G1 X-37.549 Y38.136 E20.80261
G1 X-38.555 Y37.129 E20.85097
G1 E17.85097 F2700.000
G92 E0
G1 Z0.700 F9000.000
G1 X-37.369 Y11.161
G1 Z0.200
G1 E3.00000 F2700.000
G1 F3600.000
G1 X-24.119 Y24.412 E3.63656
G1 X-24.278 Y24.335 E3.64256
G1 X-24.773 Y24.335 E3.65938
G1 X-37.764 Y11.344 E4.28346
G1 X-38.342 Y11.344 E4.30309
G1 X-25.351 Y24.335 E4.92717
G1 X-25.722 Y24.335 E4.93979
G1 X-25.861 Y24.402 E4.94503
G1 X-38.656 Y11.608 E5.55966
G1 X-38.656 Y12.186 E5.57928
G1 X-26.251 Y24.590 E6.17518
G1 X-26.641 Y24.778 E6.18988
G1 X-38.656 Y12.764 E6.76704
G1 X-38.656 Y13.342 E6.78666
G1 X-27.029 Y24.968 E7.34521
G1 X-27.285 Y25.290 E7.35917
G1 X-38.656 Y13.919 E7.90541
G1 X-38.656 Y14.497 E7.92503
G1 X-27.541 Y25.611 E8.45895
G1 X-27.798 Y25.933 E8.47292
G1 X-38.656 Y15.075 E8.99452
G1 X-38.656 Y15.653 E9.01415
G1 X-27.979 Y26.329 E9.52705
G1 X-28.086 Y26.800 E9.54344
G1 X-38.656 Y16.230 E10.05119
G1 X-38.656 Y16.808 E10.07082
G1 X-28.194 Y27.270 E10.57341
G1 X-28.246 Y27.500 E10.58143
G1 X-28.159 Y27.883 E10.59476
G1 X-38.656 Y17.386 E11.09902
G1 X-38.656 Y17.963 E11.11865
G1 X-27.988 Y28.631 E11.63112
G1 X-27.922 Y28.918 E11.64113
G1 X-26.989 Y30.055 E11.69108
G1 X-26.170 Y30.449 E11.72196
G1 X-17.963 Y38.656 E12.11619
G1 X-17.386 Y38.656 E12.13582
G1 X-25.377 Y30.665 E12.51970
G1 X-24.799 Y30.665 E12.53932
G1 X-16.808 Y38.656 E12.92320
G1 X-16.230 Y38.656 E12.94283
G1 X-24.240 Y30.646 E13.32759
G1 X-23.850 Y30.458 E13.34230
G1 X-15.653 Y38.656 E13.73608
G1 X-15.075 Y38.656 E13.75571
G1 X-23.460 Y30.271 E14.15851
G1 X-23.070 Y30.083 E14.17322
G1 X-14.497 Y38.656 E14.58504
G1 X-13.919 Y38.656 E14.60467
G1 X-22.781 Y29.794 E15.03040
G1 X-22.525 Y29.472 E15.04436
G1 X-13.342 Y38.656 E15.48553
G1 X-12.764 Y38.656 E15.50516
G1 X-22.269 Y29.151 E15.96177
G1 X-22.069 Y28.900 E15.97265
G1 X-22.047 Y28.795 E15.97631
G1 X-12.186 Y38.656 E16.45000
G1 X-11.608 Y38.656 E16.46963
G1 X-21.945 Y28.319 E16.96621
G1 X-21.844 Y27.842 E16.98275
G1 X-11.031 Y38.656 E17.50221
G1 X-10.453 Y38.656 E17.52183
G1 X-21.797 Y27.311 E18.06681
G1 X-21.968 Y26.563 E18.09289
G1 X-9.875 Y38.656 E18.67383
G1 X-9.297 Y38.656 E18.69345
G1 X-36.608 Y11.344 E20.00547
G1 X-36.031 Y11.344 E20.02510
G1 X-8.720 Y38.656 E21.33712
G1 X-8.142 Y38.656 E21.35674
G1 X-35.453 Y11.344 E22.66876
G1 X-34.875 Y11.344 E22.68839
G1 X-7.564 Y38.656 E24.00040
G1 X-6.986 Y38.656 E24.02003
G1 X-34.297 Y11.344 E25.33205
G1 X-33.720 Y11.344 E25.35167
G1 X-6.409 Y38.656 E26.66369
G1 X-5.831 Y38.656 E26.68332
G1 X-33.142 Y11.344 E27.99533
G1 X-32.564 Y11.344 E28.01496
G1 X-5.253 Y38.656 E29.32698
G1 X-4.675 Y38.656 E29.34660
G1 X-31.986 Y11.344 E30.65862
G1 X-31.409 Y11.344 E30.67825
G1 X-4.098 Y38.656 E31.99027
G1 X-3.520 Y38.656 E32.00989
G1 X-30.831 Y11.344 E33.32191
M73 P1 R97
M73 Q1 S97
G1 X-30.253 Y11.344 E33.34154
G1 X-2.942 Y38.656 E34.65355
G1 X-2.364 Y38.656 E34.67318
G1 X-29.675 Y11.344 E35.98520
G1 X-29.098 Y11.344 E36.00482
G1 X-1.787 Y38.656 E37.31684
G1 X-1.209 Y38.656 E37.33647
G1 X-28.520 Y11.344 E38.64849
G1 X-27.942 Y11.344 E38.66811
G1 X-0.631 Y38.656 E39.98013
G1 X-0.053 Y38.656 E39.99975
G1 X-27.364 Y11.344 E41.31177
G1 X-26.787 Y11.344 E41.33140
G1 X0.524 Y38.656 E42.64342
G1 X1.102 Y38.656 E42.66304
G1 X-26.209 Y11.344 E43.97506
G1 X-25.631 Y11.344 E43.99469
G1 X1.680 Y38.656 E45.30670
G1 X2.258 Y38.656 E45.32633
G1 X-25.053 Y11.344 E46.63835
